( Made using CamBam - http://www.cambam.co.uk )
( Impeller_5 1/6/2017 6:47:26 PM )
( T4 : 1.5 )
G21 G90 G64 G40
G0 Z3.0
( T4 : 1.5 )
T4 M6
( Avant Trou )
G17
M3
G0 X13.175 Y20.793
G0 Z0.5
G1 F300.0 Z-1.5
G2 F800.0 X21.65 Y15.9 I16.0 J15.9
G2 X13.175 Y11.007 I16.0 J15.9
G2 Y20.793 I16.0 J15.9
G1 F300.0 Z-3.0
G2 F800.0 X21.65 Y15.9 I16.0 J15.9
G2 X13.175 Y11.007 I16.0 J15.9
G2 Y20.793 I16.0 J15.9
G1 F300.0 Z-4.5
G2 F800.0 X21.65 Y15.9 I16.0 J15.9
G2 X13.175 Y11.007 I16.0 J15.9
G2 Y20.793 I16.0 J15.9
G1 F300.0 Z-6.0
G2 F800.0 X21.65 Y15.9 I16.0 J15.9
G2 X13.175 Y11.007 I16.0 J15.9
G2 Y20.793 I16.0 J15.9
G1 F300.0 Z-7.5
G2 F800.0 X21.65 Y15.9 I16.0 J15.9
G2 X13.175 Y11.007 I16.0 J15.9
G2 Y20.793 I16.0 J15.9
G1 F300.0 Z-9.0
G2 F800.0 X21.65 Y15.9 I16.0 J15.9
G2 X13.175 Y11.007 I16.0 J15.9
G2 Y20.793 I16.0 J15.9
( BAs )
G0 Z3.0
G0 X4.5728 Y20.3431
G0 Z0.5
G1 F300.0 Z-1.0
G3 F800.0 X4.6746 Y19.2035 I17.759 J20.9466
G3 X4.6863 Y19.1377 I5.418 J19.3025
G3 X6.8528 Y19.5126 I5.7602 J19.3796
G3 X6.852 Y19.5193 I6.1083 J19.422
G2 X6.7614 Y20.7143 I17.759 J20.9466
G2 X6.7683 Y20.7103 I5.8933 J19.1947
G2 Y17.6792 I5.8933 J19.1947
G2 X4.1433 Y19.1947 I5.8933 J19.1947
G2 X4.5728 Y20.3431 I5.8933 J19.1947
G0 Z3.0
G0 X10.1042 Y28.8462
G0 Z0.5
G1 F300.0 Z-1.0
G2 F800.0 X11.0144 Y29.6363 I17.759 J20.9466
G3 X11.1623 Y29.7893 I10.5546 J30.2288
G3 X9.8568 Y31.4828 I10.2588 J30.4427
G3 X9.6674 Y31.3758 I10.1272 J30.7832
G3 X8.6366 Y30.4872 I17.759 J20.9466
G2 X8.6345 Y30.5737 I10.3845 J30.5737
G2 X11.2595 Y32.0892 I10.3845 J30.5737
G2 Y29.0581 I10.3845 J30.5737
G2 X10.1042 Y28.8462 I10.3845 J30.5737
G0 Z3.0
G0 X14.1342 Y28.0178
G0 Z0.5
G1 F300.0 Z-1.0
G3 F800.0 X13.1982 Y27.3599 I21.25 J16.9
G3 X13.1471 Y27.3168 I13.6557 J26.7656
G3 X14.555 Y25.628 I13.8935 J26.5078
G3 X14.5604 Y25.6321 I14.1043 J26.2275
G2 X15.55 Y26.308 I21.25 J16.9
G2 Y26.3 I13.8 J26.3
G2 X12.925 Y24.7845 I13.8 J26.3
G2 Y27.8155 I13.8 J26.3
G2 X14.1342 Y28.0178 I13.8 J26.3
G0 Z3.0
G0 X24.2639 Y27.4791
G0 Z0.5
G1 F300.0 Z-1.0
G2 F800.0 X25.4032 Y27.0858 I21.25 J16.9
G3 X25.6096 Y27.0342 I25.6864 J27.7803
G3 X26.4235 Y29.0115 I25.7238 J28.1434
G3 X26.2361 Y29.122 I25.9528 J28.4276
G3 X24.9512 Y29.5705 I21.25 J16.9
G2 X25.025 Y29.6155 I25.9 J28.1
G2 X27.65 Y28.1 I25.9 J28.1
G2 X25.025 Y26.5845 I25.9 J28.1
G2 X24.2639 Y27.4791 I25.9 J28.1
G0 Z3.0
G0 X25.5614 Y23.5747
G0 Z0.5
G1 F300.0 Z-1.0
G3 F800.0 X24.5236 Y24.0564 I19.491 J11.8534
G3 X24.4608 Y24.0791 I24.2377 J23.363
G3 X23.7022 Y22.0154 I24.1334 J23.0282
G3 X23.7084 Y22.0128 I23.996 J22.7055
G2 X24.7886 Y21.4937 I19.491 J11.8534
G2 X24.7817 Y21.4897 I23.9067 J23.0053
G2 X22.1567 Y23.0053 I23.9067 J23.0053
G2 X24.7817 Y24.5208 I23.9067 J23.0053
G2 X25.5614 Y23.5747 I23.9067 J23.0053
G0 Z3.0
G0 X30.1597 Y14.5328
G0 Z0.5
G1 F300.0 Z-1.0
G2 F800.0 X30.3888 Y13.3495 I19.491 J11.8534
G3 X30.4473 Y13.1449 I31.1318 J13.4515
G3 X32.5667 Y13.4288 I31.465 J13.6007
G3 X32.5687 Y13.6463 I31.8256 J13.5444
G3 X32.3146 Y14.9833 I19.491 J11.8534
G2 X32.3905 Y14.9419 I31.5155 J13.4263
G2 Y11.9108 I31.5155 J13.4263
G2 X29.7655 Y13.4263 I31.5155 J13.4263
G2 X30.1597 Y14.5328 I31.5155 J13.4263
G0 Z3.0
G0 X27.4272 Y11.4569
G0 Z0.5
G1 F300.0 Z-1.0
G3 F800.0 X27.3254 Y12.5965 I14.241 J10.8534
G3 X27.3137 Y12.6623 I26.582 J12.4975
G3 X25.1472 Y12.2874 I26.2398 J12.4204
G3 X25.148 Y12.2807 I25.8917 J12.378
G2 X25.2386 Y11.0857 I14.241 J10.8534
G2 X25.2317 Y11.0897 I26.1067 J12.6053
G2 Y14.1208 I26.1067 J12.6053
G2 X27.8567 Y12.6053 I26.1067 J12.6053
G2 X27.4272 Y11.4569 I26.1067 J12.6053
G0 Z3.0
G0 X21.8958 Y2.9538
G0 Z0.5
G1 F300.0 Z-1.0
G2 F800.0 X20.9856 Y2.1637 I14.241 J10.8534
G3 X20.8377 Y2.0107 I21.4454 J1.5712
G3 X22.1432 Y0.3172 I21.7412 J1.3573
G3 X22.3326 Y0.4242 I21.8728 J1.0168
G3 X23.3634 Y1.3128 I14.241 J10.8534
G2 X23.3655 Y1.2263 I21.6155 J1.2263
G2 X20.7405 Y-0.2892 I21.6155 J1.2263
G2 Y2.7419 I21.6155 J1.2263
G2 X21.8958 Y2.9538 I21.6155 J1.2263
G0 Z3.0
G0 X17.8658 Y3.7822
G0 Z0.5
G1 F300.0 Z-1.0
G3 F800.0 X18.8018 Y4.4401 I10.75 J14.9
G3 X18.8529 Y4.4832 I18.3443 J5.0344
G3 X17.445 Y6.172 I18.1065 J5.2922
G3 X17.4396 Y6.1679 I17.8957 J5.5725
G2 X16.45 Y5.492 I10.75 J14.9
G2 Y5.5 I18.2 J5.5
G2 X19.075 Y7.0155 I18.2 J5.5
G2 Y3.9845 I18.2 J5.5
G2 X17.8658 Y3.7822 I18.2 J5.5
G0 Z3.0
G0 X7.7361 Y4.3209
G0 Z0.5
G1 F300.0 Z-1.0
G2 F800.0 X6.5968 Y4.7142 I10.75 J14.9
G3 X6.3904 Y4.7658 I6.3136 J4.0197
G3 X5.5765 Y2.7885 I6.2762 J3.6566
G3 X5.7639 Y2.678 I6.0472 J3.3724
G3 X7.0488 Y2.2295 I10.75 J14.9
G2 X6.975 Y2.1845 I6.1 J3.7
G2 X4.35 Y3.7 I6.1 J3.7
G2 X6.975 Y5.2155 I6.1 J3.7
G2 X7.7361 Y4.3209 I6.1 J3.7
G0 Z3.0
G0 X6.4386 Y8.2253
G0 Z0.5
G1 F300.0 Z-1.0
G3 F800.0 X7.4764 Y7.7436 I12.509 J19.9466
G3 X7.5392 Y7.7209 I7.7623 J8.437
G3 X8.2978 Y9.7846 I7.8666 J8.7718
G3 X8.2916 Y9.7872 I8.004 J9.0945
G2 X7.2114 Y10.3063 I12.509 J19.9466
G2 X7.2183 Y10.3103 I8.0933 J8.7947
G2 X9.8433 Y8.7947 I8.0933 J8.7947
G2 X7.2183 Y7.2792 I8.0933 J8.7947
G2 X6.4386 Y8.2253 I8.0933 J8.7947
G0 Z3.0
G0 X1.8403 Y17.2672
G0 Z0.5
G1 F300.0 Z-1.0
G2 F800.0 X1.6112 Y18.4505 I12.509 J19.9466
G3 X1.5527 Y18.6551 I0.8682 J18.3485
G3 X-0.5667 Y18.3712 I0.535 J18.1993
G3 X-0.5687 Y18.1537 I0.1744 J18.2556
G3 X-0.3146 Y16.8167 I12.509 J19.9466
G2 X-0.3905 Y16.8581 I0.4845 J18.3737
G2 Y19.8892 I0.4845 J18.3737
G2 X2.2345 Y18.3737 I0.4845 J18.3737
G2 X1.8403 Y17.2672 I0.4845 J18.3737
G0 Z3.0
G0 X4.5728 Y20.3431
G0 Z-0.5
G1 F300.0 Z-2.0
G3 F800.0 X4.6746 Y19.2035 I17.759 J20.9466
G3 X4.6863 Y19.1377 I5.418 J19.3025
G3 X6.8528 Y19.5126 I5.7602 J19.3796
G3 X6.852 Y19.5193 I6.1083 J19.422
G2 X6.7614 Y20.7143 I17.759 J20.9466
G2 X6.7683 Y20.7103 I5.8933 J19.1947
G2 Y17.6792 I5.8933 J19.1947
G2 X4.1433 Y19.1947 I5.8933 J19.1947
G2 X4.5728 Y20.3431 I5.8933 J19.1947
G0 Z3.0
G0 X10.1042 Y28.8462
G0 Z-0.5
G1 F300.0 Z-2.0
G2 F800.0 X11.0144 Y29.6363 I17.759 J20.9466
G3 X11.1623 Y29.7893 I10.5546 J30.2288
G3 X9.8568 Y31.4828 I10.2588 J30.4427
G3 X9.6674 Y31.3758 I10.1272 J30.7832
G3 X8.6366 Y30.4872 I17.759 J20.9466
G2 X8.6345 Y30.5737 I10.3845 J30.5737
G2 X11.2595 Y32.0892 I10.3845 J30.5737
G2 Y29.0581 I10.3845 J30.5737
G2 X10.1042 Y28.8462 I10.3845 J30.5737
G0 Z3.0
G0 X14.1342 Y28.0178
G0 Z-0.5
G1 F300.0 Z-2.0
G3 F800.0 X13.1982 Y27.3599 I21.25 J16.9
G3 X13.1471 Y27.3168 I13.6557 J26.7656
G3 X14.555 Y25.628 I13.8935 J26.5078
G3 X14.5604 Y25.6321 I14.1043 J26.2275
G2 X15.55 Y26.308 I21.25 J16.9
G2 Y26.3 I13.8 J26.3
G2 X12.925 Y24.7845 I13.8 J26.3
G2 Y27.8155 I13.8 J26.3
G2 X14.1342 Y28.0178 I13.8 J26.3
G0 Z3.0
G0 X24.2639 Y27.4791
G0 Z-0.5
G1 F300.0 Z-2.0
G2 F800.0 X25.4032 Y27.0858 I21.25 J16.9
G3 X25.6096 Y27.0342 I25.6864 J27.7803
G3 X26.4235 Y29.0115 I25.7238 J28.1434
G3 X26.2361 Y29.122 I25.9528 J28.4276
G3 X24.9512 Y29.5705 I21.25 J16.9
G2 X25.025 Y29.6155 I25.9 J28.1
G2 X27.65 Y28.1 I25.9 J28.1
G2 X25.025 Y26.5845 I25.9 J28.1
G2 X24.2639 Y27.4791 I25.9 J28.1
G0 Z3.0
G0 X25.5614 Y23.5747
G0 Z-0.5
G1 F300.0 Z-2.0
G3 F800.0 X24.5236 Y24.0564 I19.491 J11.8534
G3 X24.4608 Y24.0791 I24.2377 J23.363
G3 X23.7022 Y22.0154 I24.1334 J23.0282
G3 X23.7084 Y22.0128 I23.996 J22.7055
G2 X24.7886 Y21.4937 I19.491 J11.8534
G2 X24.7817 Y21.4897 I23.9067 J23.0053
G2 X22.1567 Y23.0053 I23.9067 J23.0053
G2 X24.7817 Y24.5208 I23.9067 J23.0053
G2 X25.5614 Y23.5747 I23.9067 J23.0053
G0 Z3.0
G0 X30.1597 Y14.5328
G0 Z-0.5
G1 F300.0 Z-2.0
G2 F800.0 X30.3888 Y13.3495 I19.491 J11.8534
G3 X30.4473 Y13.1449 I31.1318 J13.4515
G3 X32.5667 Y13.4288 I31.465 J13.6007
G3 X32.5687 Y13.6463 I31.8256 J13.5444
G3 X32.3146 Y14.9833 I19.491 J11.8534
G2 X32.3905 Y14.9419 I31.5155 J13.4263
G2 Y11.9108 I31.5155 J13.4263
G2 X29.7655 Y13.4263 I31.5155 J13.4263
G2 X30.1597 Y14.5328 I31.5155 J13.4263
G0 Z3.0
G0 X27.4272 Y11.4569
G0 Z-0.5
G1 F300.0 Z-2.0
G3 F800.0 X27.3254 Y12.5965 I14.241 J10.8534
G3 X27.3137 Y12.6623 I26.582 J12.4975
G3 X25.1472 Y12.2874 I26.2398 J12.4204
G3 X25.148 Y12.2807 I25.8917 J12.378
G2 X25.2386 Y11.0857 I14.241 J10.8534
G2 X25.2317 Y11.0897 I26.1067 J12.6053
G2 Y14.1208 I26.1067 J12.6053
G2 X27.8567 Y12.6053 I26.1067 J12.6053
G2 X27.4272 Y11.4569 I26.1067 J12.6053
G0 Z3.0
G0 X21.8958 Y2.9538
G0 Z-0.5
G1 F300.0 Z-2.0
G2 F800.0 X20.9856 Y2.1637 I14.241 J10.8534
G3 X20.8377 Y2.0107 I21.4454 J1.5712
G3 X22.1432 Y0.3172 I21.7412 J1.3573
G3 X22.3326 Y0.4242 I21.8728 J1.0168
G3 X23.3634 Y1.3128 I14.241 J10.8534
G2 X23.3655 Y1.2263 I21.6155 J1.2263
G2 X20.7405 Y-0.2892 I21.6155 J1.2263
G2 Y2.7419 I21.6155 J1.2263
G2 X21.8958 Y2.9538 I21.6155 J1.2263
G0 Z3.0
G0 X17.8658 Y3.7822
G0 Z-0.5
G1 F300.0 Z-2.0
G3 F800.0 X18.8018 Y4.4401 I10.75 J14.9
G3 X18.8529 Y4.4832 I18.3443 J5.0344
G3 X17.445 Y6.172 I18.1065 J5.2922
G3 X17.4396 Y6.1679 I17.8957 J5.5725
G2 X16.45 Y5.492 I10.75 J14.9
G2 Y5.5 I18.2 J5.5
G2 X19.075 Y7.0155 I18.2 J5.5
G2 Y3.9845 I18.2 J5.5
G2 X17.8658 Y3.7822 I18.2 J5.5
G0 Z3.0
G0 X7.7361 Y4.3209
G0 Z-0.5
G1 F300.0 Z-2.0
G2 F800.0 X6.5968 Y4.7142 I10.75 J14.9
G3 X6.3904 Y4.7658 I6.3136 J4.0197
G3 X5.5765 Y2.7885 I6.2762 J3.6566
G3 X5.7639 Y2.678 I6.0472 J3.3724
G3 X7.0488 Y2.2295 I10.75 J14.9
G2 X6.975 Y2.1845 I6.1 J3.7
G2 X4.35 Y3.7 I6.1 J3.7
G2 X6.975 Y5.2155 I6.1 J3.7
G2 X7.7361 Y4.3209 I6.1 J3.7
G0 Z3.0
G0 X6.4386 Y8.2253
G0 Z-0.5
G1 F300.0 Z-2.0
G3 F800.0 X7.4764 Y7.7436 I12.509 J19.9466
G3 X7.5392 Y7.7209 I7.7623 J8.437
G3 X8.2978 Y9.7846 I7.8666 J8.7718
G3 X8.2916 Y9.7872 I8.004 J9.0945
G2 X7.2114 Y10.3063 I12.509 J19.9466
G2 X7.2183 Y10.3103 I8.0933 J8.7947
G2 X9.8433 Y8.7947 I8.0933 J8.7947
G2 X7.2183 Y7.2792 I8.0933 J8.7947
G2 X6.4386 Y8.2253 I8.0933 J8.7947
G0 Z3.0
G0 X1.8403 Y17.2672
G0 Z-0.5
G1 F300.0 Z-2.0
G2 F800.0 X1.6112 Y18.4505 I12.509 J19.9466
G3 X1.5527 Y18.6551 I0.8682 J18.3485
G3 X-0.5667 Y18.3712 I0.535 J18.1993
G3 X-0.5687 Y18.1537 I0.1744 J18.2556
G3 X-0.3146 Y16.8167 I12.509 J19.9466
G2 X-0.3905 Y16.8581 I0.4845 J18.3737
G2 Y19.8892 I0.4845 J18.3737
G2 X2.2345 Y18.3737 I0.4845 J18.3737
G2 X1.8403 Y17.2672 I0.4845 J18.3737
G0 Z3.0
G0 X4.5728 Y20.3431
G0 Z-1.5
G1 F300.0 Z-3.0
G3 F800.0 X4.6746 Y19.2035 I17.759 J20.9466
G3 X4.6863 Y19.1377 I5.418 J19.3025
G3 X6.8528 Y19.5126 I5.7602 J19.3796
G3 X6.852 Y19.5193 I6.1083 J19.422
G2 X6.7614 Y20.7143 I17.759 J20.9466
G2 X6.7683 Y20.7103 I5.8933 J19.1947
G2 Y17.6792 I5.8933 J19.1947
G2 X4.1433 Y19.1947 I5.8933 J19.1947
G2 X4.5728 Y20.3431 I5.8933 J19.1947
G0 Z3.0
G0 X10.1042 Y28.8462
G0 Z-1.5
G1 F300.0 Z-3.0
G2 F800.0 X11.0144 Y29.6363 I17.759 J20.9466
G3 X11.1623 Y29.7893 I10.5546 J30.2288
G3 X9.8568 Y31.4828 I10.2588 J30.4427
G3 X9.6674 Y31.3758 I10.1272 J30.7832
G3 X8.6366 Y30.4872 I17.759 J20.9466
G2 X8.6345 Y30.5737 I10.3845 J30.5737
G2 X11.2595 Y32.0892 I10.3845 J30.5737
G2 Y29.0581 I10.3845 J30.5737
G2 X10.1042 Y28.8462 I10.3845 J30.5737
G0 Z3.0
G0 X14.1342 Y28.0178
G0 Z-1.5
G1 F300.0 Z-3.0
G3 F800.0 X13.1982 Y27.3599 I21.25 J16.9
G3 X13.1471 Y27.3168 I13.6557 J26.7656
G3 X14.555 Y25.628 I13.8935 J26.5078
G3 X14.5604 Y25.6321 I14.1043 J26.2275
G2 X15.55 Y26.308 I21.25 J16.9
G2 Y26.3 I13.8 J26.3
G2 X12.925 Y24.7845 I13.8 J26.3
G2 Y27.8155 I13.8 J26.3
G2 X14.1342 Y28.0178 I13.8 J26.3
G0 Z3.0
G0 X24.2639 Y27.4791
G0 Z-1.5
G1 F300.0 Z-3.0
G2 F800.0 X25.4032 Y27.0858 I21.25 J16.9
G3 X25.6096 Y27.0342 I25.6864 J27.7803
G3 X26.4235 Y29.0115 I25.7238 J28.1434
G3 X26.2361 Y29.122 I25.9528 J28.4276
G3 X24.9512 Y29.5705 I21.25 J16.9
G2 X25.025 Y29.6155 I25.9 J28.1
G2 X27.65 Y28.1 I25.9 J28.1
G2 X25.025 Y26.5845 I25.9 J28.1
G2 X24.2639 Y27.4791 I25.9 J28.1
G0 Z3.0
G0 X25.5614 Y23.5747
G0 Z-1.5
G1 F300.0 Z-3.0
G3 F800.0 X24.5236 Y24.0564 I19.491 J11.8534
G3 X24.4608 Y24.0791 I24.2377 J23.363
G3 X23.7022 Y22.0154 I24.1334 J23.0282
G3 X23.7084 Y22.0128 I23.996 J22.7055
G2 X24.7886 Y21.4937 I19.491 J11.8534
G2 X24.7817 Y21.4897 I23.9067 J23.0053
G2 X22.1567 Y23.0053 I23.9067 J23.0053
G2 X24.7817 Y24.5208 I23.9067 J23.0053
G2 X25.5614 Y23.5747 I23.9067 J23.0053
G0 Z3.0
G0 X30.1597 Y14.5328
G0 Z-1.5
G1 F300.0 Z-3.0
G2 F800.0 X30.3888 Y13.3495 I19.491 J11.8534
G3 X30.4473 Y13.1449 I31.1318 J13.4515
G3 X32.5667 Y13.4288 I31.465 J13.6007
G3 X32.5687 Y13.6463 I31.8256 J13.5444
G3 X32.3146 Y14.9833 I19.491 J11.8534
G2 X32.3905 Y14.9419 I31.5155 J13.4263
G2 Y11.9108 I31.5155 J13.4263
G2 X29.7655 Y13.4263 I31.5155 J13.4263
G2 X30.1597 Y14.5328 I31.5155 J13.4263
G0 Z3.0
G0 X27.4272 Y11.4569
G0 Z-1.5
G1 F300.0 Z-3.0
G3 F800.0 X27.3254 Y12.5965 I14.241 J10.8534
G3 X27.3137 Y12.6623 I26.582 J12.4975
G3 X25.1472 Y12.2874 I26.2398 J12.4204
G3 X25.148 Y12.2807 I25.8917 J12.378
G2 X25.2386 Y11.0857 I14.241 J10.8534
G2 X25.2317 Y11.0897 I26.1067 J12.6053
G2 Y14.1208 I26.1067 J12.6053
G2 X27.8567 Y12.6053 I26.1067 J12.6053
G2 X27.4272 Y11.4569 I26.1067 J12.6053
G0 Z3.0
G0 X21.8958 Y2.9538
G0 Z-1.5
G1 F300.0 Z-3.0
G2 F800.0 X20.9856 Y2.1637 I14.241 J10.8534
G3 X20.8377 Y2.0107 I21.4454 J1.5712
G3 X22.1432 Y0.3172 I21.7412 J1.3573
G3 X22.3326 Y0.4242 I21.8728 J1.0168
G3 X23.3634 Y1.3128 I14.241 J10.8534
G2 X23.3655 Y1.2263 I21.6155 J1.2263
G2 X20.7405 Y-0.2892 I21.6155 J1.2263
G2 Y2.7419 I21.6155 J1.2263
G2 X21.8958 Y2.9538 I21.6155 J1.2263
G0 Z3.0
G0 X17.8658 Y3.7822
G0 Z-1.5
G1 F300.0 Z-3.0
G3 F800.0 X18.8018 Y4.4401 I10.75 J14.9
G3 X18.8529 Y4.4832 I18.3443 J5.0344
G3 X17.445 Y6.172 I18.1065 J5.2922
G3 X17.4396 Y6.1679 I17.8957 J5.5725
G2 X16.45 Y5.492 I10.75 J14.9
G2 Y5.5 I18.2 J5.5
G2 X19.075 Y7.0155 I18.2 J5.5
G2 Y3.9845 I18.2 J5.5
G2 X17.8658 Y3.7822 I18.2 J5.5
G0 Z3.0
G0 X7.7361 Y4.3209
G0 Z-1.5
G1 F300.0 Z-3.0
G2 F800.0 X6.5968 Y4.7142 I10.75 J14.9
G3 X6.3904 Y4.7658 I6.3136 J4.0197
G3 X5.5765 Y2.7885 I6.2762 J3.6566
G3 X5.7639 Y2.678 I6.0472 J3.3724
G3 X7.0488 Y2.2295 I10.75 J14.9
G2 X6.975 Y2.1845 I6.1 J3.7
G2 X4.35 Y3.7 I6.1 J3.7
G2 X6.975 Y5.2155 I6.1 J3.7
G2 X7.7361 Y4.3209 I6.1 J3.7
G0 Z3.0
G0 X6.4386 Y8.2253
G0 Z-1.5
G1 F300.0 Z-3.0
G3 F800.0 X7.4764 Y7.7436 I12.509 J19.9466
G3 X7.5392 Y7.7209 I7.7623 J8.437
G3 X8.2978 Y9.7846 I7.8666 J8.7718
G3 X8.2916 Y9.7872 I8.004 J9.0945
G2 X7.2114 Y10.3063 I12.509 J19.9466
G2 X7.2183 Y10.3103 I8.0933 J8.7947
G2 X9.8433 Y8.7947 I8.0933 J8.7947
G2 X7.2183 Y7.2792 I8.0933 J8.7947
G2 X6.4386 Y8.2253 I8.0933 J8.7947
G0 Z3.0
G0 X1.8403 Y17.2672
G0 Z-1.5
G1 F300.0 Z-3.0
G2 F800.0 X1.6112 Y18.4505 I12.509 J19.9466
G3 X1.5527 Y18.6551 I0.8682 J18.3485
G3 X-0.5667 Y18.3712 I0.535 J18.1993
G3 X-0.5687 Y18.1537 I0.1744 J18.2556
G3 X-0.3146 Y16.8167 I12.509 J19.9466
G2 X-0.3905 Y16.8581 I0.4845 J18.3737
G2 Y19.8892 I0.4845 J18.3737
G2 X2.2345 Y18.3737 I0.4845 J18.3737
G2 X1.8403 Y17.2672 I0.4845 J18.3737
G0 Z3.0
G0 X4.5728 Y20.3431
G0 Z-2.5
G1 F300.0 Z-4.0
G3 F800.0 X4.6746 Y19.2035 I17.759 J20.9466
G3 X4.6863 Y19.1377 I5.418 J19.3025
G3 X6.8528 Y19.5126 I5.7602 J19.3796
G3 X6.852 Y19.5193 I6.1083 J19.422
G2 X6.7614 Y20.7143 I17.759 J20.9466
G2 X6.7683 Y20.7103 I5.8933 J19.1947
G2 Y17.6792 I5.8933 J19.1947
G2 X4.1433 Y19.1947 I5.8933 J19.1947
G2 X4.5728 Y20.3431 I5.8933 J19.1947
G0 Z3.0
G0 X10.1042 Y28.8462
G0 Z-2.5
G1 F300.0 Z-4.0
G2 F800.0 X11.0144 Y29.6363 I17.759 J20.9466
G3 X11.1623 Y29.7893 I10.5546 J30.2288
G3 X9.8568 Y31.4828 I10.2588 J30.4427
G3 X9.6674 Y31.3758 I10.1272 J30.7832
G3 X8.6366 Y30.4872 I17.759 J20.9466
G2 X8.6345 Y30.5737 I10.3845 J30.5737
G2 X11.2595 Y32.0892 I10.3845 J30.5737
G2 Y29.0581 I10.3845 J30.5737
G2 X10.1042 Y28.8462 I10.3845 J30.5737
G0 Z3.0
G0 X14.1342 Y28.0178
G0 Z-2.5
G1 F300.0 Z-4.0
G3 F800.0 X13.1982 Y27.3599 I21.25 J16.9
G3 X13.1471 Y27.3168 I13.6557 J26.7656
G3 X14.555 Y25.628 I13.8935 J26.5078
G3 X14.5604 Y25.6321 I14.1043 J26.2275
G2 X15.55 Y26.308 I21.25 J16.9
G2 Y26.3 I13.8 J26.3
G2 X12.925 Y24.7845 I13.8 J26.3
G2 Y27.8155 I13.8 J26.3
G2 X14.1342 Y28.0178 I13.8 J26.3
G0 Z3.0
G0 X24.2639 Y27.4791
G0 Z-2.5
G1 F300.0 Z-4.0
G2 F800.0 X25.4032 Y27.0858 I21.25 J16.9
G3 X25.6096 Y27.0342 I25.6864 J27.7803
G3 X26.4235 Y29.0115 I25.7238 J28.1434
G3 X26.2361 Y29.122 I25.9528 J28.4276
G3 X24.9512 Y29.5705 I21.25 J16.9
G2 X25.025 Y29.6155 I25.9 J28.1
G2 X27.65 Y28.1 I25.9 J28.1
G2 X25.025 Y26.5845 I25.9 J28.1
G2 X24.2639 Y27.4791 I25.9 J28.1
G0 Z3.0
G0 X25.5614 Y23.5747
G0 Z-2.5
G1 F300.0 Z-4.0
G3 F800.0 X24.5236 Y24.0564 I19.491 J11.8534
G3 X24.4608 Y24.0791 I24.2377 J23.363
G3 X23.7022 Y22.0154 I24.1334 J23.0282
G3 X23.7084 Y22.0128 I23.996 J22.7055
G2 X24.7886 Y21.4937 I19.491 J11.8534
G2 X24.7817 Y21.4897 I23.9067 J23.0053
G2 X22.1567 Y23.0053 I23.9067 J23.0053
G2 X24.7817 Y24.5208 I23.9067 J23.0053
G2 X25.5614 Y23.5747 I23.9067 J23.0053
G0 Z3.0
G0 X30.1597 Y14.5328
G0 Z-2.5
G1 F300.0 Z-4.0
G2 F800.0 X30.3888 Y13.3495 I19.491 J11.8534
G3 X30.4473 Y13.1449 I31.1318 J13.4515
G3 X32.5667 Y13.4288 I31.465 J13.6007
G3 X32.5687 Y13.6463 I31.8256 J13.5444
G3 X32.3146 Y14.9833 I19.491 J11.8534
G2 X32.3905 Y14.9419 I31.5155 J13.4263
G2 Y11.9108 I31.5155 J13.4263
G2 X29.7655 Y13.4263 I31.5155 J13.4263
G2 X30.1597 Y14.5328 I31.5155 J13.4263
G0 Z3.0
G0 X27.4272 Y11.4569
G0 Z-2.5
G1 F300.0 Z-4.0
G3 F800.0 X27.3254 Y12.5965 I14.241 J10.8534
G3 X27.3137 Y12.6623 I26.582 J12.4975
G3 X25.1472 Y12.2874 I26.2398 J12.4204
G3 X25.148 Y12.2807 I25.8917 J12.378
G2 X25.2386 Y11.0857 I14.241 J10.8534
G2 X25.2317 Y11.0897 I26.1067 J12.6053
G2 Y14.1208 I26.1067 J12.6053
G2 X27.8567 Y12.6053 I26.1067 J12.6053
G2 X27.4272 Y11.4569 I26.1067 J12.6053
G0 Z3.0
G0 X21.8958 Y2.9538
G0 Z-2.5
G1 F300.0 Z-4.0
G2 F800.0 X20.9856 Y2.1637 I14.241 J10.8534
G3 X20.8377 Y2.0107 I21.4454 J1.5712
G3 X22.1432 Y0.3172 I21.7412 J1.3573
G3 X22.3326 Y0.4242 I21.8728 J1.0168
G3 X23.3634 Y1.3128 I14.241 J10.8534
G2 X23.3655 Y1.2263 I21.6155 J1.2263
G2 X20.7405 Y-0.2892 I21.6155 J1.2263
G2 Y2.7419 I21.6155 J1.2263
G2 X21.8958 Y2.9538 I21.6155 J1.2263
G0 Z3.0
G0 X17.8658 Y3.7822
G0 Z-2.5
G1 F300.0 Z-4.0
G3 F800.0 X18.8018 Y4.4401 I10.75 J14.9
G3 X18.8529 Y4.4832 I18.3443 J5.0344
G3 X17.445 Y6.172 I18.1065 J5.2922
G3 X17.4396 Y6.1679 I17.8957 J5.5725
G2 X16.45 Y5.492 I10.75 J14.9
G2 Y5.5 I18.2 J5.5
G2 X19.075 Y7.0155 I18.2 J5.5
G2 Y3.9845 I18.2 J5.5
G2 X17.8658 Y3.7822 I18.2 J5.5
G0 Z3.0
G0 X7.7361 Y4.3209
G0 Z-2.5
G1 F300.0 Z-4.0
G2 F800.0 X6.5968 Y4.7142 I10.75 J14.9
G3 X6.3904 Y4.7658 I6.3136 J4.0197
G3 X5.5765 Y2.7885 I6.2762 J3.6566
G3 X5.7639 Y2.678 I6.0472 J3.3724
G3 X7.0488 Y2.2295 I10.75 J14.9
G2 X6.975 Y2.1845 I6.1 J3.7
G2 X4.35 Y3.7 I6.1 J3.7
G2 X6.975 Y5.2155 I6.1 J3.7
G2 X7.7361 Y4.3209 I6.1 J3.7
G0 Z3.0
G0 X6.4386 Y8.2253
G0 Z-2.5
G1 F300.0 Z-4.0
G3 F800.0 X7.4764 Y7.7436 I12.509 J19.9466
G3 X7.5392 Y7.7209 I7.7623 J8.437
G3 X8.2978 Y9.7846 I7.8666 J8.7718
G3 X8.2916 Y9.7872 I8.004 J9.0945
G2 X7.2114 Y10.3063 I12.509 J19.9466
G2 X7.2183 Y10.3103 I8.0933 J8.7947
G2 X9.8433 Y8.7947 I8.0933 J8.7947
G2 X7.2183 Y7.2792 I8.0933 J8.7947
G2 X6.4386 Y8.2253 I8.0933 J8.7947
G0 Z3.0
G0 X1.8403 Y17.2672
G0 Z-2.5
G1 F300.0 Z-4.0
G2 F800.0 X1.6112 Y18.4505 I12.509 J19.9466
G3 X1.5527 Y18.6551 I0.8682 J18.3485
G3 X-0.5667 Y18.3712 I0.535 J18.1993
G3 X-0.5687 Y18.1537 I0.1744 J18.2556
G3 X-0.3146 Y16.8167 I12.509 J19.9466
G2 X-0.3905 Y16.8581 I0.4845 J18.3737
G2 Y19.8892 I0.4845 J18.3737
G2 X2.2345 Y18.3737 I0.4845 J18.3737
G2 X1.8403 Y17.2672 I0.4845 J18.3737
G0 Z3.0
G0 X4.5728 Y20.3431
G0 Z-3.5
G1 F300.0 Z-5.0
G3 F800.0 X4.6746 Y19.2035 I17.759 J20.9466
G3 X4.6863 Y19.1377 I5.418 J19.3025
G3 X6.8528 Y19.5126 I5.7602 J19.3796
G3 X6.852 Y19.5193 I6.1083 J19.422
G2 X6.7614 Y20.7143 I17.759 J20.9466
G2 X6.7683 Y20.7103 I5.8933 J19.1947
G2 Y17.6792 I5.8933 J19.1947
G2 X4.1433 Y19.1947 I5.8933 J19.1947
G2 X4.5728 Y20.3431 I5.8933 J19.1947
G0 Z3.0
G0 X10.1042 Y28.8462
G0 Z-3.5
G1 F300.0 Z-5.0
G2 F800.0 X11.0144 Y29.6363 I17.759 J20.9466
G3 X11.1623 Y29.7893 I10.5546 J30.2288
G3 X9.8568 Y31.4828 I10.2588 J30.4427
G3 X9.6674 Y31.3758 I10.1272 J30.7832
G3 X8.6366 Y30.4872 I17.759 J20.9466
G2 X8.6345 Y30.5737 I10.3845 J30.5737
G2 X11.2595 Y32.0892 I10.3845 J30.5737
G2 Y29.0581 I10.3845 J30.5737
G2 X10.1042 Y28.8462 I10.3845 J30.5737
G0 Z3.0
G0 X14.1342 Y28.0178
G0 Z-3.5
G1 F300.0 Z-5.0
G3 F800.0 X13.1982 Y27.3599 I21.25 J16.9
G3 X13.1471 Y27.3168 I13.6557 J26.7656
G3 X14.555 Y25.628 I13.8935 J26.5078
G3 X14.5604 Y25.6321 I14.1043 J26.2275
G2 X15.55 Y26.308 I21.25 J16.9
G2 Y26.3 I13.8 J26.3
G2 X12.925 Y24.7845 I13.8 J26.3
G2 Y27.8155 I13.8 J26.3
G2 X14.1342 Y28.0178 I13.8 J26.3
G0 Z3.0
G0 X24.2639 Y27.4791
G0 Z-3.5
G1 F300.0 Z-5.0
G2 F800.0 X25.4032 Y27.0858 I21.25 J16.9
G3 X25.6096 Y27.0342 I25.6864 J27.7803
G3 X26.4235 Y29.0115 I25.7238 J28.1434
G3 X26.2361 Y29.122 I25.9528 J28.4276
G3 X24.9512 Y29.5705 I21.25 J16.9
G2 X25.025 Y29.6155 I25.9 J28.1
G2 X27.65 Y28.1 I25.9 J28.1
G2 X25.025 Y26.5845 I25.9 J28.1
G2 X24.2639 Y27.4791 I25.9 J28.1
G0 Z3.0
G0 X25.5614 Y23.5747
G0 Z-3.5
G1 F300.0 Z-5.0
G3 F800.0 X24.5236 Y24.0564 I19.491 J11.8534
G3 X24.4608 Y24.0791 I24.2377 J23.363
G3 X23.7022 Y22.0154 I24.1334 J23.0282
G3 X23.7084 Y22.0128 I23.996 J22.7055
G2 X24.7886 Y21.4937 I19.491 J11.8534
G2 X24.7817 Y21.4897 I23.9067 J23.0053
G2 X22.1567 Y23.0053 I23.9067 J23.0053
G2 X24.7817 Y24.5208 I23.9067 J23.0053
G2 X25.5614 Y23.5747 I23.9067 J23.0053
G0 Z3.0
G0 X30.1597 Y14.5328
G0 Z-3.5
G1 F300.0 Z-5.0
G2 F800.0 X30.3888 Y13.3495 I19.491 J11.8534
G3 X30.4473 Y13.1449 I31.1318 J13.4515
G3 X32.5667 Y13.4288 I31.465 J13.6007
G3 X32.5687 Y13.6463 I31.8256 J13.5444
G3 X32.3146 Y14.9833 I19.491 J11.8534
G2 X32.3905 Y14.9419 I31.5155 J13.4263
G2 Y11.9108 I31.5155 J13.4263
G2 X29.7655 Y13.4263 I31.5155 J13.4263
G2 X30.1597 Y14.5328 I31.5155 J13.4263
G0 Z3.0
G0 X27.4272 Y11.4569
G0 Z-3.5
G1 F300.0 Z-5.0
G3 F800.0 X27.3254 Y12.5965 I14.241 J10.8534
G3 X27.3137 Y12.6623 I26.582 J12.4975
G3 X25.1472 Y12.2874 I26.2398 J12.4204
G3 X25.148 Y12.2807 I25.8917 J12.378
G2 X25.2386 Y11.0857 I14.241 J10.8534
G2 X25.2317 Y11.0897 I26.1067 J12.6053
G2 Y14.1208 I26.1067 J12.6053
G2 X27.8567 Y12.6053 I26.1067 J12.6053
G2 X27.4272 Y11.4569 I26.1067 J12.6053
G0 Z3.0
G0 X21.8958 Y2.9538
G0 Z-3.5
G1 F300.0 Z-5.0
G2 F800.0 X20.9856 Y2.1637 I14.241 J10.8534
G3 X20.8377 Y2.0107 I21.4454 J1.5712
G3 X22.1432 Y0.3172 I21.7412 J1.3573
G3 X22.3326 Y0.4242 I21.8728 J1.0168
G3 X23.3634 Y1.3128 I14.241 J10.8534
G2 X23.3655 Y1.2263 I21.6155 J1.2263
G2 X20.7405 Y-0.2892 I21.6155 J1.2263
G2 Y2.7419 I21.6155 J1.2263
G2 X21.8958 Y2.9538 I21.6155 J1.2263
G0 Z3.0
G0 X17.8658 Y3.7822
G0 Z-3.5
G1 F300.0 Z-5.0
G3 F800.0 X18.8018 Y4.4401 I10.75 J14.9
G3 X18.8529 Y4.4832 I18.3443 J5.0344
G3 X17.445 Y6.172 I18.1065 J5.2922
G3 X17.4396 Y6.1679 I17.8957 J5.5725
G2 X16.45 Y5.492 I10.75 J14.9
G2 Y5.5 I18.2 J5.5
G2 X19.075 Y7.0155 I18.2 J5.5
G2 Y3.9845 I18.2 J5.5
G2 X17.8658 Y3.7822 I18.2 J5.5
G0 Z3.0
G0 X7.7361 Y4.3209
G0 Z-3.5
G1 F300.0 Z-5.0
G2 F800.0 X6.5968 Y4.7142 I10.75 J14.9
G3 X6.3904 Y4.7658 I6.3136 J4.0197
G3 X5.5765 Y2.7885 I6.2762 J3.6566
G3 X5.7639 Y2.678 I6.0472 J3.3724
G3 X7.0488 Y2.2295 I10.75 J14.9
G2 X6.975 Y2.1845 I6.1 J3.7
G2 X4.35 Y3.7 I6.1 J3.7
G2 X6.975 Y5.2155 I6.1 J3.7
G2 X7.7361 Y4.3209 I6.1 J3.7
G0 Z3.0
G0 X6.4386 Y8.2253
G0 Z-3.5
G1 F300.0 Z-5.0
G3 F800.0 X7.4764 Y7.7436 I12.509 J19.9466
G3 X7.5392 Y7.7209 I7.7623 J8.437
G3 X8.2978 Y9.7846 I7.8666 J8.7718
G3 X8.2916 Y9.7872 I8.004 J9.0945
G2 X7.2114 Y10.3063 I12.509 J19.9466
G2 X7.2183 Y10.3103 I8.0933 J8.7947
G2 X9.8433 Y8.7947 I8.0933 J8.7947
G2 X7.2183 Y7.2792 I8.0933 J8.7947
G2 X6.4386 Y8.2253 I8.0933 J8.7947
G0 Z3.0
G0 X1.8403 Y17.2672
G0 Z-3.5
G1 F300.0 Z-5.0
G2 F800.0 X1.6112 Y18.4505 I12.509 J19.9466
G3 X1.5527 Y18.6551 I0.8682 J18.3485
G3 X-0.5667 Y18.3712 I0.535 J18.1993
G3 X-0.5687 Y18.1537 I0.1744 J18.2556
G3 X-0.3146 Y16.8167 I12.509 J19.9466
G2 X-0.3905 Y16.8581 I0.4845 J18.3737
G2 Y19.8892 I0.4845 J18.3737
G2 X2.2345 Y18.3737 I0.4845 J18.3737
G2 X1.8403 Y17.2672 I0.4845 J18.3737
( Epaulement )
G0 Z3.0
G0 X23.675 Y15.9
G0 Z0.5
G1 F300.0 Z-1.2
G3 F800.0 X12.1625 Y22.5467 I16.0 J15.9
G3 Y9.2533 I16.0 J15.9
G3 X23.675 Y15.9 I16.0 J15.9
G1 F300.0 Z-2.0
G3 F800.0 X12.1625 Y22.5467 I16.0 J15.9
G3 Y9.2533 I16.0 J15.9
G3 X23.675 Y15.9 I16.0 J15.9
( Evidage )
G0 Z3.0
G0 X7.6437 Y2.0707
G0 Z0.5
G1 F300.0 Z-1.0
G3 F800.0 X15.8221 Y2.7134 I10.75 J14.9
G3 X18.8018 Y4.4401 I10.75 J14.9
G3 X18.921 Y4.555 I18.3443 J5.0344
G3 X19.1308 Y4.824 I14.7224 J8.0453
G3 X19.1998 Y4.9387 I18.5253 J5.2665
G3 X18.7201 Y8.0031 I16.757 J6.1261
G2 X18.7218 Y8.0061 I20.882 J6.7547
G3 X20.175 Y8.6687 I16.0 J15.9
G3 X23.4762 Y12.1812 I16.0 J15.9
G3 X24.6944 Y12.1629 I24.1142 J14.0937
G2 X25.1742 Y12.0644 I24.843 J11.6686
G2 X20.9856 Y2.1637 I14.241 J10.8534
G3 X20.8377 Y2.0107 I21.4454 J1.5712
G3 X22.1432 Y0.3172 I21.7412 J1.3573
G3 X22.3326 Y0.4242 I21.8728 J1.0168
G3 X27.331 Y9.1527 I14.241 J10.8534
G3 X27.3254 Y12.5965 I14.241 J10.8534
G3 X27.2856 Y12.7572 I26.582 J12.4975
G3 X27.1575 Y13.0734 I22.1635 J10.8662
G3 X27.0927 Y13.1904 I26.4715 J12.7702
G3 X24.199 Y14.3073 I24.843 J11.6686
G2 X24.1973 Y14.3102 I26.3611 J15.5553
G3 X24.35 Y15.9 I16.0 J15.9
G3 X22.9587 Y20.5151 I16.0 J15.9
G3 X23.5837 Y21.561 I21.6214 J22.024
G2 X23.9088 Y21.9273 I24.086 J21.4425
G2 X30.3888 Y13.3495 I19.491 J11.8534
G3 X30.4473 Y13.1449 I31.1318 J13.4515
G3 X32.5667 Y13.4288 I31.465 J13.6007
G3 X32.5687 Y13.6463 I31.8256 J13.5444
G3 X27.5089 Y22.3393 I19.491 J11.8534
G3 X24.5236 Y24.0564 I19.491 J11.8534
G3 X24.3645 Y24.1022 I24.2377 J23.363
G3 X24.0266 Y24.1494 I23.4412 J18.7209
G3 X23.8929 Y24.1518 I23.9462 J23.4037
G3 X21.4788 Y22.2041 I24.086 J21.4425
G2 X21.4754 I21.4791 J24.7006
G3 X20.175 Y23.1313 I16.0 J15.9
G3 X15.4825 Y24.2339 I16.0 J15.9
G3 X14.8892 Y25.2982 I13.5072 J23.8303
G2 X14.7346 Y25.7628 I15.243 J25.6739
G2 X25.4032 Y27.0858 I21.25 J16.9
G3 X25.6096 Y27.0342 I25.6864 J27.7803
G3 X26.4235 Y29.0115 I25.7238 J28.1434
G3 X26.2361 Y29.122 I25.9528 J28.4276
G3 X16.1779 Y29.0866 I21.25 J16.9
G3 X13.1982 Y27.3599 I21.25 J16.9
G3 X13.079 Y27.245 I13.6557 J26.7656
G3 X12.8692 Y26.976 I17.2776 J23.7547
G3 X12.8002 Y26.8613 I13.4747 J26.5335
G3 X13.2799 Y23.7969 I15.243 J25.6739
G2 X13.2782 Y23.7939 I11.118 J25.0453
G3 X11.825 Y23.1313 I16.0 J15.9
G3 X8.5238 Y19.6188 I16.0 J15.9
G3 X7.3056 Y19.6371 I7.8858 J17.7063
G2 X6.8258 Y19.7356 I7.157 J20.1314
G2 X11.0144 Y29.6363 I17.759 J20.9466
G3 X11.1623 Y29.7893 I10.5546 J30.2288
G3 X9.8568 Y31.4828 I10.2588 J30.4427
G3 X9.6674 Y31.3758 I10.1272 J30.7832
G3 X4.669 Y22.6473 I17.759 J20.9466
G3 X4.6746 Y19.2035 I17.759 J20.9466
G3 X4.7144 Y19.0428 I5.418 J19.3025
G3 X4.8425 Y18.7266 I9.8365 J20.9338
G3 X4.9073 Y18.6096 I5.5285 J19.0298
G3 X7.801 Y17.4927 I7.157 J20.1314
G2 X7.8027 Y17.4898 I5.6389 J16.2447
G3 X7.65 Y15.9 I16.0 J15.9
G3 X9.0413 Y11.2849 I16.0 J15.9
G3 X8.4163 Y10.239 I10.3786 J9.776
G2 X8.0912 Y9.8727 I7.914 J10.3575
G2 X1.6112 Y18.4505 I12.509 J19.9466
G3 X1.5527 Y18.6551 I0.8682 J18.3485
G3 X-0.5667 Y18.3712 I0.535 J18.1993
G3 X-0.5687 Y18.1537 I0.1744 J18.2556
G3 X4.4911 Y9.4607 I12.509 J19.9466
G3 X7.4764 Y7.7436 I12.509 J19.9466
G3 X7.6355 Y7.6978 I7.7623 J8.437
G3 X7.9734 Y7.6506 I8.5588 J13.0791
G3 X8.1071 Y7.6482 I8.0538 J8.3963
G3 X10.5212 Y9.5959 I7.914 J10.3575
G2 X10.5246 I10.5209 J7.0994
G3 X11.825 Y8.6687 I16.0 J15.9
G3 X16.5175 Y7.5661 I16.0 J15.9
G3 X17.1108 Y6.5018 I18.4928 J7.9697
G2 X17.2654 Y6.0372 I16.757 J6.1261
G2 X6.5968 Y4.7142 I10.75 J14.9
G3 X6.3904 Y4.7658 I6.3136 J4.0197
G3 X5.5765 Y2.7885 I6.2762 J3.6566
G3 X5.7639 Y2.678 I6.0472 J3.3724
G3 X7.6437 Y2.0707 I10.75 J14.9
G0 Z3.0
G0 X10.5495 Y6.1505
G0 Z0.5
G1 F300.0 Z-1.0
G3 F800.0 X11.0647 Y6.5211 I7.914 J10.3575
G3 X11.7242 Y6.2026 I16.0 J15.9
G2 X10.5495 Y6.1505 I10.75 J14.9
G1 F300.0 X10.5392 Y5.7006
G2 F800.0 X8.7426 Y5.9198 I10.75 J14.9
G3 X11.0042 Y7.0666 I7.914 J10.3575
G3 X13.4044 Y6.0894 I16.0 J15.9
G2 X10.5392 Y5.7006 I10.75 J14.9
G0 Z3.0
G0 X4.691 Y6.6228
G0 Z0.5
G1 F300.0 Z-1.0
G3 F800.0 X4.3696 Y6.4272 I6.2762 J3.6566
G2 X3.7801 Y7.2009 I16.0 J15.9
G3 X4.691 Y6.6228 I12.509 J19.9466
G1 F300.0 X4.9031 Y6.2259
G3 F800.0 X4.3061 Y5.8027 I6.2762 J3.6566
G2 X2.1061 Y9.1427 I16.0 J15.9
G3 X3.3989 Y8.0323 I12.509 J19.9466
G3 X5.803 Y6.5311 I12.509 J19.9466
G3 X4.9031 Y6.2259 I6.2762 J3.6566
G1 F300.0 X5.3273 Y5.4321
G3 F800.0 X4.3975 Y4.3802 I6.2762 J3.6566
G2 X-0.2274 Y13.9015 I16.0 J15.9
G3 X3.9455 Y8.7472 I12.509 J19.9466
G3 X7.1339 Y6.9133 I12.509 J19.9466
G3 X7.4836 Y6.8125 I7.7623 J8.437
G3 X7.877 Y6.7576 I8.5588 J13.0791
G3 X8.171 Y6.7523 I8.0538 J8.3963
G3 X10.8348 Y8.2286 I7.914 J10.3575
G3 X11.3759 Y7.8908 I16.0 J15.9
G3 X15.8932 Y6.6524 I16.0 J15.9
G3 X16.0879 Y6.3237 I18.4928 J7.9697
G2 X6.9359 Y5.5459 I10.75 J14.9
G3 X6.4823 Y5.6592 I6.3136 J4.0197
G3 X5.3273 Y5.4321 I6.2762 J3.6566
G0 Z3.0
G0 X5.4639 Y14.7542
G0 Z0.5
G1 F300.0 Z-1.0
G2 F800.0 X4.8314 Y15.7455 I12.509 J19.9466
G3 X5.4099 Y15.4847 I7.157 J20.1314
G3 X5.4639 Y14.7542 I16.0 J15.9
G1 F300.0 X5.9113 Y14.8029
G3 F800.0 X6.2059 Y13.2426 I16.0 J15.9
G2 X3.7282 Y17.195 I12.509 J19.9466
G3 X5.8522 Y15.8098 I7.157 J20.1314
G3 X5.9113 Y14.8029 I16.0 J15.9
G0 Z3.0
G0 X2.3112 Y21.0553
G0 Z0.5
G1 F300.0 Z-1.0
G3 F800.0 X1.9811 Y21.2358 I0.535 J18.1993
G2 X2.3564 Y22.1332 I16.0 J15.9
G3 X2.3112 Y21.0553 I17.759 J20.9466
G1 F300.0 X2.7611 Y21.0521
G3 F800.0 X2.7878 Y20.0464 I17.759 J20.9466
G3 X1.4085 Y20.9785 I0.535 J18.1993
G2 X3.201 Y24.5538 I16.0 J15.9
G3 X2.8858 Y22.879 I17.759 J20.9466
G3 X2.7611 Y21.0521 I17.759 J20.9466
G1 F300.0 X3.6611 Y21.0458
G3 F800.0 X3.7842 Y19.0849 I17.759 J20.9466
G3 X3.8718 Y18.7317 I5.418 J19.3025
G3 X4.021 Y18.3635 I9.8365 J20.9338
G3 X4.1633 Y18.1063 I5.5285 J19.0298
G3 X6.7738 Y16.5375 I7.157 J20.1314
G3 X6.7518 Y15.9 I16.0 J15.9
G3 X7.938 Y11.3687 I16.0 J15.9
G3 X7.7506 Y11.0357 I10.3786 J9.776
G2 X2.501 Y18.5727 I12.509 J19.9466
G3 X2.3724 Y19.0222 I0.8682 J18.3485
G3 X0.2223 Y20.1881 I0.535 J18.1993
G2 X6.1555 Y28.9541 I16.0 J15.9
G3 X3.7783 Y22.7631 I17.759 J20.9466
G3 X3.6611 Y21.0458 I17.759 J20.9466
G0 Z3.0
G0 X9.7397 Y24.4516
G0 Z0.5
G1 F300.0 Z-1.0
G2 F800.0 X10.2819 Y25.495 I17.759 J20.9466
G3 X10.3453 Y24.8636 I15.243 J25.6739
G3 X9.7397 Y24.4516 I16.0 J15.9
G1 F300.0 X9.3273 Y24.6318
G2 F800.0 X10.9856 Y27.1752 I17.759 J20.9466
G3 X10.848 Y24.6431 I15.243 J25.6739
G3 X8.8015 Y23.0532 I16.0 J15.9
G2 X9.3273 Y24.6318 I17.759 J20.9466
G0 Z3.0
G0 X13.6202 Y30.3325
G0 Z0.5
G1 F300.0 Z-1.0
G3 F800.0 X13.6115 Y30.7086 I10.2588 J30.4427
G2 X14.5763 Y30.8323 I16.0 J15.9
G3 X13.6202 Y30.3325 I21.25 J16.9
G1 F300.0 X13.1704 Y30.3473
G3 F800.0 X13.1024 Y31.0758 I10.2588 J30.4427
G2 X17.0949 Y31.3112 I16.0 J15.9
G3 X15.4869 Y30.7468 I21.25 J16.9
G3 X12.9848 Y29.4153 I21.25 J16.9
G3 X13.1704 Y30.3473 I10.2588 J30.4427
G1 F300.0 X12.2709 Y30.3768
G3 F800.0 X11.8248 Y31.7079 I10.2588 J30.4427
G2 X22.3829 Y30.9526 I16.0 J15.9
G3 X15.8327 Y29.9159 I21.25 J16.9
G3 X12.6503 Y28.0716 I21.25 J16.9
G3 X12.3882 Y27.8192 I13.6557 J26.7656
G3 X12.1439 Y27.5059 I17.2776 J23.7547
G3 X11.9924 Y27.254 I13.4747 J26.5335
G3 X11.939 Y24.2089 I15.243 J25.6739
G3 X11.3759 Y23.9092 I16.0 J15.9
G3 X8.0448 Y20.6163 I16.0 J15.9
G3 X7.6627 Y20.6121 I7.8858 J17.7063
G2 X11.5651 Y28.9268 I17.759 J20.9466
G3 X11.8901 Y29.263 I10.5546 J30.2288
G3 X12.2709 Y30.3768 I10.2588 J30.4427
G0 Z3.0
G0 X20.2758 Y25.5974
G0 Z0.5
G1 F300.0 Z-1.0
G2 F800.0 X21.4505 Y25.6495 I21.25 J16.9
G3 X20.9353 Y25.2789 I24.086 J21.4425
G3 X20.2758 Y25.5974 I16.0 J15.9
G1 F300.0 X20.0942 Y25.1857
G3 F800.0 X18.5956 Y25.7106 I16.0 J15.9
G2 X23.2574 Y25.8802 I21.25 J16.9
G3 X20.9958 Y24.7334 I24.086 J21.4425
G3 X20.0942 Y25.1857 I16.0 J15.9
G0 Z3.0
G0 X27.309 Y25.1772
G0 Z0.5
G1 F300.0 Z-1.0
G3 F800.0 X27.6304 Y25.3728 I25.7238 J28.1434
G2 X28.2199 Y24.5991 I16.0 J15.9
G3 X27.309 Y25.1772 I19.491 J11.8534
G1 F300.0 X27.0969 Y25.5741
G3 F800.0 X27.6939 Y25.9973 I25.7238 J28.1434
G2 X29.8939 Y22.6573 I16.0 J15.9
G3 X28.6011 Y23.7677 I19.491 J11.8534
G3 X26.197 Y25.2689 I19.491 J11.8534
G3 X27.0969 Y25.5741 I25.7238 J28.1434
G1 F300.0 X26.6727 Y26.3679
G3 F800.0 X27.6025 Y27.4198 I25.7238 J28.1434
G2 X32.2274 Y17.8985 I16.0 J15.9
G3 X28.0545 Y23.0528 I19.491 J11.8534
G3 X24.8661 Y24.8867 I19.491 J11.8534
G3 X24.5164 Y24.9875 I24.2377 J23.363
G3 X24.123 Y25.0424 I23.4412 J18.7209
G3 X23.829 Y25.0477 I23.9462 J23.4037
G3 X21.1652 Y23.5714 I24.086 J21.4425
G3 X20.6241 Y23.9092 I16.0 J15.9
G3 X16.1068 Y25.1476 I16.0 J15.9
G3 X15.9121 Y25.4763 I13.5072 J23.8303
G2 X25.0641 Y26.2541 I21.25 J16.9
G3 X25.5177 Y26.1408 I25.6864 J27.7803
G3 X26.6727 Y26.3679 I25.7238 J28.1434
G0 Z3.0
G0 X26.5361 Y17.0458
G0 Z0.5
G1 F300.0 Z-1.0
G2 F800.0 X27.1686 Y16.0545 I19.491 J11.8534
G3 X26.5901 Y16.3153 I24.843 J11.6686
G3 X26.5361 Y17.0458 I16.0 J15.9
G1 F300.0 X26.0887 Y16.9971
G3 F800.0 X25.7941 Y18.5574 I16.0 J15.9
G2 X28.2718 Y14.605 I19.491 J11.8534
G3 X26.1478 Y15.9902 I24.843 J11.6686
G3 X26.0887 Y16.9971 I16.0 J15.9
G0 Z3.0
G0 X29.6888 Y10.7447
G0 Z0.5
G1 F300.0 Z-1.0
G3 F800.0 X30.0189 Y10.5642 I31.465 J13.6007
G2 X29.6436 Y9.6668 I16.0 J15.9
G3 X29.6888 Y10.7447 I14.241 J10.8534
G1 F300.0 X29.9265 Y11.1268
G3 F800.0 X30.5915 Y10.8215 I31.465 J13.6007
G2 X28.799 Y7.2462 I16.0 J15.9
G3 X29.1142 Y8.921 I14.241 J10.8534
G3 X29.2122 Y11.7536 I14.241 J10.8534
G3 X29.9265 Y11.1268 I31.465 J13.6007
G1 F300.0 X30.4018 Y11.8911
G3 F800.0 X31.7777 Y11.6119 I31.465 J13.6007
G2 X25.8445 Y2.8459 I16.0 J15.9
G3 X28.2217 Y9.0369 I14.241 J10.8534
G3 X28.2158 Y12.7151 I14.241 J10.8534
G3 X28.1282 Y13.0683 I26.582 J12.4975
G3 X27.979 Y13.4365 I22.1635 J10.8662
G3 X27.8367 Y13.6937 I26.4715 J12.7702
G3 X25.2262 Y15.2625 I24.843 J11.6686
G3 X25.2482 Y15.9 I16.0 J15.9
G3 X24.062 Y20.4313 I16.0 J15.9
G3 X24.2494 Y20.7643 I21.6214 J22.024
G2 X29.499 Y13.2273 I19.491 J11.8534
G3 X29.6276 Y12.7778 I31.1318 J13.4515
G3 X30.4018 Y11.8911 I31.465 J13.6007
G0 Z3.0
G0 X22.2603 Y7.3484
G0 Z0.5
G1 F300.0 Z-1.0
G2 F800.0 X21.7181 Y6.305 I14.241 J10.8534
G3 X21.6547 Y6.9364 I16.757 J6.1261
G3 X22.2603 Y7.3484 I16.0 J15.9
G1 F300.0 X21.9945 Y7.7115
G3 F800.0 X23.1985 Y8.7468 I16.0 J15.9
G2 X21.0144 Y4.6248 I14.241 J10.8534
G3 X21.152 Y7.1569 I16.757 J6.1261
G3 X21.9945 Y7.7115 I16.0 J15.9
G0 Z3.0
G0 X18.3798 Y1.4675
G0 Z0.5
G1 F300.0 Z-1.0
G3 F800.0 X18.3885 Y1.0914 I21.7412 J1.3573
G2 X17.4237 Y0.9677 I16.0 J15.9
G3 X18.3798 Y1.4675 I10.75 J14.9
G1 F300.0 X18.1575 Y1.8587
G3 F800.0 X19.0152 Y2.3847 I10.75 J14.9
G3 X18.8976 Y0.7242 I21.7412 J1.3573
G2 X14.9051 Y0.4888 I16.0 J15.9
G3 X16.5131 Y1.0532 I10.75 J14.9
G3 X18.1575 Y1.8587 I10.75 J14.9
G1 F300.0 X17.713 Y2.6413
G3 F800.0 X19.3497 Y3.7284 I10.75 J14.9
G3 X19.6118 Y3.9808 I18.3443 J5.0344
G3 X19.8561 Y4.2941 I14.7224 J8.0453
G3 X20.0076 Y4.546 I18.5253 J5.2665
G3 X20.061 Y7.5911 I16.757 J6.1261
G3 X20.6241 Y7.8908 I16.0 J15.9
G3 X23.9552 Y11.1837 I16.0 J15.9
G3 X24.3373 Y11.1879 I24.1142 J14.0937
G2 X20.4349 Y2.8732 I14.241 J10.8534
G3 X20.1099 Y2.537 I21.4454 J1.5712
G3 X20.1752 Y0.0921 I21.7412 J1.3573
G2 X9.6171 Y0.8474 I16.0 J15.9
G3 X16.1673 Y1.8841 I10.75 J14.9
G3 X17.713 Y2.6413 I10.75 J14.9
G0 Z3.0
G0 X18.2103 Y-1.2078
G0 Z0.5
G1 F300.0 Z-1.0
G2 F800.0 X7.375 Y0.9611 I16.0 J15.9
G2 Y30.8389 I16.0 J15.9
G2 X33.25 Y15.9 I16.0 J15.9
G2 X18.2103 Y-1.2078 I16.0 J15.9
G0 Z3.0
G0 X17.922 Y1.0237
G0 Z-0.5
G1 F300.0 Z-2.0
G2 F800.0 X17.4237 Y0.9677 I16.0 J15.9
G3 X18.3798 Y1.4675 I10.75 J14.9
G3 X18.3885 Y1.0914 I21.7412 J1.3573
G2 X17.922 Y1.0237 I16.0 J15.9
G1 F300.0 X17.9797 Y0.5774
G2 F800.0 X14.9051 Y0.4888 I16.0 J15.9
G3 X16.5131 Y1.0532 I10.75 J14.9
G3 X19.0152 Y2.3847 I10.75 J14.9
G3 X18.8976 Y0.7242 I21.7412 J1.3573
G2 X17.9797 Y0.5774 I16.0 J15.9
G0 Z3.0
G0 X21.7181 Y6.305
G0 Z-0.5
G1 F300.0 Z-2.0
G3 F800.0 X21.6547 Y6.9364 I16.757 J6.1261
G3 X22.2603 Y7.3484 I16.0 J15.9
G2 X21.7181 Y6.305 I14.241 J10.8534
G1 F300.0 X21.2684 Y6.2888
G3 F800.0 X21.152 Y7.1569 I16.757 J6.1261
G3 X23.1985 Y8.7468 I16.0 J15.9
G2 X21.0144 Y4.6248 I14.241 J10.8534
G3 X21.2684 Y6.2888 I16.757 J6.1261
G1 F300.0 X20.369 Y6.2563
G3 F800.0 X20.061 Y7.5911 I16.757 J6.1261
G3 X20.6241 Y7.8908 I16.0 J15.9
G3 X23.9552 Y11.1837 I16.0 J15.9
G3 X24.3373 Y11.1879 I24.1142 J14.0937
G2 X20.4349 Y2.8732 I14.241 J10.8534
G3 X20.1099 Y2.537 I21.4454 J1.5712
G3 X20.1752 Y0.0921 I21.7412 J1.3573
G2 X9.6171 Y0.8474 I16.0 J15.9
G3 X16.1673 Y1.8841 I10.75 J14.9
G3 X19.3497 Y3.7284 I10.75 J14.9
G3 X19.6118 Y3.9808 I18.3443 J5.0344
G3 X19.8561 Y4.2941 I14.7224 J8.0453
G3 X20.0076 Y4.546 I18.5253 J5.2665
G3 X20.369 Y6.2563 I16.757 J6.1261
G0 Z3.0
G0 X11.7242 Y6.2026
G0 Z-0.5
G1 F300.0 Z-2.0
G2 F800.0 X10.5495 Y6.1505 I10.75 J14.9
G3 X11.0647 Y6.5211 I7.914 J10.3575
G3 X11.7242 Y6.2026 I16.0 J15.9
G1 F300.0 X11.9058 Y6.6143
G3 F800.0 X13.4044 Y6.0894 I16.0 J15.9
G2 X8.7426 Y5.9198 I10.75 J14.9
G3 X11.0042 Y7.0666 I7.914 J10.3575
G3 X11.9058 Y6.6143 I16.0 J15.9
G0 Z3.0
G0 X4.691 Y6.6228
G0 Z-0.5
G1 F300.0 Z-2.0
G3 F800.0 X4.3696 Y6.4272 I6.2762 J3.6566
G2 X3.7801 Y7.2009 I16.0 J15.9
G3 X4.691 Y6.6228 I12.509 J19.9466
G1 F300.0 X4.9031 Y6.2259
G3 F800.0 X4.3061 Y5.8027 I6.2762 J3.6566
G2 X2.1061 Y9.1427 I16.0 J15.9
G3 X3.3989 Y8.0323 I12.509 J19.9466
G3 X5.803 Y6.5311 I12.509 J19.9466
G3 X4.9031 Y6.2259 I6.2762 J3.6566
G1 F300.0 X5.3273 Y5.4321
G3 F800.0 X4.3975 Y4.3802 I6.2762 J3.6566
G2 X-0.2274 Y13.9015 I16.0 J15.9
G3 X3.9455 Y8.7472 I12.509 J19.9466
G3 X7.1339 Y6.9133 I12.509 J19.9466
G3 X7.4836 Y6.8125 I7.7623 J8.437
G3 X7.877 Y6.7576 I8.5588 J13.0791
G3 X8.171 Y6.7523 I8.0538 J8.3963
G3 X10.8348 Y8.2286 I7.914 J10.3575
G3 X11.3759 Y7.8908 I16.0 J15.9
G3 X15.8932 Y6.6524 I16.0 J15.9
G3 X16.0879 Y6.3237 I18.4928 J7.9697
G2 X6.9359 Y5.5459 I10.75 J14.9
G3 X6.4823 Y5.6592 I6.3136 J4.0197
G3 X5.3273 Y5.4321 I6.2762 J3.6566
G0 Z3.0
G0 X5.4639 Y14.7542
G0 Z-0.5
G1 F300.0 Z-2.0
G2 F800.0 X4.8314 Y15.7455 I12.509 J19.9466
G3 X5.4099 Y15.4847 I7.157 J20.1314
G3 X5.4639 Y14.7542 I16.0 J15.9
G1 F300.0 X5.9113 Y14.8029
G3 F800.0 X6.2059 Y13.2426 I16.0 J15.9
G2 X3.7282 Y17.195 I12.509 J19.9466
G3 X5.8522 Y15.8098 I7.157 J20.1314
G3 X5.9113 Y14.8029 I16.0 J15.9
G0 Z3.0
G0 X2.3112 Y21.0553
G0 Z-0.5
G1 F300.0 Z-2.0
G3 F800.0 X1.9811 Y21.2358 I0.535 J18.1993
G2 X2.3564 Y22.1332 I16.0 J15.9
G3 X2.3112 Y21.0553 I17.759 J20.9466
G1 F300.0 X2.7611 Y21.0521
G3 F800.0 X2.7878 Y20.0464 I17.759 J20.9466
G3 X1.4085 Y20.9785 I0.535 J18.1993
G2 X3.201 Y24.5538 I16.0 J15.9
G3 X2.8858 Y22.879 I17.759 J20.9466
G3 X2.7611 Y21.0521 I17.759 J20.9466
G1 F300.0 X3.6611 Y21.0458
G3 F800.0 X3.7842 Y19.0849 I17.759 J20.9466
G3 X3.8718 Y18.7317 I5.418 J19.3025
G3 X4.021 Y18.3635 I9.8365 J20.9338
G3 X4.1633 Y18.1063 I5.5285 J19.0298
G3 X6.7738 Y16.5375 I7.157 J20.1314
G3 X6.7518 Y15.9 I16.0 J15.9
G3 X7.938 Y11.3687 I16.0 J15.9
G3 X7.7506 Y11.0357 I10.3786 J9.776
G2 X2.501 Y18.5727 I12.509 J19.9466
G3 X2.3724 Y19.0222 I0.8682 J18.3485
G3 X0.2223 Y20.1881 I0.535 J18.1993
G2 X6.1555 Y28.9541 I16.0 J15.9
G3 X3.7783 Y22.7631 I17.759 J20.9466
G3 X3.6611 Y21.0458 I17.759 J20.9466
G0 Z3.0
G0 X9.7397 Y24.4516
G0 Z-0.5
G1 F300.0 Z-2.0
G2 F800.0 X10.2819 Y25.495 I17.759 J20.9466
G3 X10.3453 Y24.8636 I15.243 J25.6739
G3 X9.7397 Y24.4516 I16.0 J15.9
G1 F300.0 X9.3273 Y24.6318
G2 F800.0 X10.9856 Y27.1752 I17.759 J20.9466
G3 X10.848 Y24.6431 I15.243 J25.6739
G3 X8.8015 Y23.0532 I16.0 J15.9
G2 X9.3273 Y24.6318 I17.759 J20.9466
G0 Z3.0
G0 X13.6202 Y30.3325
G0 Z-0.5
G1 F300.0 Z-2.0
G3 F800.0 X13.6115 Y30.7086 I10.2588 J30.4427
G2 X14.5763 Y30.8323 I16.0 J15.9
G3 X13.6202 Y30.3325 I21.25 J16.9
G1 F300.0 X13.1704 Y30.3473
G3 F800.0 X13.1024 Y31.0758 I10.2588 J30.4427
G2 X17.0949 Y31.3112 I16.0 J15.9
G3 X15.4869 Y30.7468 I21.25 J16.9
G3 X12.9848 Y29.4153 I21.25 J16.9
G3 X13.1704 Y30.3473 I10.2588 J30.4427
G1 F300.0 X12.2709 Y30.3768
G3 F800.0 X11.8248 Y31.7079 I10.2588 J30.4427
G2 X22.3829 Y30.9526 I16.0 J15.9
G3 X15.8327 Y29.9159 I21.25 J16.9
G3 X12.6503 Y28.0716 I21.25 J16.9
G3 X12.3882 Y27.8192 I13.6557 J26.7656
G3 X12.1439 Y27.5059 I17.2776 J23.7547
G3 X11.9924 Y27.254 I13.4747 J26.5335
G3 X11.939 Y24.2089 I15.243 J25.6739
G3 X11.3759 Y23.9092 I16.0 J15.9
G3 X8.0448 Y20.6163 I16.0 J15.9
G3 X7.6627 Y20.6121 I7.8858 J17.7063
G2 X11.5651 Y28.9268 I17.759 J20.9466
G3 X11.8901 Y29.263 I10.5546 J30.2288
G3 X12.2709 Y30.3768 I10.2588 J30.4427
G0 Z3.0
G0 X20.2758 Y25.5974
G0 Z-0.5
G1 F300.0 Z-2.0
G2 F800.0 X21.4505 Y25.6495 I21.25 J16.9
G3 X20.9353 Y25.2789 I24.086 J21.4425
G3 X20.2758 Y25.5974 I16.0 J15.9
G1 F300.0 X20.0942 Y25.1857
G3 F800.0 X18.5956 Y25.7106 I16.0 J15.9
G2 X23.2574 Y25.8802 I21.25 J16.9
G3 X20.9958 Y24.7334 I24.086 J21.4425
G3 X20.0942 Y25.1857 I16.0 J15.9
G0 Z3.0
G0 X27.309 Y25.1772
G0 Z-0.5
G1 F300.0 Z-2.0
G3 F800.0 X27.6304 Y25.3728 I25.7238 J28.1434
G2 X28.2199 Y24.5991 I16.0 J15.9
G3 X27.309 Y25.1772 I19.491 J11.8534
G1 F300.0 X27.0969 Y25.5741
G3 F800.0 X27.6939 Y25.9973 I25.7238 J28.1434
G2 X29.8939 Y22.6573 I16.0 J15.9
G3 X28.6011 Y23.7677 I19.491 J11.8534
G3 X26.197 Y25.2689 I19.491 J11.8534
G3 X27.0969 Y25.5741 I25.7238 J28.1434
G1 F300.0 X26.6727 Y26.3679
G3 F800.0 X27.6025 Y27.4198 I25.7238 J28.1434
G2 X32.2274 Y17.8985 I16.0 J15.9
G3 X28.0545 Y23.0528 I19.491 J11.8534
G3 X24.8661 Y24.8867 I19.491 J11.8534
G3 X24.5164 Y24.9875 I24.2377 J23.363
G3 X24.123 Y25.0424 I23.4412 J18.7209
G3 X23.829 Y25.0477 I23.9462 J23.4037
G3 X21.1652 Y23.5714 I24.086 J21.4425
G3 X20.6241 Y23.9092 I16.0 J15.9
G3 X16.1068 Y25.1476 I16.0 J15.9
G3 X15.9121 Y25.4763 I13.5072 J23.8303
G2 X25.0641 Y26.2541 I21.25 J16.9
G3 X25.5177 Y26.1408 I25.6864 J27.7803
G3 X26.6727 Y26.3679 I25.7238 J28.1434
G0 Z3.0
G0 X26.5361 Y17.0458
G0 Z-0.5
G1 F300.0 Z-2.0
G2 F800.0 X27.1686 Y16.0545 I19.491 J11.8534
G3 X26.5901 Y16.3153 I24.843 J11.6686
G3 X26.5361 Y17.0458 I16.0 J15.9
G1 F300.0 X26.0887 Y16.9971
G3 F800.0 X25.7941 Y18.5574 I16.0 J15.9
G2 X28.2718 Y14.605 I19.491 J11.8534
G3 X26.1478 Y15.9902 I24.843 J11.6686
G3 X26.0887 Y16.9971 I16.0 J15.9
G0 Z3.0
G0 X29.6888 Y10.7447
G0 Z-0.5
G1 F300.0 Z-2.0
G3 F800.0 X30.0189 Y10.5642 I31.465 J13.6007
G2 X29.6436 Y9.6668 I16.0 J15.9
G3 X29.6888 Y10.7447 I14.241 J10.8534
G1 F300.0 X29.9265 Y11.1268
G3 F800.0 X30.5915 Y10.8215 I31.465 J13.6007
G2 X28.799 Y7.2462 I16.0 J15.9
G3 X29.1142 Y8.921 I14.241 J10.8534
G3 X29.2122 Y11.7536 I14.241 J10.8534
G3 X29.9265 Y11.1268 I31.465 J13.6007
G1 F300.0 X30.4018 Y11.8911
G3 F800.0 X31.7777 Y11.6119 I31.465 J13.6007
G2 X25.8445 Y2.8459 I16.0 J15.9
G3 X28.2217 Y9.0369 I14.241 J10.8534
G3 X28.2158 Y12.7151 I14.241 J10.8534
G3 X28.1282 Y13.0683 I26.582 J12.4975
G3 X27.979 Y13.4365 I22.1635 J10.8662
G3 X27.8367 Y13.6937 I26.4715 J12.7702
G3 X25.2262 Y15.2625 I24.843 J11.6686
G3 X25.2482 Y15.9 I16.0 J15.9
G3 X24.062 Y20.4313 I16.0 J15.9
G3 X24.2494 Y20.7643 I21.6214 J22.024
G2 X29.499 Y13.2273 I19.491 J11.8534
G3 X29.6276 Y12.7778 I31.1318 J13.4515
G3 X30.4018 Y11.8911 I31.465 J13.6007
G0 Z3.0
G0 X32.6182 Y11.2741
G0 Z-0.5
G1 F300.0 Z-2.0
G2 F800.0 X7.375 Y0.9611 I16.0 J15.9
G2 Y30.8389 I16.0 J15.9
G2 X33.25 Y15.9 I16.0 J15.9
G2 X32.6182 Y11.2741 I16.0 J15.9
G0 Z3.0
G0 X31.9602 Y12.6016
G0 Z-0.5
G1 F300.0 Z-2.0
G3 F800.0 X32.5667 Y13.4288 I31.465 J13.6007
G3 X32.5687 Y13.6463 I31.8256 J13.5444
G3 X27.5089 Y22.3393 I19.491 J11.8534
G3 X24.5236 Y24.0564 I19.491 J11.8534
G3 X24.3645 Y24.1022 I24.2377 J23.363
G3 X24.0266 Y24.1494 I23.4412 J18.7209
G3 X23.8929 Y24.1518 I23.9462 J23.4037
G3 X21.4788 Y22.2041 I24.086 J21.4425
G2 X21.4754 I21.4791 J24.7006
G3 X20.175 Y23.1313 I16.0 J15.9
G3 X15.4825 Y24.2339 I16.0 J15.9
G3 X14.8892 Y25.2982 I13.5072 J23.8303
G2 X14.7346 Y25.7628 I15.243 J25.6739
G2 X25.4032 Y27.0858 I21.25 J16.9
G3 X25.6096 Y27.0342 I25.6864 J27.7803
G3 X26.4235 Y29.0115 I25.7238 J28.1434
G3 X26.2361 Y29.122 I25.9528 J28.4276
G3 X16.1779 Y29.0866 I21.25 J16.9
G3 X13.1982 Y27.3599 I21.25 J16.9
G3 X13.079 Y27.245 I13.6557 J26.7656
G3 X12.8692 Y26.976 I17.2776 J23.7547
G3 X12.8002 Y26.8613 I13.4747 J26.5335
G3 X13.2799 Y23.7969 I15.243 J25.6739
G2 X13.2782 Y23.7939 I11.118 J25.0453
G3 X11.825 Y23.1313 I16.0 J15.9
G3 X8.5238 Y19.6188 I16.0 J15.9
G3 X7.3056 Y19.6371 I7.8858 J17.7063
G2 X6.8258 Y19.7356 I7.157 J20.1314
G2 X11.0144 Y29.6363 I17.759 J20.9466
G3 X11.1623 Y29.7893 I10.5546 J30.2288
G3 X9.8568 Y31.4828 I10.2588 J30.4427
G3 X9.6674 Y31.3758 I10.1272 J30.7832
G3 X4.669 Y22.6473 I17.759 J20.9466
G3 X4.6746 Y19.2035 I17.759 J20.9466
G3 X4.7144 Y19.0428 I5.418 J19.3025
G3 X4.8425 Y18.7266 I9.8365 J20.9338
G3 X4.9073 Y18.6096 I5.5285 J19.0298
G3 X7.801 Y17.4927 I7.157 J20.1314
G2 X7.8027 Y17.4898 I5.6389 J16.2447
G3 X7.65 Y15.9 I16.0 J15.9
G3 X9.0413 Y11.2849 I16.0 J15.9
G3 X8.4163 Y10.239 I10.3786 J9.776
G2 X8.0912 Y9.8727 I7.914 J10.3575
G2 X1.6112 Y18.4505 I12.509 J19.9466
G3 X1.5527 Y18.6551 I0.8682 J18.3485
G3 X-0.5667 Y18.3712 I0.535 J18.1993
G3 X-0.5687 Y18.1537 I0.1744 J18.2556
G3 X4.4911 Y9.4607 I12.509 J19.9466
G3 X7.4764 Y7.7436 I12.509 J19.9466
G3 X7.6355 Y7.6978 I7.7623 J8.437
G3 X7.9734 Y7.6506 I8.5588 J13.0791
G3 X8.1071 Y7.6482 I8.0538 J8.3963
G3 X10.5212 Y9.5959 I7.914 J10.3575
G2 X10.5246 I10.5209 J7.0994
G3 X11.825 Y8.6687 I16.0 J15.9
G3 X16.5175 Y7.5661 I16.0 J15.9
G3 X17.1108 Y6.5018 I18.4928 J7.9697
G2 X17.2654 Y6.0372 I16.757 J6.1261
G2 X6.5968 Y4.7142 I10.75 J14.9
G3 X6.3904 Y4.7658 I6.3136 J4.0197
G3 X5.5765 Y2.7885 I6.2762 J3.6566
G3 X5.7639 Y2.678 I6.0472 J3.3724
G3 X15.8221 Y2.7134 I10.75 J14.9
G3 X18.8018 Y4.4401 I10.75 J14.9
G3 X18.921 Y4.555 I18.3443 J5.0344
G3 X19.1308 Y4.824 I14.7224 J8.0453
G3 X19.1998 Y4.9387 I18.5253 J5.2665
G3 X18.7201 Y8.0031 I16.757 J6.1261
G2 X18.7218 Y8.0061 I20.882 J6.7547
G3 X20.175 Y8.6687 I16.0 J15.9
G3 X23.4762 Y12.1812 I16.0 J15.9
G3 X24.6944 Y12.1629 I24.1142 J14.0937
G2 X25.1742 Y12.0644 I24.843 J11.6686
G2 X20.9856 Y2.1637 I14.241 J10.8534
G3 X20.8377 Y2.0107 I21.4454 J1.5712
G3 X22.1432 Y0.3172 I21.7412 J1.3573
G3 X22.3326 Y0.4242 I21.8728 J1.0168
G3 X27.331 Y9.1527 I14.241 J10.8534
G3 X27.3254 Y12.5965 I14.241 J10.8534
G3 X27.2856 Y12.7572 I26.582 J12.4975
G3 X27.1575 Y13.0734 I22.1635 J10.8662
G3 X27.0927 Y13.1904 I26.4715 J12.7702
G3 X24.199 Y14.3073 I24.843 J11.6686
G2 X24.1973 Y14.3102 I26.3611 J15.5553
G3 X24.35 Y15.9 I16.0 J15.9
G3 X22.9587 Y20.5151 I16.0 J15.9
G3 X23.5837 Y21.561 I21.6214 J22.024
G2 X23.9088 Y21.9273 I24.086 J21.4425
G2 X30.3888 Y13.3495 I19.491 J11.8534
G3 X30.4473 Y13.1449 I31.1318 J13.4515
G3 X31.9602 Y12.6016 I31.465 J13.6007
G1 F300.0 Z-3.0
G3 F800.0 X32.5667 Y13.4288 I31.465 J13.6007
G3 X32.5687 Y13.6463 I31.8256 J13.5444
G3 X27.5089 Y22.3393 I19.491 J11.8534
G3 X24.5236 Y24.0564 I19.491 J11.8534
G3 X24.3645 Y24.1022 I24.2377 J23.363
G3 X24.0266 Y24.1494 I23.4412 J18.7209
G3 X23.8929 Y24.1518 I23.9462 J23.4037
G3 X21.4788 Y22.2041 I24.086 J21.4425
G2 X21.4754 I21.4791 J24.7006
G3 X20.175 Y23.1313 I16.0 J15.9
G3 X15.4825 Y24.2339 I16.0 J15.9
G3 X14.8892 Y25.2982 I13.5072 J23.8303
G2 X14.7346 Y25.7628 I15.243 J25.6739
G2 X25.4032 Y27.0858 I21.25 J16.9
G3 X25.6096 Y27.0342 I25.6864 J27.7803
G3 X26.4235 Y29.0115 I25.7238 J28.1434
G3 X26.2361 Y29.122 I25.9528 J28.4276
G3 X16.1779 Y29.0866 I21.25 J16.9
G3 X13.1982 Y27.3599 I21.25 J16.9
G3 X13.079 Y27.245 I13.6557 J26.7656
G3 X12.8692 Y26.976 I17.2776 J23.7547
G3 X12.8002 Y26.8613 I13.4747 J26.5335
G3 X13.2799 Y23.7969 I15.243 J25.6739
G2 X13.2782 Y23.7939 I11.118 J25.0453
G3 X11.825 Y23.1313 I16.0 J15.9
G3 X8.5238 Y19.6188 I16.0 J15.9
G3 X7.3056 Y19.6371 I7.8858 J17.7063
G2 X6.8258 Y19.7356 I7.157 J20.1314
G2 X11.0144 Y29.6363 I17.759 J20.9466
G3 X11.1623 Y29.7893 I10.5546 J30.2288
G3 X9.8568 Y31.4828 I10.2588 J30.4427
G3 X9.6674 Y31.3758 I10.1272 J30.7832
G3 X4.669 Y22.6473 I17.759 J20.9466
G3 X4.6746 Y19.2035 I17.759 J20.9466
G3 X4.7144 Y19.0428 I5.418 J19.3025
G3 X4.8425 Y18.7266 I9.8365 J20.9338
G3 X4.9073 Y18.6096 I5.5285 J19.0298
G3 X7.801 Y17.4927 I7.157 J20.1314
G2 X7.8027 Y17.4898 I5.6389 J16.2447
G3 X7.65 Y15.9 I16.0 J15.9
G3 X9.0413 Y11.2849 I16.0 J15.9
G3 X8.4163 Y10.239 I10.3786 J9.776
G2 X8.0912 Y9.8727 I7.914 J10.3575
G2 X1.6112 Y18.4505 I12.509 J19.9466
G3 X1.5527 Y18.6551 I0.8682 J18.3485
G3 X-0.5667 Y18.3712 I0.535 J18.1993
G3 X-0.5687 Y18.1537 I0.1744 J18.2556
G3 X4.4911 Y9.4607 I12.509 J19.9466
G3 X7.4764 Y7.7436 I12.509 J19.9466
G3 X7.6355 Y7.6978 I7.7623 J8.437
G3 X7.9734 Y7.6506 I8.5588 J13.0791
G3 X8.1071 Y7.6482 I8.0538 J8.3963
G3 X10.5212 Y9.5959 I7.914 J10.3575
G2 X10.5246 I10.5209 J7.0994
G3 X11.825 Y8.6687 I16.0 J15.9
G3 X16.5175 Y7.5661 I16.0 J15.9
G3 X17.1108 Y6.5018 I18.4928 J7.9697
G2 X17.2654 Y6.0372 I16.757 J6.1261
G2 X6.5968 Y4.7142 I10.75 J14.9
G3 X6.3904 Y4.7658 I6.3136 J4.0197
G3 X5.5765 Y2.7885 I6.2762 J3.6566
G3 X5.7639 Y2.678 I6.0472 J3.3724
G3 X15.8221 Y2.7134 I10.75 J14.9
G3 X18.8018 Y4.4401 I10.75 J14.9
G3 X18.921 Y4.555 I18.3443 J5.0344
G3 X19.1308 Y4.824 I14.7224 J8.0453
G3 X19.1998 Y4.9387 I18.5253 J5.2665
G3 X18.7201 Y8.0031 I16.757 J6.1261
G2 X18.7218 Y8.0061 I20.882 J6.7547
G3 X20.175 Y8.6687 I16.0 J15.9
G3 X23.4762 Y12.1812 I16.0 J15.9
G3 X24.6944 Y12.1629 I24.1142 J14.0937
G2 X25.1742 Y12.0644 I24.843 J11.6686
G2 X20.9856 Y2.1637 I14.241 J10.8534
G3 X20.8377 Y2.0107 I21.4454 J1.5712
G3 X22.1432 Y0.3172 I21.7412 J1.3573
G3 X22.3326 Y0.4242 I21.8728 J1.0168
G3 X27.331 Y9.1527 I14.241 J10.8534
G3 X27.3254 Y12.5965 I14.241 J10.8534
G3 X27.2856 Y12.7572 I26.582 J12.4975
G3 X27.1575 Y13.0734 I22.1635 J10.8662
G3 X27.0927 Y13.1904 I26.4715 J12.7702
G3 X24.199 Y14.3073 I24.843 J11.6686
G2 X24.1973 Y14.3102 I26.3611 J15.5553
G3 X24.35 Y15.9 I16.0 J15.9
G3 X22.9587 Y20.5151 I16.0 J15.9
G3 X23.5837 Y21.561 I21.6214 J22.024
G2 X23.9088 Y21.9273 I24.086 J21.4425
G2 X30.3888 Y13.3495 I19.491 J11.8534
G3 X30.4473 Y13.1449 I31.1318 J13.4515
G3 X31.9602 Y12.6016 I31.465 J13.6007
G0 Z3.0
G0 X30.0189 Y10.5642
G0 Z-1.5
G1 F300.0 Z-3.0
G2 F800.0 X29.6436 Y9.6668 I16.0 J15.9
G3 X29.6888 Y10.7447 I14.241 J10.8534
G3 X30.0189 Y10.5642 I31.465 J13.6007
G1 F300.0 X30.4395 Y10.4041
G2 F800.0 X28.799 Y7.2462 I16.0 J15.9
G3 X29.1142 Y8.921 I14.241 J10.8534
G3 X29.2122 Y11.7536 I14.241 J10.8534
G3 X30.5915 Y10.8215 I31.465 J13.6007
G2 X30.4395 Y10.4041 I16.0 J15.9
G0 Z3.0
G0 X27.1686 Y16.0545
G0 Z-1.5
G1 F300.0 Z-3.0
G3 F800.0 X26.5901 Y16.3153 I24.843 J11.6686
G3 X26.5361 Y17.0458 I16.0 J15.9
G2 X27.1686 Y16.0545 I19.491 J11.8534
G1 F300.0 X26.9578 Y15.6569
G3 F800.0 X26.1478 Y15.9902 I24.843 J11.6686
G3 X25.7941 Y18.5574 I16.0 J15.9
G2 X28.2718 Y14.605 I19.491 J11.8534
G3 X26.9578 Y15.6569 I24.843 J11.6686
G1 F300.0 X26.5361 Y14.8618
G3 F800.0 X25.2262 Y15.2625 I24.843 J11.6686
G3 X25.2482 Y15.9 I16.0 J15.9
G3 X24.062 Y20.4313 I16.0 J15.9
G3 X24.2494 Y20.7643 I21.6214 J22.024
G2 X29.499 Y13.2273 I19.491 J11.8534
G3 X29.6276 Y12.7778 I31.1318 J13.4515
G3 X31.7777 Y11.6119 I31.465 J13.6007
G2 X25.8445 Y2.8459 I16.0 J15.9
G3 X28.2217 Y9.0369 I14.241 J10.8534
G3 X28.2158 Y12.7151 I14.241 J10.8534
G3 X28.1282 Y13.0683 I26.582 J12.4975
G3 X27.979 Y13.4365 I22.1635 J10.8662
G3 X27.8367 Y13.6937 I26.4715 J12.7702
G3 X26.5361 Y14.8618 I24.843 J11.6686
G0 Z3.0
G0 X22.2603 Y7.3484
G0 Z-1.5
G1 F300.0 Z-3.0
G2 F800.0 X21.7181 Y6.305 I14.241 J10.8534
G3 X21.6547 Y6.9364 I16.757 J6.1261
G3 X22.2603 Y7.3484 I16.0 J15.9
G1 F300.0 X21.9945 Y7.7115
G3 F800.0 X23.1985 Y8.7468 I16.0 J15.9
G2 X21.0144 Y4.6248 I14.241 J10.8534
G3 X21.152 Y7.1569 I16.757 J6.1261
G3 X21.9945 Y7.7115 I16.0 J15.9
G0 Z3.0
G0 X18.3798 Y1.4675
G0 Z-1.5
G1 F300.0 Z-3.0
G3 F800.0 X18.3885 Y1.0914 I21.7412 J1.3573
G2 X17.4237 Y0.9677 I16.0 J15.9
G3 X18.3798 Y1.4675 I10.75 J14.9
G1 F300.0 X18.1575 Y1.8587
G3 F800.0 X19.0152 Y2.3847 I10.75 J14.9
G3 X18.8976 Y0.7242 I21.7412 J1.3573
G2 X14.9051 Y0.4888 I16.0 J15.9
G3 X16.5131 Y1.0532 I10.75 J14.9
G3 X18.1575 Y1.8587 I10.75 J14.9
G1 F300.0 X17.713 Y2.6413
G3 F800.0 X19.3497 Y3.7284 I10.75 J14.9
G3 X19.6118 Y3.9808 I18.3443 J5.0344
G3 X19.8561 Y4.2941 I14.7224 J8.0453
G3 X20.0076 Y4.546 I18.5253 J5.2665
G3 X20.061 Y7.5911 I16.757 J6.1261
G3 X20.6241 Y7.8908 I16.0 J15.9
G3 X23.9552 Y11.1837 I16.0 J15.9
G3 X24.3373 Y11.1879 I24.1142 J14.0937
G2 X20.4349 Y2.8732 I14.241 J10.8534
G3 X20.1099 Y2.537 I21.4454 J1.5712
G3 X20.1752 Y0.0921 I21.7412 J1.3573
G2 X9.6171 Y0.8474 I16.0 J15.9
G3 X16.1673 Y1.8841 I10.75 J14.9
G3 X17.713 Y2.6413 I10.75 J14.9
G0 Z3.0
G0 X11.7242 Y6.2026
G0 Z-1.5
G1 F300.0 Z-3.0
G2 F800.0 X10.5495 Y6.1505 I10.75 J14.9
G3 X11.0647 Y6.5211 I7.914 J10.3575
G3 X11.7242 Y6.2026 I16.0 J15.9
G1 F300.0 X11.9058 Y6.6143
G3 F800.0 X13.4044 Y6.0894 I16.0 J15.9
G2 X8.7426 Y5.9198 I10.75 J14.9
G3 X11.0042 Y7.0666 I7.914 J10.3575
G3 X11.9058 Y6.6143 I16.0 J15.9
G0 Z3.0
G0 X4.691 Y6.6228
G0 Z-1.5
G1 F300.0 Z-3.0
G3 F800.0 X4.3696 Y6.4272 I6.2762 J3.6566
G2 X3.7801 Y7.2009 I16.0 J15.9
G3 X4.691 Y6.6228 I12.509 J19.9466
G1 F300.0 X4.9031 Y6.2259
G3 F800.0 X4.3061 Y5.8027 I6.2762 J3.6566
G2 X2.1061 Y9.1427 I16.0 J15.9
G3 X3.3989 Y8.0323 I12.509 J19.9466
G3 X5.803 Y6.5311 I12.509 J19.9466
G3 X4.9031 Y6.2259 I6.2762 J3.6566
G1 F300.0 X5.3273 Y5.4321
G3 F800.0 X4.3975 Y4.3802 I6.2762 J3.6566
G2 X-0.2274 Y13.9015 I16.0 J15.9
G3 X3.9455 Y8.7472 I12.509 J19.9466
G3 X7.1339 Y6.9133 I12.509 J19.9466
G3 X7.4836 Y6.8125 I7.7623 J8.437
G3 X7.877 Y6.7576 I8.5588 J13.0791
G3 X8.171 Y6.7523 I8.0538 J8.3963
G3 X10.8348 Y8.2286 I7.914 J10.3575
G3 X11.3759 Y7.8908 I16.0 J15.9
G3 X15.8932 Y6.6524 I16.0 J15.9
G3 X16.0879 Y6.3237 I18.4928 J7.9697
G2 X6.9359 Y5.5459 I10.75 J14.9
G3 X6.4823 Y5.6592 I6.3136 J4.0197
G3 X5.3273 Y5.4321 I6.2762 J3.6566
G0 Z3.0
G0 X5.4639 Y14.7542
G0 Z-1.5
G1 F300.0 Z-3.0
G2 F800.0 X4.8314 Y15.7455 I12.509 J19.9466
G3 X5.4099 Y15.4847 I7.157 J20.1314
G3 X5.4639 Y14.7542 I16.0 J15.9
G1 F300.0 X5.9113 Y14.8029
G3 F800.0 X6.2059 Y13.2426 I16.0 J15.9
G2 X3.7282 Y17.195 I12.509 J19.9466
G3 X5.8522 Y15.8098 I7.157 J20.1314
G3 X5.9113 Y14.8029 I16.0 J15.9
G0 Z3.0
G0 X2.3112 Y21.0553
G0 Z-1.5
G1 F300.0 Z-3.0
G3 F800.0 X1.9811 Y21.2358 I0.535 J18.1993
G2 X2.3564 Y22.1332 I16.0 J15.9
G3 X2.3112 Y21.0553 I17.759 J20.9466
G1 F300.0 X2.7611 Y21.0521
G3 F800.0 X2.7878 Y20.0464 I17.759 J20.9466
G3 X1.4085 Y20.9785 I0.535 J18.1993
G2 X3.201 Y24.5538 I16.0 J15.9
G3 X2.8858 Y22.879 I17.759 J20.9466
G3 X2.7611 Y21.0521 I17.759 J20.9466
G1 F300.0 X3.6611 Y21.0458
G3 F800.0 X3.7842 Y19.0849 I17.759 J20.9466
G3 X3.8718 Y18.7317 I5.418 J19.3025
G3 X4.021 Y18.3635 I9.8365 J20.9338
G3 X4.1633 Y18.1063 I5.5285 J19.0298
G3 X6.7738 Y16.5375 I7.157 J20.1314
G3 X6.7518 Y15.9 I16.0 J15.9
G3 X7.938 Y11.3687 I16.0 J15.9
G3 X7.7506 Y11.0357 I10.3786 J9.776
G2 X2.501 Y18.5727 I12.509 J19.9466
G3 X2.3724 Y19.0222 I0.8682 J18.3485
G3 X0.2223 Y20.1881 I0.535 J18.1993
G2 X6.1555 Y28.9541 I16.0 J15.9
G3 X3.7783 Y22.7631 I17.759 J20.9466
G3 X3.6611 Y21.0458 I17.759 J20.9466
G0 Z3.0
G0 X9.7397 Y24.4516
G0 Z-1.5
G1 F300.0 Z-3.0
G2 F800.0 X10.2819 Y25.495 I17.759 J20.9466
G3 X10.3453 Y24.8636 I15.243 J25.6739
G3 X9.7397 Y24.4516 I16.0 J15.9
G1 F300.0 X9.3273 Y24.6318
G2 F800.0 X10.9856 Y27.1752 I17.759 J20.9466
G3 X10.848 Y24.6431 I15.243 J25.6739
G3 X8.8015 Y23.0532 I16.0 J15.9
G2 X9.3273 Y24.6318 I17.759 J20.9466
G0 Z3.0
G0 X13.6202 Y30.3325
G0 Z-1.5
G1 F300.0 Z-3.0
G3 F800.0 X13.6115 Y30.7086 I10.2588 J30.4427
G2 X14.5763 Y30.8323 I16.0 J15.9
G3 X13.6202 Y30.3325 I21.25 J16.9
G1 F300.0 X13.1704 Y30.3473
G3 F800.0 X13.1024 Y31.0758 I10.2588 J30.4427
G2 X17.0949 Y31.3112 I16.0 J15.9
G3 X15.4869 Y30.7468 I21.25 J16.9
G3 X12.9848 Y29.4153 I21.25 J16.9
G3 X13.1704 Y30.3473 I10.2588 J30.4427
G1 F300.0 X12.2709 Y30.3768
G3 F800.0 X11.8248 Y31.7079 I10.2588 J30.4427
G2 X22.3829 Y30.9526 I16.0 J15.9
G3 X15.8327 Y29.9159 I21.25 J16.9
G3 X12.6503 Y28.0716 I21.25 J16.9
G3 X12.3882 Y27.8192 I13.6557 J26.7656
G3 X12.1439 Y27.5059 I17.2776 J23.7547
G3 X11.9924 Y27.254 I13.4747 J26.5335
G3 X11.939 Y24.2089 I15.243 J25.6739
G3 X11.3759 Y23.9092 I16.0 J15.9
G3 X8.0448 Y20.6163 I16.0 J15.9
G3 X7.6627 Y20.6121 I7.8858 J17.7063
G2 X11.5651 Y28.9268 I17.759 J20.9466
G3 X11.8901 Y29.263 I10.5546 J30.2288
G3 X12.2709 Y30.3768 I10.2588 J30.4427
G0 Z3.0
G0 X20.2758 Y25.5974
G0 Z-1.5
G1 F300.0 Z-3.0
G2 F800.0 X21.4505 Y25.6495 I21.25 J16.9
G3 X20.9353 Y25.2789 I24.086 J21.4425
G3 X20.2758 Y25.5974 I16.0 J15.9
G1 F300.0 X20.0942 Y25.1857
G3 F800.0 X18.5956 Y25.7106 I16.0 J15.9
G2 X23.2574 Y25.8802 I21.25 J16.9
G3 X20.9958 Y24.7334 I24.086 J21.4425
G3 X20.0942 Y25.1857 I16.0 J15.9
G0 Z3.0
G0 X27.309 Y25.1772
G0 Z-1.5
G1 F300.0 Z-3.0
G3 F800.0 X27.6304 Y25.3728 I25.7238 J28.1434
G2 X28.2199 Y24.5991 I16.0 J15.9
G3 X27.309 Y25.1772 I19.491 J11.8534
G1 F300.0 X27.0969 Y25.5741
G3 F800.0 X27.6939 Y25.9973 I25.7238 J28.1434
G2 X29.8939 Y22.6573 I16.0 J15.9
G3 X28.6011 Y23.7677 I19.491 J11.8534
G3 X26.197 Y25.2689 I19.491 J11.8534
G3 X27.0969 Y25.5741 I25.7238 J28.1434
G1 F300.0 X26.6727 Y26.3679
G3 F800.0 X27.6025 Y27.4198 I25.7238 J28.1434
G2 X32.2274 Y17.8985 I16.0 J15.9
G3 X28.0545 Y23.0528 I19.491 J11.8534
G3 X24.8661 Y24.8867 I19.491 J11.8534
G3 X24.5164 Y24.9875 I24.2377 J23.363
G3 X24.123 Y25.0424 I23.4412 J18.7209
G3 X23.829 Y25.0477 I23.9462 J23.4037
G3 X21.1652 Y23.5714 I24.086 J21.4425
G3 X20.6241 Y23.9092 I16.0 J15.9
G3 X16.1068 Y25.1476 I16.0 J15.9
G3 X15.9121 Y25.4763 I13.5072 J23.8303
G2 X25.0641 Y26.2541 I21.25 J16.9
G3 X25.5177 Y26.1408 I25.6864 J27.7803
G3 X26.6727 Y26.3679 I25.7238 J28.1434
G0 Z3.0
G0 X28.3152 Y27.9788
G0 Z-1.5
G1 F300.0 Z-3.0
G2 F800.0 X33.25 Y15.9 I16.0 J15.9
G2 X7.375 Y0.9611 I16.0 J15.9
G2 Y30.8389 I16.0 J15.9
G2 X28.3152 Y27.9788 I16.0 J15.9
G0 Z3.0
G0 X26.8366 Y28.0727
G0 Z-2.5
G1 F300.0 Z-4.0
G3 F800.0 X26.4235 Y29.0115 I25.7238 J28.1434
G3 X26.2361 Y29.122 I25.9528 J28.4276
G3 X16.1779 Y29.0866 I21.25 J16.9
G3 X13.1982 Y27.3599 I21.25 J16.9
G3 X13.079 Y27.245 I13.6557 J26.7656
G3 X12.8692 Y26.976 I17.2776 J23.7547
G3 X12.8002 Y26.8613 I13.4747 J26.5335
G3 X13.2799 Y23.7969 I15.243 J25.6739
G2 X13.2782 Y23.7939 I11.118 J25.0453
G3 X11.825 Y23.1313 I16.0 J15.9
G3 X8.5238 Y19.6188 I16.0 J15.9
G3 X7.3056 Y19.6371 I7.8858 J17.7063
G2 X6.8258 Y19.7356 I7.157 J20.1314
G2 X11.0144 Y29.6363 I17.759 J20.9466
G3 X11.1623 Y29.7893 I10.5546 J30.2288
G3 X9.8568 Y31.4828 I10.2588 J30.4427
G3 X9.6674 Y31.3758 I10.1272 J30.7832
G3 X4.669 Y22.6473 I17.759 J20.9466
G3 X4.6746 Y19.2035 I17.759 J20.9466
G3 X4.7144 Y19.0428 I5.418 J19.3025
G3 X4.8425 Y18.7266 I9.8365 J20.9338
G3 X4.9073 Y18.6096 I5.5285 J19.0298
G3 X7.801 Y17.4927 I7.157 J20.1314
G2 X7.8027 Y17.4898 I5.6389 J16.2447
G3 X7.65 Y15.9 I16.0 J15.9
G3 X9.0413 Y11.2849 I16.0 J15.9
G3 X8.4163 Y10.239 I10.3786 J9.776
G2 X8.0912 Y9.8727 I7.914 J10.3575
G2 X1.6112 Y18.4505 I12.509 J19.9466
G3 X1.5527 Y18.6551 I0.8682 J18.3485
G3 X-0.5667 Y18.3712 I0.535 J18.1993
G3 X-0.5687 Y18.1537 I0.1744 J18.2556
G3 X4.4911 Y9.4607 I12.509 J19.9466
G3 X7.4764 Y7.7436 I12.509 J19.9466
G3 X7.6355 Y7.6978 I7.7623 J8.437
G3 X7.9734 Y7.6506 I8.5588 J13.0791
G3 X8.1071 Y7.6482 I8.0538 J8.3963
G3 X10.5212 Y9.5959 I7.914 J10.3575
G2 X10.5246 I10.5209 J7.0994
G3 X11.825 Y8.6687 I16.0 J15.9
G3 X16.5175 Y7.5661 I16.0 J15.9
G3 X17.1108 Y6.5018 I18.4928 J7.9697
G2 X17.2654 Y6.0372 I16.757 J6.1261
G2 X6.5968 Y4.7142 I10.75 J14.9
G3 X6.3904 Y4.7658 I6.3136 J4.0197
G3 X5.5765 Y2.7885 I6.2762 J3.6566
G3 X5.7639 Y2.678 I6.0472 J3.3724
G3 X15.8221 Y2.7134 I10.75 J14.9
G3 X18.8018 Y4.4401 I10.75 J14.9
G3 X18.921 Y4.555 I18.3443 J5.0344
G3 X19.1308 Y4.824 I14.7224 J8.0453
G3 X19.1998 Y4.9387 I18.5253 J5.2665
G3 X18.7201 Y8.0031 I16.757 J6.1261
G2 X18.7218 Y8.0061 I20.882 J6.7547
G3 X20.175 Y8.6687 I16.0 J15.9
G3 X23.4762 Y12.1812 I16.0 J15.9
G3 X24.6944 Y12.1629 I24.1142 J14.0937
G2 X25.1742 Y12.0644 I24.843 J11.6686
G2 X20.9856 Y2.1637 I14.241 J10.8534
G3 X20.8377 Y2.0107 I21.4454 J1.5712
G3 X22.1432 Y0.3172 I21.7412 J1.3573
G3 X22.3326 Y0.4242 I21.8728 J1.0168
G3 X27.331 Y9.1527 I14.241 J10.8534
G3 X27.3254 Y12.5965 I14.241 J10.8534
G3 X27.2856 Y12.7572 I26.582 J12.4975
G3 X27.1575 Y13.0734 I22.1635 J10.8662
G3 X27.0927 Y13.1904 I26.4715 J12.7702
G3 X24.199 Y14.3073 I24.843 J11.6686
G2 X24.1973 Y14.3102 I26.3611 J15.5553
G3 X24.35 Y15.9 I16.0 J15.9
G3 X22.9587 Y20.5151 I16.0 J15.9
G3 X23.5837 Y21.561 I21.6214 J22.024
G2 X23.9088 Y21.9273 I24.086 J21.4425
G2 X30.3888 Y13.3495 I19.491 J11.8534
G3 X30.4473 Y13.1449 I31.1318 J13.4515
G3 X32.5667 Y13.4288 I31.465 J13.6007
G3 X32.5687 Y13.6463 I31.8256 J13.5444
G3 X27.5089 Y22.3393 I19.491 J11.8534
G3 X24.5236 Y24.0564 I19.491 J11.8534
G3 X24.3645 Y24.1022 I24.2377 J23.363
G3 X24.0266 Y24.1494 I23.4412 J18.7209
G3 X23.8929 Y24.1518 I23.9462 J23.4037
G3 X21.4788 Y22.2041 I24.086 J21.4425
G2 X21.4754 I21.4791 J24.7006
G3 X20.175 Y23.1313 I16.0 J15.9
G3 X15.4825 Y24.2339 I16.0 J15.9
G3 X14.8892 Y25.2982 I13.5072 J23.8303
G2 X14.7346 Y25.7628 I15.243 J25.6739
G2 X25.4032 Y27.0858 I21.25 J16.9
G3 X25.6096 Y27.0342 I25.6864 J27.7803
G3 X26.8366 Y28.0727 I25.7238 J28.1434
G0 Z3.0
G0 X27.6304 Y25.3728
G0 Z-2.5
G1 F300.0 Z-4.0
G2 F800.0 X28.2199 Y24.5991 I16.0 J15.9
G3 X27.309 Y25.1772 I19.491 J11.8534
G3 X27.6304 Y25.3728 I25.7238 J28.1434
G1 F300.0 X27.9793 Y25.657
G2 F800.0 X29.8939 Y22.6573 I16.0 J15.9
G3 X28.6011 Y23.7677 I19.491 J11.8534
G3 X26.197 Y25.2689 I19.491 J11.8534
G3 X27.6939 Y25.9973 I25.7238 J28.1434
G2 X27.9793 Y25.657 I16.0 J15.9
G0 Z3.0
G0 X21.4505 Y25.6495
G0 Z-2.5
G1 F300.0 Z-4.0
G3 F800.0 X20.9353 Y25.2789 I24.086 J21.4425
G3 X20.2758 Y25.5974 I16.0 J15.9
G2 X21.4505 Y25.6495 I21.25 J16.9
G1 F300.0 X21.4608 Y26.0994
G2 F800.0 X23.2574 Y25.8802 I21.25 J16.9
G3 X20.9958 Y24.7334 I24.086 J21.4425
G3 X18.5956 Y25.7106 I16.0 J15.9
G2 X21.4608 Y26.0994 I21.25 J16.9
G1 F300.0 X21.4814 Y26.9991
G2 F800.0 X25.0641 Y26.2541 I21.25 J16.9
G3 X25.5177 Y26.1408 I25.6864 J27.7803
G3 X27.6025 Y27.4198 I25.7238 J28.1434
G2 X32.2274 Y17.8985 I16.0 J15.9
G3 X28.0545 Y23.0528 I19.491 J11.8534
G3 X24.8661 Y24.8867 I19.491 J11.8534
G3 X24.5164 Y24.9875 I24.2377 J23.363
G3 X24.123 Y25.0424 I23.4412 J18.7209
G3 X23.829 Y25.0477 I23.9462 J23.4037
G3 X21.1652 Y23.5714 I24.086 J21.4425
G3 X20.6241 Y23.9092 I16.0 J15.9
G3 X16.1068 Y25.1476 I16.0 J15.9
G3 X15.9121 Y25.4763 I13.5072 J23.8303
G2 X21.4814 Y26.9991 I21.25 J16.9
G0 Z3.0
G0 X14.5763 Y30.8323
G0 Z-2.5
G1 F300.0 Z-4.0
G3 F800.0 X13.6202 Y30.3325 I21.25 J16.9
G3 X13.6115 Y30.7086 I10.2588 J30.4427
G2 X14.5763 Y30.8323 I16.0 J15.9
G1 F300.0 X14.7707 Y30.4264
G3 F800.0 X12.9848 Y29.4153 I21.25 J16.9
G3 X13.1024 Y31.0758 I10.2588 J30.4427
G2 X17.0949 Y31.3112 I16.0 J15.9
G3 X15.4869 Y30.7468 I21.25 J16.9
G3 X14.7707 Y30.4264 I21.25 J16.9
G0 Z3.0
G0 X10.2819 Y25.495
G0 Z-2.5
G1 F300.0 Z-4.0
G3 F800.0 X10.3453 Y24.8636 I15.243 J25.6739
G3 X9.7397 Y24.4516 I16.0 J15.9
G2 X10.2819 Y25.495 I17.759 J20.9466
G1 F300.0 X10.7316 Y25.5112
G3 F800.0 X10.848 Y24.6431 I15.243 J25.6739
G3 X8.8015 Y23.0532 I16.0 J15.9
G2 X10.9856 Y27.1752 I17.759 J20.9466
G3 X10.7316 Y25.5112 I15.243 J25.6739
G1 F300.0 X11.631 Y25.5437
G3 F800.0 X11.939 Y24.2089 I15.243 J25.6739
G3 X11.3759 Y23.9092 I16.0 J15.9
G3 X8.0448 Y20.6163 I16.0 J15.9
G3 X7.6627 Y20.6121 I7.8858 J17.7063
G2 X11.5651 Y28.9268 I17.759 J20.9466
G3 X11.8901 Y29.263 I10.5546 J30.2288
G3 X11.8248 Y31.7079 I10.2588 J30.4427
G2 X22.3829 Y30.9526 I16.0 J15.9
G3 X15.8327 Y29.9159 I21.25 J16.9
G3 X12.6503 Y28.0716 I21.25 J16.9
G3 X12.3882 Y27.8192 I13.6557 J26.7656
G3 X12.1439 Y27.5059 I17.2776 J23.7547
G3 X11.9924 Y27.254 I13.4747 J26.5335
G3 X11.631 Y25.5437 I15.243 J25.6739
G0 Z3.0
G0 X2.3564 Y22.1332
G0 Z-2.5
G1 F300.0 Z-4.0
G3 F800.0 X2.3112 Y21.0553 I17.759 J20.9466
G3 X1.9811 Y21.2358 I0.535 J18.1993
G2 X2.3564 Y22.1332 I16.0 J15.9
G1 F300.0 X2.8051 Y22.0986
G3 F800.0 X2.7878 Y20.0464 I17.759 J20.9466
G3 X1.4085 Y20.9785 I0.535 J18.1993
G2 X3.201 Y24.5538 I16.0 J15.9
G3 X2.8858 Y22.879 I17.759 J20.9466
G3 X2.8051 Y22.0986 I17.759 J20.9466
G0 Z3.0
G0 X4.8314 Y15.7455
G0 Z-2.5
G1 F300.0 Z-4.0
G3 F800.0 X5.4099 Y15.4847 I7.157 J20.1314
G3 X5.4639 Y14.7542 I16.0 J15.9
G2 X4.8314 Y15.7455 I12.509 J19.9466
G1 F300.0 X5.0422 Y16.1431
G3 F800.0 X5.8522 Y15.8098 I7.157 J20.1314
G3 X6.2059 Y13.2426 I16.0 J15.9
G2 X3.7282 Y17.195 I12.509 J19.9466
G3 X5.0422 Y16.1431 I7.157 J20.1314
G1 F300.0 X5.4639 Y16.9382
G3 F800.0 X6.7738 Y16.5375 I7.157 J20.1314
G3 X6.7518 Y15.9 I16.0 J15.9
G3 X7.938 Y11.3687 I16.0 J15.9
G3 X7.7506 Y11.0357 I10.3786 J9.776
G2 X2.501 Y18.5727 I12.509 J19.9466
G3 X2.3724 Y19.0222 I0.8682 J18.3485
G3 X0.2223 Y20.1881 I0.535 J18.1993
G2 X6.1555 Y28.9541 I16.0 J15.9
G3 X3.7783 Y22.7631 I17.759 J20.9466
G3 X3.7842 Y19.0849 I17.759 J20.9466
G3 X3.8718 Y18.7317 I5.418 J19.3025
G3 X4.021 Y18.3635 I9.8365 J20.9338
G3 X4.1633 Y18.1063 I5.5285 J19.0298
G3 X5.4639 Y16.9382 I7.157 J20.1314
G0 Z3.0
G0 X3.7801 Y7.2009
G0 Z-2.5
G1 F300.0 Z-4.0
G3 F800.0 X4.691 Y6.6228 I12.509 J19.9466
G3 X4.3696 Y6.4272 I6.2762 J3.6566
G2 X3.7801 Y7.2009 I16.0 J15.9
G1 F300.0 X3.4135 Y6.9399
G2 F800.0 X2.1061 Y9.1427 I16.0 J15.9
G3 X3.3989 Y8.0323 I12.509 J19.9466
G3 X5.803 Y6.5311 I12.509 J19.9466
G3 X4.3061 Y5.8027 I6.2762 J3.6566
G2 X3.4135 Y6.9399 I16.0 J15.9
G0 Z3.0
G0 X10.5495 Y6.1505
G0 Z-2.5
G1 F300.0 Z-4.0
G3 F800.0 X11.0647 Y6.5211 I7.914 J10.3575
G3 X11.7242 Y6.2026 I16.0 J15.9
G2 X10.5495 Y6.1505 I10.75 J14.9
G1 F300.0 X10.5392 Y5.7006
G2 F800.0 X8.7426 Y5.9198 I10.75 J14.9
G3 X11.0042 Y7.0666 I7.914 J10.3575
G3 X13.4044 Y6.0894 I16.0 J15.9
G2 X10.5392 Y5.7006 I10.75 J14.9
G1 F300.0 X10.5186 Y4.8009
G2 F800.0 X6.9359 Y5.5459 I10.75 J14.9
G3 X6.4823 Y5.6592 I6.3136 J4.0197
G3 X4.3975 Y4.3802 I6.2762 J3.6566
G2 X-0.2274 Y13.9015 I16.0 J15.9
G3 X3.9455 Y8.7472 I12.509 J19.9466
G3 X7.1339 Y6.9133 I12.509 J19.9466
G3 X7.4836 Y6.8125 I7.7623 J8.437
G3 X7.877 Y6.7576 I8.5588 J13.0791
G3 X8.171 Y6.7523 I8.0538 J8.3963
G3 X10.8348 Y8.2286 I7.914 J10.3575
G3 X11.3759 Y7.8908 I16.0 J15.9
G3 X15.8932 Y6.6524 I16.0 J15.9
G3 X16.0879 Y6.3237 I18.4928 J7.9697
G2 X10.5186 Y4.8009 I10.75 J14.9
G0 Z3.0
G0 X17.4237 Y0.9677
G0 Z-2.5
G1 F300.0 Z-4.0
G3 F800.0 X18.3798 Y1.4675 I10.75 J14.9
G3 X18.3885 Y1.0914 I21.7412 J1.3573
G2 X17.4237 Y0.9677 I16.0 J15.9
G1 F300.0 X17.2293 Y1.3736
G3 F800.0 X19.0152 Y2.3847 I10.75 J14.9
G3 X18.8976 Y0.7242 I21.7412 J1.3573
G2 X14.9051 Y0.4888 I16.0 J15.9
G3 X16.5131 Y1.0532 I10.75 J14.9
G3 X17.2293 Y1.3736 I10.75 J14.9
G0 Z3.0
G0 X21.7181 Y6.305
G0 Z-2.5
G1 F300.0 Z-4.0
G3 F800.0 X21.6547 Y6.9364 I16.757 J6.1261
G3 X22.2603 Y7.3484 I16.0 J15.9
G2 X21.7181 Y6.305 I14.241 J10.8534
G1 F300.0 X21.2684 Y6.2888
G3 F800.0 X21.152 Y7.1569 I16.757 J6.1261
G3 X23.1985 Y8.7468 I16.0 J15.9
G2 X21.0144 Y4.6248 I14.241 J10.8534
G3 X21.2684 Y6.2888 I16.757 J6.1261
G1 F300.0 X20.369 Y6.2563
G3 F800.0 X20.061 Y7.5911 I16.757 J6.1261
G3 X20.6241 Y7.8908 I16.0 J15.9
G3 X23.9552 Y11.1837 I16.0 J15.9
G3 X24.3373 Y11.1879 I24.1142 J14.0937
G2 X20.4349 Y2.8732 I14.241 J10.8534
G3 X20.1099 Y2.537 I21.4454 J1.5712
G3 X20.1752 Y0.0921 I21.7412 J1.3573
G2 X9.6171 Y0.8474 I16.0 J15.9
G3 X16.1673 Y1.8841 I10.75 J14.9
G3 X19.3497 Y3.7284 I10.75 J14.9
G3 X19.6118 Y3.9808 I18.3443 J5.0344
G3 X19.8561 Y4.2941 I14.7224 J8.0453
G3 X20.0076 Y4.546 I18.5253 J5.2665
G3 X20.369 Y6.2563 I16.757 J6.1261
G0 Z3.0
G0 X29.6436 Y9.6668
G0 Z-2.5
G1 F300.0 Z-4.0
G3 F800.0 X29.6888 Y10.7447 I14.241 J10.8534
G3 X30.0189 Y10.5642 I31.465 J13.6007
G2 X29.6436 Y9.6668 I16.0 J15.9
G1 F300.0 X30.0529 Y9.4798
G2 F800.0 X28.799 Y7.2462 I16.0 J15.9
G3 X29.1142 Y8.921 I14.241 J10.8534
G3 X29.2122 Y11.7536 I14.241 J10.8534
G3 X30.5915 Y10.8215 I31.465 J13.6007
G2 X30.0529 Y9.4798 I16.0 J15.9
G0 Z3.0
G0 X27.1686 Y16.0545
G0 Z-2.5
G1 F300.0 Z-4.0
G3 F800.0 X26.5901 Y16.3153 I24.843 J11.6686
G3 X26.5361 Y17.0458 I16.0 J15.9
G2 X27.1686 Y16.0545 I19.491 J11.8534
G1 F300.0 X26.9578 Y15.6569
G3 F800.0 X26.1478 Y15.9902 I24.843 J11.6686
G3 X25.7941 Y18.5574 I16.0 J15.9
G2 X28.2718 Y14.605 I19.491 J11.8534
G3 X26.9578 Y15.6569 I24.843 J11.6686
G1 F300.0 X26.5361 Y14.8618
G3 F800.0 X25.2262 Y15.2625 I24.843 J11.6686
G3 X25.2482 Y15.9 I16.0 J15.9
G3 X24.062 Y20.4313 I16.0 J15.9
G3 X24.2494 Y20.7643 I21.6214 J22.024
G2 X29.499 Y13.2273 I19.491 J11.8534
G3 X29.6276 Y12.7778 I31.1318 J13.4515
G3 X31.7777 Y11.6119 I31.465 J13.6007
G2 X25.8445 Y2.8459 I16.0 J15.9
G3 X28.2217 Y9.0369 I14.241 J10.8534
G3 X28.2158 Y12.7151 I14.241 J10.8534
G3 X28.1282 Y13.0683 I26.582 J12.4975
G3 X27.979 Y13.4365 I22.1635 J10.8662
G3 X27.8367 Y13.6937 I26.4715 J12.7702
G3 X26.5361 Y14.8618 I24.843 J11.6686
G0 Z3.0
G0 X33.1669 Y14.2084
G0 Z-2.5
G1 F300.0 Z-4.0
G2 F800.0 X7.375 Y0.9611 I16.0 J15.9
G2 Y30.8389 I16.0 J15.9
G2 X33.25 Y15.9 I16.0 J15.9
G2 X33.1669 Y14.2084 I16.0 J15.9
G1 F300.0 X32.4996 Y14.0935
G1 Z-5.0
G3 F800.0 X27.5089 Y22.3393 I19.491 J11.8534
G3 X24.5236 Y24.0564 I19.491 J11.8534
G3 X24.3645 Y24.1022 I24.2377 J23.363
G3 X24.0266 Y24.1494 I23.4412 J18.7209
G3 X23.8929 Y24.1518 I23.9462 J23.4037
G3 X21.4788 Y22.2041 I24.086 J21.4425
G2 X21.4754 I21.4791 J24.7006
G3 X20.175 Y23.1313 I16.0 J15.9
G3 X15.4825 Y24.2339 I16.0 J15.9
G3 X14.8892 Y25.2982 I13.5072 J23.8303
G2 X14.7346 Y25.7628 I15.243 J25.6739
G2 X25.4032 Y27.0858 I21.25 J16.9
G3 X25.6096 Y27.0342 I25.6864 J27.7803
G3 X26.4235 Y29.0115 I25.7238 J28.1434
G3 X26.2361 Y29.122 I25.9528 J28.4276
G3 X16.1779 Y29.0866 I21.25 J16.9
G3 X13.1982 Y27.3599 I21.25 J16.9
G3 X13.079 Y27.245 I13.6557 J26.7656
G3 X12.8692 Y26.976 I17.2776 J23.7547
G3 X12.8002 Y26.8613 I13.4747 J26.5335
G3 X13.2799 Y23.7969 I15.243 J25.6739
G2 X13.2782 Y23.7939 I11.118 J25.0453
G3 X11.825 Y23.1313 I16.0 J15.9
G3 X8.5238 Y19.6188 I16.0 J15.9
G3 X7.3056 Y19.6371 I7.8858 J17.7063
G2 X6.8258 Y19.7356 I7.157 J20.1314
G2 X11.0144 Y29.6363 I17.759 J20.9466
G3 X11.1623 Y29.7893 I10.5546 J30.2288
G3 X9.8568 Y31.4828 I10.2588 J30.4427
G3 X9.6674 Y31.3758 I10.1272 J30.7832
G3 X4.669 Y22.6473 I17.759 J20.9466
G3 X4.6746 Y19.2035 I17.759 J20.9466
G3 X4.7144 Y19.0428 I5.418 J19.3025
G3 X4.8425 Y18.7266 I9.8365 J20.9338
G3 X4.9073 Y18.6096 I5.5285 J19.0298
G3 X7.801 Y17.4927 I7.157 J20.1314
G2 X7.8027 Y17.4898 I5.6389 J16.2447
G3 X7.65 Y15.9 I16.0 J15.9
G3 X9.0413 Y11.2849 I16.0 J15.9
G3 X8.4163 Y10.239 I10.3786 J9.776
G2 X8.0912 Y9.8727 I7.914 J10.3575
G2 X1.6112 Y18.4505 I12.509 J19.9466
G3 X1.5527 Y18.6551 I0.8682 J18.3485
G3 X-0.5667 Y18.3712 I0.535 J18.1993
G3 X-0.5687 Y18.1537 I0.1744 J18.2556
G3 X4.4911 Y9.4607 I12.509 J19.9466
G3 X7.4764 Y7.7436 I12.509 J19.9466
G3 X7.6355 Y7.6978 I7.7623 J8.437
G3 X7.9734 Y7.6506 I8.5588 J13.0791
G3 X8.1071 Y7.6482 I8.0538 J8.3963
G3 X10.5212 Y9.5959 I7.914 J10.3575
G2 X10.5246 I10.5209 J7.0994
G3 X11.825 Y8.6687 I16.0 J15.9
G3 X16.5175 Y7.5661 I16.0 J15.9
G3 X17.1108 Y6.5018 I18.4928 J7.9697
G2 X17.2654 Y6.0372 I16.757 J6.1261
G2 X6.5968 Y4.7142 I10.75 J14.9
G3 X6.3904 Y4.7658 I6.3136 J4.0197
G3 X5.5765 Y2.7885 I6.2762 J3.6566
G3 X5.7639 Y2.678 I6.0472 J3.3724
G3 X15.8221 Y2.7134 I10.75 J14.9
G3 X18.8018 Y4.4401 I10.75 J14.9
G3 X18.921 Y4.555 I18.3443 J5.0344
G3 X19.1308 Y4.824 I14.7224 J8.0453
G3 X19.1998 Y4.9387 I18.5253 J5.2665
G3 X18.7201 Y8.0031 I16.757 J6.1261
G2 X18.7218 Y8.0061 I20.882 J6.7547
G3 X20.175 Y8.6687 I16.0 J15.9
G3 X23.4762 Y12.1812 I16.0 J15.9
G3 X24.6944 Y12.1629 I24.1142 J14.0937
G2 X25.1742 Y12.0644 I24.843 J11.6686
G2 X20.9856 Y2.1637 I14.241 J10.8534
G3 X20.8377 Y2.0107 I21.4454 J1.5712
G3 X22.1432 Y0.3172 I21.7412 J1.3573
G3 X22.3326 Y0.4242 I21.8728 J1.0168
G3 X27.331 Y9.1527 I14.241 J10.8534
G3 X27.3254 Y12.5965 I14.241 J10.8534
G3 X27.2856 Y12.7572 I26.582 J12.4975
G3 X27.1575 Y13.0734 I22.1635 J10.8662
G3 X27.0927 Y13.1904 I26.4715 J12.7702
G3 X24.199 Y14.3073 I24.843 J11.6686
G2 X24.1973 Y14.3102 I26.3611 J15.5553
G3 X24.35 Y15.9 I16.0 J15.9
G3 X22.9587 Y20.5151 I16.0 J15.9
G3 X23.5837 Y21.561 I21.6214 J22.024
G2 X23.9088 Y21.9273 I24.086 J21.4425
G2 X30.3888 Y13.3495 I19.491 J11.8534
G3 X30.4473 Y13.1449 I31.1318 J13.4515
G3 X32.5667 Y13.4288 I31.465 J13.6007
G3 X32.5687 Y13.6463 I31.8256 J13.5444
G3 X32.4996 Y14.0935 I19.491 J11.8534
G0 Z3.0
G0 X30.0189 Y10.5642
G0 Z-3.5
G1 F300.0 Z-5.0
G2 F800.0 X29.6436 Y9.6668 I16.0 J15.9
G3 X29.6888 Y10.7447 I14.241 J10.8534
G3 X30.0189 Y10.5642 I31.465 J13.6007
G1 F300.0 X30.4395 Y10.4041
G2 F800.0 X28.799 Y7.2462 I16.0 J15.9
G3 X29.1142 Y8.921 I14.241 J10.8534
G3 X29.2122 Y11.7536 I14.241 J10.8534
G3 X30.5915 Y10.8215 I31.465 J13.6007
G2 X30.4395 Y10.4041 I16.0 J15.9
G0 Z3.0
G0 X27.1686 Y16.0545
G0 Z-3.5
G1 F300.0 Z-5.0
G3 F800.0 X26.5901 Y16.3153 I24.843 J11.6686
G3 X26.5361 Y17.0458 I16.0 J15.9
G2 X27.1686 Y16.0545 I19.491 J11.8534
G1 F300.0 X26.9578 Y15.6569
G3 F800.0 X26.1478 Y15.9902 I24.843 J11.6686
G3 X25.7941 Y18.5574 I16.0 J15.9
G2 X28.2718 Y14.605 I19.491 J11.8534
G3 X26.9578 Y15.6569 I24.843 J11.6686
G1 F300.0 X26.5361 Y14.8618
G3 F800.0 X25.2262 Y15.2625 I24.843 J11.6686
G3 X25.2482 Y15.9 I16.0 J15.9
G3 X24.062 Y20.4313 I16.0 J15.9
G3 X24.2494 Y20.7643 I21.6214 J22.024
G2 X29.499 Y13.2273 I19.491 J11.8534
G3 X29.6276 Y12.7778 I31.1318 J13.4515
G3 X31.7777 Y11.6119 I31.465 J13.6007
G2 X25.8445 Y2.8459 I16.0 J15.9
G3 X28.2217 Y9.0369 I14.241 J10.8534
G3 X28.2158 Y12.7151 I14.241 J10.8534
G3 X28.1282 Y13.0683 I26.582 J12.4975
G3 X27.979 Y13.4365 I22.1635 J10.8662
G3 X27.8367 Y13.6937 I26.4715 J12.7702
G3 X26.5361 Y14.8618 I24.843 J11.6686
G0 Z3.0
G0 X22.2603 Y7.3484
G0 Z-3.5
G1 F300.0 Z-5.0
G2 F800.0 X21.7181 Y6.305 I14.241 J10.8534
G3 X21.6547 Y6.9364 I16.757 J6.1261
G3 X22.2603 Y7.3484 I16.0 J15.9
G1 F300.0 X21.9945 Y7.7115
G3 F800.0 X23.1985 Y8.7468 I16.0 J15.9
G2 X21.0144 Y4.6248 I14.241 J10.8534
G3 X21.152 Y7.1569 I16.757 J6.1261
G3 X21.9945 Y7.7115 I16.0 J15.9
G0 Z3.0
G0 X18.3798 Y1.4675
G0 Z-3.5
G1 F300.0 Z-5.0
G3 F800.0 X18.3885 Y1.0914 I21.7412 J1.3573
G2 X17.4237 Y0.9677 I16.0 J15.9
G3 X18.3798 Y1.4675 I10.75 J14.9
G1 F300.0 X18.1575 Y1.8587
G3 F800.0 X19.0152 Y2.3847 I10.75 J14.9
G3 X18.8976 Y0.7242 I21.7412 J1.3573
G2 X14.9051 Y0.4888 I16.0 J15.9
G3 X16.5131 Y1.0532 I10.75 J14.9
G3 X18.1575 Y1.8587 I10.75 J14.9
G1 F300.0 X17.713 Y2.6413
G3 F800.0 X19.3497 Y3.7284 I10.75 J14.9
G3 X19.6118 Y3.9808 I18.3443 J5.0344
G3 X19.8561 Y4.2941 I14.7224 J8.0453
G3 X20.0076 Y4.546 I18.5253 J5.2665
G3 X20.061 Y7.5911 I16.757 J6.1261
G3 X20.6241 Y7.8908 I16.0 J15.9
G3 X23.9552 Y11.1837 I16.0 J15.9
G3 X24.3373 Y11.1879 I24.1142 J14.0937
G2 X20.4349 Y2.8732 I14.241 J10.8534
G3 X20.1099 Y2.537 I21.4454 J1.5712
G3 X20.1752 Y0.0921 I21.7412 J1.3573
G2 X9.6171 Y0.8474 I16.0 J15.9
G3 X16.1673 Y1.8841 I10.75 J14.9
G3 X17.713 Y2.6413 I10.75 J14.9
G0 Z3.0
G0 X11.7242 Y6.2026
G0 Z-3.5
G1 F300.0 Z-5.0
G2 F800.0 X10.5495 Y6.1505 I10.75 J14.9
G3 X11.0647 Y6.5211 I7.914 J10.3575
G3 X11.7242 Y6.2026 I16.0 J15.9
G1 F300.0 X11.9058 Y6.6143
G3 F800.0 X13.4044 Y6.0894 I16.0 J15.9
G2 X8.7426 Y5.9198 I10.75 J14.9
G3 X11.0042 Y7.0666 I7.914 J10.3575
G3 X11.9058 Y6.6143 I16.0 J15.9
G0 Z3.0
G0 X4.691 Y6.6228
G0 Z-3.5
G1 F300.0 Z-5.0
G3 F800.0 X4.3696 Y6.4272 I6.2762 J3.6566
G2 X3.7801 Y7.2009 I16.0 J15.9
G3 X4.691 Y6.6228 I12.509 J19.9466
G1 F300.0 X4.9031 Y6.2259
G3 F800.0 X4.3061 Y5.8027 I6.2762 J3.6566
G2 X2.1061 Y9.1427 I16.0 J15.9
G3 X3.3989 Y8.0323 I12.509 J19.9466
G3 X5.803 Y6.5311 I12.509 J19.9466
G3 X4.9031 Y6.2259 I6.2762 J3.6566
G1 F300.0 X5.3273 Y5.4321
G3 F800.0 X4.3975 Y4.3802 I6.2762 J3.6566
G2 X-0.2274 Y13.9015 I16.0 J15.9
G3 X3.9455 Y8.7472 I12.509 J19.9466
G3 X7.1339 Y6.9133 I12.509 J19.9466
G3 X7.4836 Y6.8125 I7.7623 J8.437
G3 X7.877 Y6.7576 I8.5588 J13.0791
G3 X8.171 Y6.7523 I8.0538 J8.3963
G3 X10.8348 Y8.2286 I7.914 J10.3575
G3 X11.3759 Y7.8908 I16.0 J15.9
G3 X15.8932 Y6.6524 I16.0 J15.9
G3 X16.0879 Y6.3237 I18.4928 J7.9697
G2 X6.9359 Y5.5459 I10.75 J14.9
G3 X6.4823 Y5.6592 I6.3136 J4.0197
G3 X5.3273 Y5.4321 I6.2762 J3.6566
G0 Z3.0
G0 X5.4639 Y14.7542
G0 Z-3.5
G1 F300.0 Z-5.0
G2 F800.0 X4.8314 Y15.7455 I12.509 J19.9466
G3 X5.4099 Y15.4847 I7.157 J20.1314
G3 X5.4639 Y14.7542 I16.0 J15.9
G1 F300.0 X5.9113 Y14.8029
G3 F800.0 X6.2059 Y13.2426 I16.0 J15.9
G2 X3.7282 Y17.195 I12.509 J19.9466
G3 X5.8522 Y15.8098 I7.157 J20.1314
G3 X5.9113 Y14.8029 I16.0 J15.9
G0 Z3.0
G0 X2.3112 Y21.0553
G0 Z-3.5
G1 F300.0 Z-5.0
G3 F800.0 X1.9811 Y21.2358 I0.535 J18.1993
G2 X2.3564 Y22.1332 I16.0 J15.9
G3 X2.3112 Y21.0553 I17.759 J20.9466
G1 F300.0 X2.7611 Y21.0521
G3 F800.0 X2.7878 Y20.0464 I17.759 J20.9466
G3 X1.4085 Y20.9785 I0.535 J18.1993
G2 X3.201 Y24.5538 I16.0 J15.9
G3 X2.8858 Y22.879 I17.759 J20.9466
G3 X2.7611 Y21.0521 I17.759 J20.9466
G1 F300.0 X3.6611 Y21.0458
G3 F800.0 X3.7842 Y19.0849 I17.759 J20.9466
G3 X3.8718 Y18.7317 I5.418 J19.3025
G3 X4.021 Y18.3635 I9.8365 J20.9338
G3 X4.1633 Y18.1063 I5.5285 J19.0298
G3 X6.7738 Y16.5375 I7.157 J20.1314
G3 X6.7518 Y15.9 I16.0 J15.9
G3 X7.938 Y11.3687 I16.0 J15.9
G3 X7.7506 Y11.0357 I10.3786 J9.776
G2 X2.501 Y18.5727 I12.509 J19.9466
G3 X2.3724 Y19.0222 I0.8682 J18.3485
G3 X0.2223 Y20.1881 I0.535 J18.1993
G2 X6.1555 Y28.9541 I16.0 J15.9
G3 X3.7783 Y22.7631 I17.759 J20.9466
G3 X3.6611 Y21.0458 I17.759 J20.9466
G0 Z3.0
G0 X9.7397 Y24.4516
G0 Z-3.5
G1 F300.0 Z-5.0
G2 F800.0 X10.2819 Y25.495 I17.759 J20.9466
G3 X10.3453 Y24.8636 I15.243 J25.6739
G3 X9.7397 Y24.4516 I16.0 J15.9
G1 F300.0 X9.3273 Y24.6318
G2 F800.0 X10.9856 Y27.1752 I17.759 J20.9466
G3 X10.848 Y24.6431 I15.243 J25.6739
G3 X8.8015 Y23.0532 I16.0 J15.9
G2 X9.3273 Y24.6318 I17.759 J20.9466
G0 Z3.0
G0 X13.6202 Y30.3325
G0 Z-3.5
G1 F300.0 Z-5.0
G3 F800.0 X13.6115 Y30.7086 I10.2588 J30.4427
G2 X14.5763 Y30.8323 I16.0 J15.9
G3 X13.6202 Y30.3325 I21.25 J16.9
G1 F300.0 X13.1704 Y30.3473
G3 F800.0 X13.1024 Y31.0758 I10.2588 J30.4427
G2 X17.0949 Y31.3112 I16.0 J15.9
G3 X15.4869 Y30.7468 I21.25 J16.9
G3 X12.9848 Y29.4153 I21.25 J16.9
G3 X13.1704 Y30.3473 I10.2588 J30.4427
G1 F300.0 X12.2709 Y30.3768
G3 F800.0 X11.8248 Y31.7079 I10.2588 J30.4427
G2 X22.3829 Y30.9526 I16.0 J15.9
G3 X15.8327 Y29.9159 I21.25 J16.9
G3 X12.6503 Y28.0716 I21.25 J16.9
G3 X12.3882 Y27.8192 I13.6557 J26.7656
G3 X12.1439 Y27.5059 I17.2776 J23.7547
G3 X11.9924 Y27.254 I13.4747 J26.5335
G3 X11.939 Y24.2089 I15.243 J25.6739
G3 X11.3759 Y23.9092 I16.0 J15.9
G3 X8.0448 Y20.6163 I16.0 J15.9
G3 X7.6627 Y20.6121 I7.8858 J17.7063
G2 X11.5651 Y28.9268 I17.759 J20.9466
G3 X11.8901 Y29.263 I10.5546 J30.2288
G3 X12.2709 Y30.3768 I10.2588 J30.4427
G0 Z3.0
G0 X20.2758 Y25.5974
G0 Z-3.5
G1 F300.0 Z-5.0
G2 F800.0 X21.4505 Y25.6495 I21.25 J16.9
G3 X20.9353 Y25.2789 I24.086 J21.4425
G3 X20.2758 Y25.5974 I16.0 J15.9
G1 F300.0 X20.0942 Y25.1857
G3 F800.0 X18.5956 Y25.7106 I16.0 J15.9
G2 X23.2574 Y25.8802 I21.25 J16.9
G3 X20.9958 Y24.7334 I24.086 J21.4425
G3 X20.0942 Y25.1857 I16.0 J15.9
G0 Z3.0
G0 X27.309 Y25.1772
G0 Z-3.5
G1 F300.0 Z-5.0
G3 F800.0 X27.6304 Y25.3728 I25.7238 J28.1434
G2 X28.2199 Y24.5991 I16.0 J15.9
G3 X27.309 Y25.1772 I19.491 J11.8534
G1 F300.0 X27.0969 Y25.5741
G3 F800.0 X27.6939 Y25.9973 I25.7238 J28.1434
G2 X29.8939 Y22.6573 I16.0 J15.9
G3 X28.6011 Y23.7677 I19.491 J11.8534
G3 X26.197 Y25.2689 I19.491 J11.8534
G3 X27.0969 Y25.5741 I25.7238 J28.1434
G1 F300.0 X26.6727 Y26.3679
G3 F800.0 X27.6025 Y27.4198 I25.7238 J28.1434
G2 X32.2274 Y17.8985 I16.0 J15.9
G3 X28.0545 Y23.0528 I19.491 J11.8534
G3 X24.8661 Y24.8867 I19.491 J11.8534
G3 X24.5164 Y24.9875 I24.2377 J23.363
G3 X24.123 Y25.0424 I23.4412 J18.7209
G3 X23.829 Y25.0477 I23.9462 J23.4037
G3 X21.1652 Y23.5714 I24.086 J21.4425
G3 X20.6241 Y23.9092 I16.0 J15.9
G3 X16.1068 Y25.1476 I16.0 J15.9
G3 X15.9121 Y25.4763 I13.5072 J23.8303
G2 X25.0641 Y26.2541 I21.25 J16.9
G3 X25.5177 Y26.1408 I25.6864 J27.7803
G3 X26.6727 Y26.3679 I25.7238 J28.1434
G0 Z3.0
G0 X28.3152 Y27.9788
G0 Z-3.5
G1 F300.0 Z-5.0
G2 F800.0 X33.25 Y15.9 I16.0 J15.9
G2 X7.375 Y0.9611 I16.0 J15.9
G2 Y30.8389 I16.0 J15.9
G2 X28.3152 Y27.9788 I16.0 J15.9
G0 Z3.0
G0 X26.8366 Y28.0727
G0 Z-4.5
G1 F300.0 Z-6.0
G3 F800.0 X26.4235 Y29.0115 I25.7238 J28.1434
G3 X26.2361 Y29.122 I25.9528 J28.4276
G3 X16.1779 Y29.0866 I21.25 J16.9
G3 X13.1982 Y27.3599 I21.25 J16.9
G3 X13.079 Y27.245 I13.6557 J26.7656
G3 X12.8692 Y26.976 I17.2776 J23.7547
G3 X12.8002 Y26.8613 I13.4747 J26.5335
G3 X13.2799 Y23.7969 I15.243 J25.6739
G2 X13.2782 Y23.7939 I11.118 J25.0453
G3 X11.825 Y23.1313 I16.0 J15.9
G3 X8.5238 Y19.6188 I16.0 J15.9
G3 X7.3056 Y19.6371 I7.8858 J17.7063
G2 X6.8258 Y19.7356 I7.157 J20.1314
G2 X11.0144 Y29.6363 I17.759 J20.9466
G3 X11.1623 Y29.7893 I10.5546 J30.2288
G3 X9.8568 Y31.4828 I10.2588 J30.4427
G3 X9.6674 Y31.3758 I10.1272 J30.7832
G3 X4.669 Y22.6473 I17.759 J20.9466
G3 X4.6746 Y19.2035 I17.759 J20.9466
G3 X4.7144 Y19.0428 I5.418 J19.3025
G3 X4.8425 Y18.7266 I9.8365 J20.9338
G3 X4.9073 Y18.6096 I5.5285 J19.0298
G3 X7.801 Y17.4927 I7.157 J20.1314
G2 X7.8027 Y17.4898 I5.6389 J16.2447
G3 X7.65 Y15.9 I16.0 J15.9
G3 X9.0413 Y11.2849 I16.0 J15.9
G3 X8.4163 Y10.239 I10.3786 J9.776
G2 X8.0912 Y9.8727 I7.914 J10.3575
G2 X1.6112 Y18.4505 I12.509 J19.9466
G3 X1.5527 Y18.6551 I0.8682 J18.3485
G3 X-0.5667 Y18.3712 I0.535 J18.1993
G3 X-0.5687 Y18.1537 I0.1744 J18.2556
G3 X4.4911 Y9.4607 I12.509 J19.9466
G3 X7.4764 Y7.7436 I12.509 J19.9466
G3 X7.6355 Y7.6978 I7.7623 J8.437
G3 X7.9734 Y7.6506 I8.5588 J13.0791
G3 X8.1071 Y7.6482 I8.0538 J8.3963
G3 X10.5212 Y9.5959 I7.914 J10.3575
G2 X10.5246 I10.5209 J7.0994
G3 X11.825 Y8.6687 I16.0 J15.9
G3 X16.5175 Y7.5661 I16.0 J15.9
G3 X17.1108 Y6.5018 I18.4928 J7.9697
G2 X17.2654 Y6.0372 I16.757 J6.1261
G2 X6.5968 Y4.7142 I10.75 J14.9
G3 X6.3904 Y4.7658 I6.3136 J4.0197
G3 X5.5765 Y2.7885 I6.2762 J3.6566
G3 X5.7639 Y2.678 I6.0472 J3.3724
G3 X15.8221 Y2.7134 I10.75 J14.9
G3 X18.8018 Y4.4401 I10.75 J14.9
G3 X18.921 Y4.555 I18.3443 J5.0344
G3 X19.1308 Y4.824 I14.7224 J8.0453
G3 X19.1998 Y4.9387 I18.5253 J5.2665
G3 X18.7201 Y8.0031 I16.757 J6.1261
G2 X18.7218 Y8.0061 I20.882 J6.7547
G3 X20.175 Y8.6687 I16.0 J15.9
G3 X23.4762 Y12.1812 I16.0 J15.9
G3 X24.6944 Y12.1629 I24.1142 J14.0937
G2 X25.1742 Y12.0644 I24.843 J11.6686
G2 X20.9856 Y2.1637 I14.241 J10.8534
G3 X20.8377 Y2.0107 I21.4454 J1.5712
G3 X22.1432 Y0.3172 I21.7412 J1.3573
G3 X22.3326 Y0.4242 I21.8728 J1.0168
G3 X27.331 Y9.1527 I14.241 J10.8534
G3 X27.3254 Y12.5965 I14.241 J10.8534
G3 X27.2856 Y12.7572 I26.582 J12.4975
G3 X27.1575 Y13.0734 I22.1635 J10.8662
G3 X27.0927 Y13.1904 I26.4715 J12.7702
G3 X24.199 Y14.3073 I24.843 J11.6686
G2 X24.1973 Y14.3102 I26.3611 J15.5553
G3 X24.35 Y15.9 I16.0 J15.9
G3 X22.9587 Y20.5151 I16.0 J15.9
G3 X23.5837 Y21.561 I21.6214 J22.024
G2 X23.9088 Y21.9273 I24.086 J21.4425
G2 X30.3888 Y13.3495 I19.491 J11.8534
G3 X30.4473 Y13.1449 I31.1318 J13.4515
G3 X32.5667 Y13.4288 I31.465 J13.6007
G3 X32.5687 Y13.6463 I31.8256 J13.5444
G3 X27.5089 Y22.3393 I19.491 J11.8534
G3 X24.5236 Y24.0564 I19.491 J11.8534
G3 X24.3645 Y24.1022 I24.2377 J23.363
G3 X24.0266 Y24.1494 I23.4412 J18.7209
G3 X23.8929 Y24.1518 I23.9462 J23.4037
G3 X21.4788 Y22.2041 I24.086 J21.4425
G2 X21.4754 I21.4791 J24.7006
G3 X20.175 Y23.1313 I16.0 J15.9
G3 X15.4825 Y24.2339 I16.0 J15.9
G3 X14.8892 Y25.2982 I13.5072 J23.8303
G2 X14.7346 Y25.7628 I15.243 J25.6739
G2 X25.4032 Y27.0858 I21.25 J16.9
G3 X25.6096 Y27.0342 I25.6864 J27.7803
G3 X26.8366 Y28.0727 I25.7238 J28.1434
G0 Z3.0
G0 X27.6304 Y25.3728
G0 Z-4.5
G1 F300.0 Z-6.0
G2 F800.0 X28.2199 Y24.5991 I16.0 J15.9
G3 X27.309 Y25.1772 I19.491 J11.8534
G3 X27.6304 Y25.3728 I25.7238 J28.1434
G1 F300.0 X27.9793 Y25.657
G2 F800.0 X29.8939 Y22.6573 I16.0 J15.9
G3 X28.6011 Y23.7677 I19.491 J11.8534
G3 X26.197 Y25.2689 I19.491 J11.8534
G3 X27.6939 Y25.9973 I25.7238 J28.1434
G2 X27.9793 Y25.657 I16.0 J15.9
G0 Z3.0
G0 X21.4505 Y25.6495
G0 Z-4.5
G1 F300.0 Z-6.0
G3 F800.0 X20.9353 Y25.2789 I24.086 J21.4425
G3 X20.2758 Y25.5974 I16.0 J15.9
G2 X21.4505 Y25.6495 I21.25 J16.9
G1 F300.0 X21.4608 Y26.0994
G2 F800.0 X23.2574 Y25.8802 I21.25 J16.9
G3 X20.9958 Y24.7334 I24.086 J21.4425
G3 X18.5956 Y25.7106 I16.0 J15.9
G2 X21.4608 Y26.0994 I21.25 J16.9
G1 F300.0 X21.4814 Y26.9991
G2 F800.0 X25.0641 Y26.2541 I21.25 J16.9
G3 X25.5177 Y26.1408 I25.6864 J27.7803
G3 X27.6025 Y27.4198 I25.7238 J28.1434
G2 X32.2274 Y17.8985 I16.0 J15.9
G3 X28.0545 Y23.0528 I19.491 J11.8534
G3 X24.8661 Y24.8867 I19.491 J11.8534
G3 X24.5164 Y24.9875 I24.2377 J23.363
G3 X24.123 Y25.0424 I23.4412 J18.7209
G3 X23.829 Y25.0477 I23.9462 J23.4037
G3 X21.1652 Y23.5714 I24.086 J21.4425
G3 X20.6241 Y23.9092 I16.0 J15.9
G3 X16.1068 Y25.1476 I16.0 J15.9
G3 X15.9121 Y25.4763 I13.5072 J23.8303
G2 X21.4814 Y26.9991 I21.25 J16.9
G0 Z3.0
G0 X14.5763 Y30.8323
G0 Z-4.5
G1 F300.0 Z-6.0
G3 F800.0 X13.6202 Y30.3325 I21.25 J16.9
G3 X13.6115 Y30.7086 I10.2588 J30.4427
G2 X14.5763 Y30.8323 I16.0 J15.9
G1 F300.0 X14.7707 Y30.4264
G3 F800.0 X12.9848 Y29.4153 I21.25 J16.9
G3 X13.1024 Y31.0758 I10.2588 J30.4427
G2 X17.0949 Y31.3112 I16.0 J15.9
G3 X15.4869 Y30.7468 I21.25 J16.9
G3 X14.7707 Y30.4264 I21.25 J16.9
G0 Z3.0
G0 X10.2819 Y25.495
G0 Z-4.5
G1 F300.0 Z-6.0
G3 F800.0 X10.3453 Y24.8636 I15.243 J25.6739
G3 X9.7397 Y24.4516 I16.0 J15.9
G2 X10.2819 Y25.495 I17.759 J20.9466
G1 F300.0 X10.7316 Y25.5112
G3 F800.0 X10.848 Y24.6431 I15.243 J25.6739
G3 X8.8015 Y23.0532 I16.0 J15.9
G2 X10.9856 Y27.1752 I17.759 J20.9466
G3 X10.7316 Y25.5112 I15.243 J25.6739
G1 F300.0 X11.631 Y25.5437
G3 F800.0 X11.939 Y24.2089 I15.243 J25.6739
G3 X11.3759 Y23.9092 I16.0 J15.9
G3 X8.0448 Y20.6163 I16.0 J15.9
G3 X7.6627 Y20.6121 I7.8858 J17.7063
G2 X11.5651 Y28.9268 I17.759 J20.9466
G3 X11.8901 Y29.263 I10.5546 J30.2288
G3 X11.8248 Y31.7079 I10.2588 J30.4427
G2 X22.3829 Y30.9526 I16.0 J15.9
G3 X15.8327 Y29.9159 I21.25 J16.9
G3 X12.6503 Y28.0716 I21.25 J16.9
G3 X12.3882 Y27.8192 I13.6557 J26.7656
G3 X12.1439 Y27.5059 I17.2776 J23.7547
G3 X11.9924 Y27.254 I13.4747 J26.5335
G3 X11.631 Y25.5437 I15.243 J25.6739
G0 Z3.0
G0 X2.3564 Y22.1332
G0 Z-4.5
G1 F300.0 Z-6.0
G3 F800.0 X2.3112 Y21.0553 I17.759 J20.9466
G3 X1.9811 Y21.2358 I0.535 J18.1993
G2 X2.3564 Y22.1332 I16.0 J15.9
G1 F300.0 X2.8051 Y22.0986
G3 F800.0 X2.7878 Y20.0464 I17.759 J20.9466
G3 X1.4085 Y20.9785 I0.535 J18.1993
G2 X3.201 Y24.5538 I16.0 J15.9
G3 X2.8858 Y22.879 I17.759 J20.9466
G3 X2.8051 Y22.0986 I17.759 J20.9466
G0 Z3.0
G0 X4.8314 Y15.7455
G0 Z-4.5
G1 F300.0 Z-6.0
G3 F800.0 X5.4099 Y15.4847 I7.157 J20.1314
G3 X5.4639 Y14.7542 I16.0 J15.9
G2 X4.8314 Y15.7455 I12.509 J19.9466
G1 F300.0 X5.0422 Y16.1431
G3 F800.0 X5.8522 Y15.8098 I7.157 J20.1314
G3 X6.2059 Y13.2426 I16.0 J15.9
G2 X3.7282 Y17.195 I12.509 J19.9466
G3 X5.0422 Y16.1431 I7.157 J20.1314
G1 F300.0 X5.4639 Y16.9382
G3 F800.0 X6.7738 Y16.5375 I7.157 J20.1314
G3 X6.7518 Y15.9 I16.0 J15.9
G3 X7.938 Y11.3687 I16.0 J15.9
G3 X7.7506 Y11.0357 I10.3786 J9.776
G2 X2.501 Y18.5727 I12.509 J19.9466
G3 X2.3724 Y19.0222 I0.8682 J18.3485
G3 X0.2223 Y20.1881 I0.535 J18.1993
G2 X6.1555 Y28.9541 I16.0 J15.9
G3 X3.7783 Y22.7631 I17.759 J20.9466
G3 X3.7842 Y19.0849 I17.759 J20.9466
G3 X3.8718 Y18.7317 I5.418 J19.3025
G3 X4.021 Y18.3635 I9.8365 J20.9338
G3 X4.1633 Y18.1063 I5.5285 J19.0298
G3 X5.4639 Y16.9382 I7.157 J20.1314
G0 Z3.0
G0 X3.7801 Y7.2009
G0 Z-4.5
G1 F300.0 Z-6.0
G3 F800.0 X4.691 Y6.6228 I12.509 J19.9466
G3 X4.3696 Y6.4272 I6.2762 J3.6566
G2 X3.7801 Y7.2009 I16.0 J15.9
G1 F300.0 X3.4135 Y6.9399
G2 F800.0 X2.1061 Y9.1427 I16.0 J15.9
G3 X3.3989 Y8.0323 I12.509 J19.9466
G3 X5.803 Y6.5311 I12.509 J19.9466
G3 X4.3061 Y5.8027 I6.2762 J3.6566
G2 X3.4135 Y6.9399 I16.0 J15.9
G0 Z3.0
G0 X10.5495 Y6.1505
G0 Z-4.5
G1 F300.0 Z-6.0
G3 F800.0 X11.0647 Y6.5211 I7.914 J10.3575
G3 X11.7242 Y6.2026 I16.0 J15.9
G2 X10.5495 Y6.1505 I10.75 J14.9
G1 F300.0 X10.5392 Y5.7006
G2 F800.0 X8.7426 Y5.9198 I10.75 J14.9
G3 X11.0042 Y7.0666 I7.914 J10.3575
G3 X13.4044 Y6.0894 I16.0 J15.9
G2 X10.5392 Y5.7006 I10.75 J14.9
G1 F300.0 X10.5186 Y4.8009
G2 F800.0 X6.9359 Y5.5459 I10.75 J14.9
G3 X6.4823 Y5.6592 I6.3136 J4.0197
G3 X4.3975 Y4.3802 I6.2762 J3.6566
G2 X-0.2274 Y13.9015 I16.0 J15.9
G3 X3.9455 Y8.7472 I12.509 J19.9466
G3 X7.1339 Y6.9133 I12.509 J19.9466
G3 X7.4836 Y6.8125 I7.7623 J8.437
G3 X7.877 Y6.7576 I8.5588 J13.0791
G3 X8.171 Y6.7523 I8.0538 J8.3963
G3 X10.8348 Y8.2286 I7.914 J10.3575
G3 X11.3759 Y7.8908 I16.0 J15.9
G3 X15.8932 Y6.6524 I16.0 J15.9
G3 X16.0879 Y6.3237 I18.4928 J7.9697
G2 X10.5186 Y4.8009 I10.75 J14.9
G0 Z3.0
G0 X17.4237 Y0.9677
G0 Z-4.5
G1 F300.0 Z-6.0
G3 F800.0 X18.3798 Y1.4675 I10.75 J14.9
G3 X18.3885 Y1.0914 I21.7412 J1.3573
G2 X17.4237 Y0.9677 I16.0 J15.9
G1 F300.0 X17.2293 Y1.3736
G3 F800.0 X19.0152 Y2.3847 I10.75 J14.9
G3 X18.8976 Y0.7242 I21.7412 J1.3573
G2 X14.9051 Y0.4888 I16.0 J15.9
G3 X16.5131 Y1.0532 I10.75 J14.9
G3 X17.2293 Y1.3736 I10.75 J14.9
G0 Z3.0
G0 X21.7181 Y6.305
G0 Z-4.5
G1 F300.0 Z-6.0
G3 F800.0 X21.6547 Y6.9364 I16.757 J6.1261
G3 X22.2603 Y7.3484 I16.0 J15.9
G2 X21.7181 Y6.305 I14.241 J10.8534
G1 F300.0 X21.2684 Y6.2888
G3 F800.0 X21.152 Y7.1569 I16.757 J6.1261
G3 X23.1985 Y8.7468 I16.0 J15.9
G2 X21.0144 Y4.6248 I14.241 J10.8534
G3 X21.2684 Y6.2888 I16.757 J6.1261
G1 F300.0 X20.369 Y6.2563
G3 F800.0 X20.061 Y7.5911 I16.757 J6.1261
G3 X20.6241 Y7.8908 I16.0 J15.9
G3 X23.9552 Y11.1837 I16.0 J15.9
G3 X24.3373 Y11.1879 I24.1142 J14.0937
G2 X20.4349 Y2.8732 I14.241 J10.8534
G3 X20.1099 Y2.537 I21.4454 J1.5712
G3 X20.1752 Y0.0921 I21.7412 J1.3573
G2 X9.6171 Y0.8474 I16.0 J15.9
G3 X16.1673 Y1.8841 I10.75 J14.9
G3 X19.3497 Y3.7284 I10.75 J14.9
G3 X19.6118 Y3.9808 I18.3443 J5.0344
G3 X19.8561 Y4.2941 I14.7224 J8.0453
G3 X20.0076 Y4.546 I18.5253 J5.2665
G3 X20.369 Y6.2563 I16.757 J6.1261
G0 Z3.0
G0 X29.6436 Y9.6668
G0 Z-4.5
G1 F300.0 Z-6.0
G3 F800.0 X29.6888 Y10.7447 I14.241 J10.8534
G3 X30.0189 Y10.5642 I31.465 J13.6007
G2 X29.6436 Y9.6668 I16.0 J15.9
G1 F300.0 X30.0529 Y9.4798
G2 F800.0 X28.799 Y7.2462 I16.0 J15.9
G3 X29.1142 Y8.921 I14.241 J10.8534
G3 X29.2122 Y11.7536 I14.241 J10.8534
G3 X30.5915 Y10.8215 I31.465 J13.6007
G2 X30.0529 Y9.4798 I16.0 J15.9
G0 Z3.0
G0 X27.1686 Y16.0545
G0 Z-4.5
G1 F300.0 Z-6.0
G3 F800.0 X26.5901 Y16.3153 I24.843 J11.6686
G3 X26.5361 Y17.0458 I16.0 J15.9
G2 X27.1686 Y16.0545 I19.491 J11.8534
G1 F300.0 X26.9578 Y15.6569
G3 F800.0 X26.1478 Y15.9902 I24.843 J11.6686
G3 X25.7941 Y18.5574 I16.0 J15.9
G2 X28.2718 Y14.605 I19.491 J11.8534
G3 X26.9578 Y15.6569 I24.843 J11.6686
G1 F300.0 X26.5361 Y14.8618
G3 F800.0 X25.2262 Y15.2625 I24.843 J11.6686
G3 X25.2482 Y15.9 I16.0 J15.9
G3 X24.062 Y20.4313 I16.0 J15.9
G3 X24.2494 Y20.7643 I21.6214 J22.024
G2 X29.499 Y13.2273 I19.491 J11.8534
G3 X29.6276 Y12.7778 I31.1318 J13.4515
G3 X31.7777 Y11.6119 I31.465 J13.6007
G2 X25.8445 Y2.8459 I16.0 J15.9
G3 X28.2217 Y9.0369 I14.241 J10.8534
G3 X28.2158 Y12.7151 I14.241 J10.8534
G3 X28.1282 Y13.0683 I26.582 J12.4975
G3 X27.979 Y13.4365 I22.1635 J10.8662
G3 X27.8367 Y13.6937 I26.4715 J12.7702
G3 X26.5361 Y14.8618 I24.843 J11.6686
G0 Z3.0
G0 X33.1669 Y14.2084
G0 Z-4.5
G1 F300.0 Z-6.0
G2 F800.0 X7.375 Y0.9611 I16.0 J15.9
G2 Y30.8389 I16.0 J15.9
G2 X33.25 Y15.9 I16.0 J15.9
G2 X33.1669 Y14.2084 I16.0 J15.9
G1 F300.0 X32.4996 Y14.0935
G1 Z-7.0
G3 F800.0 X27.5089 Y22.3393 I19.491 J11.8534
G3 X24.5236 Y24.0564 I19.491 J11.8534
G3 X24.3645 Y24.1022 I24.2377 J23.363
G3 X24.0266 Y24.1494 I23.4412 J18.7209
G3 X23.8929 Y24.1518 I23.9462 J23.4037
G3 X21.4788 Y22.2041 I24.086 J21.4425
G2 X21.4754 I21.4791 J24.7006
G3 X20.175 Y23.1313 I16.0 J15.9
G3 X15.4825 Y24.2339 I16.0 J15.9
G3 X14.8892 Y25.2982 I13.5072 J23.8303
G2 X14.7346 Y25.7628 I15.243 J25.6739
G2 X25.4032 Y27.0858 I21.25 J16.9
G3 X25.6096 Y27.0342 I25.6864 J27.7803
G3 X26.4235 Y29.0115 I25.7238 J28.1434
G3 X26.2361 Y29.122 I25.9528 J28.4276
G3 X16.1779 Y29.0866 I21.25 J16.9
G3 X13.1982 Y27.3599 I21.25 J16.9
G3 X13.079 Y27.245 I13.6557 J26.7656
G3 X12.8692 Y26.976 I17.2776 J23.7547
G3 X12.8002 Y26.8613 I13.4747 J26.5335
G3 X13.2799 Y23.7969 I15.243 J25.6739
G2 X13.2782 Y23.7939 I11.118 J25.0453
G3 X11.825 Y23.1313 I16.0 J15.9
G3 X8.5238 Y19.6188 I16.0 J15.9
G3 X7.3056 Y19.6371 I7.8858 J17.7063
G2 X6.8258 Y19.7356 I7.157 J20.1314
G2 X11.0144 Y29.6363 I17.759 J20.9466
G3 X11.1623 Y29.7893 I10.5546 J30.2288
G3 X9.8568 Y31.4828 I10.2588 J30.4427
G3 X9.6674 Y31.3758 I10.1272 J30.7832
G3 X4.669 Y22.6473 I17.759 J20.9466
G3 X4.6746 Y19.2035 I17.759 J20.9466
G3 X4.7144 Y19.0428 I5.418 J19.3025
G3 X4.8425 Y18.7266 I9.8365 J20.9338
G3 X4.9073 Y18.6096 I5.5285 J19.0298
G3 X7.801 Y17.4927 I7.157 J20.1314
G2 X7.8027 Y17.4898 I5.6389 J16.2447
G3 X7.65 Y15.9 I16.0 J15.9
G3 X9.0413 Y11.2849 I16.0 J15.9
G3 X8.4163 Y10.239 I10.3786 J9.776
G2 X8.0912 Y9.8727 I7.914 J10.3575
G2 X1.6112 Y18.4505 I12.509 J19.9466
G3 X1.5527 Y18.6551 I0.8682 J18.3485
G3 X-0.5667 Y18.3712 I0.535 J18.1993
G3 X-0.5687 Y18.1537 I0.1744 J18.2556
G3 X4.4911 Y9.4607 I12.509 J19.9466
G3 X7.4764 Y7.7436 I12.509 J19.9466
G3 X7.6355 Y7.6978 I7.7623 J8.437
G3 X7.9734 Y7.6506 I8.5588 J13.0791
G3 X8.1071 Y7.6482 I8.0538 J8.3963
G3 X10.5212 Y9.5959 I7.914 J10.3575
G2 X10.5246 I10.5209 J7.0994
G3 X11.825 Y8.6687 I16.0 J15.9
G3 X16.5175 Y7.5661 I16.0 J15.9
G3 X17.1108 Y6.5018 I18.4928 J7.9697
G2 X17.2654 Y6.0372 I16.757 J6.1261
G2 X6.5968 Y4.7142 I10.75 J14.9
G3 X6.3904 Y4.7658 I6.3136 J4.0197
G3 X5.5765 Y2.7885 I6.2762 J3.6566
G3 X5.7639 Y2.678 I6.0472 J3.3724
G3 X15.8221 Y2.7134 I10.75 J14.9
G3 X18.8018 Y4.4401 I10.75 J14.9
G3 X18.921 Y4.555 I18.3443 J5.0344
G3 X19.1308 Y4.824 I14.7224 J8.0453
G3 X19.1998 Y4.9387 I18.5253 J5.2665
G3 X18.7201 Y8.0031 I16.757 J6.1261
G2 X18.7218 Y8.0061 I20.882 J6.7547
G3 X20.175 Y8.6687 I16.0 J15.9
G3 X23.4762 Y12.1812 I16.0 J15.9
G3 X24.6944 Y12.1629 I24.1142 J14.0937
G2 X25.1742 Y12.0644 I24.843 J11.6686
G2 X20.9856 Y2.1637 I14.241 J10.8534
G3 X20.8377 Y2.0107 I21.4454 J1.5712
G3 X22.1432 Y0.3172 I21.7412 J1.3573
G3 X22.3326 Y0.4242 I21.8728 J1.0168
G3 X27.331 Y9.1527 I14.241 J10.8534
G3 X27.3254 Y12.5965 I14.241 J10.8534
G3 X27.2856 Y12.7572 I26.582 J12.4975
G3 X27.1575 Y13.0734 I22.1635 J10.8662
G3 X27.0927 Y13.1904 I26.4715 J12.7702
G3 X24.199 Y14.3073 I24.843 J11.6686
G2 X24.1973 Y14.3102 I26.3611 J15.5553
G3 X24.35 Y15.9 I16.0 J15.9
G3 X22.9587 Y20.5151 I16.0 J15.9
G3 X23.5837 Y21.561 I21.6214 J22.024
G2 X23.9088 Y21.9273 I24.086 J21.4425
G2 X30.3888 Y13.3495 I19.491 J11.8534
G3 X30.4473 Y13.1449 I31.1318 J13.4515
G3 X32.5667 Y13.4288 I31.465 J13.6007
G3 X32.5687 Y13.6463 I31.8256 J13.5444
G3 X32.4996 Y14.0935 I19.491 J11.8534
G0 Z3.0
G0 X30.0189 Y10.5642
G0 Z-5.5
G1 F300.0 Z-7.0
G2 F800.0 X29.6436 Y9.6668 I16.0 J15.9
G3 X29.6888 Y10.7447 I14.241 J10.8534
G3 X30.0189 Y10.5642 I31.465 J13.6007
G1 F300.0 X30.4395 Y10.4041
G2 F800.0 X28.799 Y7.2462 I16.0 J15.9
G3 X29.1142 Y8.921 I14.241 J10.8534
G3 X29.2122 Y11.7536 I14.241 J10.8534
G3 X30.5915 Y10.8215 I31.465 J13.6007
G2 X30.4395 Y10.4041 I16.0 J15.9
G0 Z3.0
G0 X27.1686 Y16.0545
G0 Z-5.5
G1 F300.0 Z-7.0
G3 F800.0 X26.5901 Y16.3153 I24.843 J11.6686
G3 X26.5361 Y17.0458 I16.0 J15.9
G2 X27.1686 Y16.0545 I19.491 J11.8534
G1 F300.0 X26.9578 Y15.6569
G3 F800.0 X26.1478 Y15.9902 I24.843 J11.6686
G3 X25.7941 Y18.5574 I16.0 J15.9
G2 X28.2718 Y14.605 I19.491 J11.8534
G3 X26.9578 Y15.6569 I24.843 J11.6686
G1 F300.0 X26.5361 Y14.8618
G3 F800.0 X25.2262 Y15.2625 I24.843 J11.6686
G3 X25.2482 Y15.9 I16.0 J15.9
G3 X24.062 Y20.4313 I16.0 J15.9
G3 X24.2494 Y20.7643 I21.6214 J22.024
G2 X29.499 Y13.2273 I19.491 J11.8534
G3 X29.6276 Y12.7778 I31.1318 J13.4515
G3 X31.7777 Y11.6119 I31.465 J13.6007
G2 X25.8445 Y2.8459 I16.0 J15.9
G3 X28.2217 Y9.0369 I14.241 J10.8534
G3 X28.2158 Y12.7151 I14.241 J10.8534
G3 X28.1282 Y13.0683 I26.582 J12.4975
G3 X27.979 Y13.4365 I22.1635 J10.8662
G3 X27.8367 Y13.6937 I26.4715 J12.7702
G3 X26.5361 Y14.8618 I24.843 J11.6686
G0 Z3.0
G0 X22.2603 Y7.3484
G0 Z-5.5
G1 F300.0 Z-7.0
G2 F800.0 X21.7181 Y6.305 I14.241 J10.8534
G3 X21.6547 Y6.9364 I16.757 J6.1261
G3 X22.2603 Y7.3484 I16.0 J15.9
G1 F300.0 X21.9945 Y7.7115
G3 F800.0 X23.1985 Y8.7468 I16.0 J15.9
G2 X21.0144 Y4.6248 I14.241 J10.8534
G3 X21.152 Y7.1569 I16.757 J6.1261
G3 X21.9945 Y7.7115 I16.0 J15.9
G0 Z3.0
G0 X18.3798 Y1.4675
G0 Z-5.5
G1 F300.0 Z-7.0
G3 F800.0 X18.3885 Y1.0914 I21.7412 J1.3573
G2 X17.4237 Y0.9677 I16.0 J15.9
G3 X18.3798 Y1.4675 I10.75 J14.9
G1 F300.0 X18.1575 Y1.8587
G3 F800.0 X19.0152 Y2.3847 I10.75 J14.9
G3 X18.8976 Y0.7242 I21.7412 J1.3573
G2 X14.9051 Y0.4888 I16.0 J15.9
G3 X16.5131 Y1.0532 I10.75 J14.9
G3 X18.1575 Y1.8587 I10.75 J14.9
G1 F300.0 X17.713 Y2.6413
G3 F800.0 X19.3497 Y3.7284 I10.75 J14.9
G3 X19.6118 Y3.9808 I18.3443 J5.0344
G3 X19.8561 Y4.2941 I14.7224 J8.0453
G3 X20.0076 Y4.546 I18.5253 J5.2665
G3 X20.061 Y7.5911 I16.757 J6.1261
G3 X20.6241 Y7.8908 I16.0 J15.9
G3 X23.9552 Y11.1837 I16.0 J15.9
G3 X24.3373 Y11.1879 I24.1142 J14.0937
G2 X20.4349 Y2.8732 I14.241 J10.8534
G3 X20.1099 Y2.537 I21.4454 J1.5712
G3 X20.1752 Y0.0921 I21.7412 J1.3573
G2 X9.6171 Y0.8474 I16.0 J15.9
G3 X16.1673 Y1.8841 I10.75 J14.9
G3 X17.713 Y2.6413 I10.75 J14.9
G0 Z3.0
G0 X11.7242 Y6.2026
G0 Z-5.5
G1 F300.0 Z-7.0
G2 F800.0 X10.5495 Y6.1505 I10.75 J14.9
G3 X11.0647 Y6.5211 I7.914 J10.3575
G3 X11.7242 Y6.2026 I16.0 J15.9
G1 F300.0 X11.9058 Y6.6143
G3 F800.0 X13.4044 Y6.0894 I16.0 J15.9
G2 X8.7426 Y5.9198 I10.75 J14.9
G3 X11.0042 Y7.0666 I7.914 J10.3575
G3 X11.9058 Y6.6143 I16.0 J15.9
G0 Z3.0
G0 X4.691 Y6.6228
G0 Z-5.5
G1 F300.0 Z-7.0
G3 F800.0 X4.3696 Y6.4272 I6.2762 J3.6566
G2 X3.7801 Y7.2009 I16.0 J15.9
G3 X4.691 Y6.6228 I12.509 J19.9466
G1 F300.0 X4.9031 Y6.2259
G3 F800.0 X4.3061 Y5.8027 I6.2762 J3.6566
G2 X2.1061 Y9.1427 I16.0 J15.9
G3 X3.3989 Y8.0323 I12.509 J19.9466
G3 X5.803 Y6.5311 I12.509 J19.9466
G3 X4.9031 Y6.2259 I6.2762 J3.6566
G1 F300.0 X5.3273 Y5.4321
G3 F800.0 X4.3975 Y4.3802 I6.2762 J3.6566
G2 X-0.2274 Y13.9015 I16.0 J15.9
G3 X3.9455 Y8.7472 I12.509 J19.9466
G3 X7.1339 Y6.9133 I12.509 J19.9466
G3 X7.4836 Y6.8125 I7.7623 J8.437
G3 X7.877 Y6.7576 I8.5588 J13.0791
G3 X8.171 Y6.7523 I8.0538 J8.3963
G3 X10.8348 Y8.2286 I7.914 J10.3575
G3 X11.3759 Y7.8908 I16.0 J15.9
G3 X15.8932 Y6.6524 I16.0 J15.9
G3 X16.0879 Y6.3237 I18.4928 J7.9697
G2 X6.9359 Y5.5459 I10.75 J14.9
G3 X6.4823 Y5.6592 I6.3136 J4.0197
G3 X5.3273 Y5.4321 I6.2762 J3.6566
G0 Z3.0
G0 X5.4639 Y14.7542
G0 Z-5.5
G1 F300.0 Z-7.0
G2 F800.0 X4.8314 Y15.7455 I12.509 J19.9466
G3 X5.4099 Y15.4847 I7.157 J20.1314
G3 X5.4639 Y14.7542 I16.0 J15.9
