( Made using CamBam - http://www.cambam.co.uk )
( Impeller_5-rev 12/16/2016 4:05:13 PM )
( T4 : 1.5 )
G21 G90 G64 G40
G0 Z3.0
( T4 : 1.5 )
T4 M6
( Avant Trou )
G17
M3
G0 X21.65 Y15.9
G0 Z0.5
G1 F300.0 Z-1.5
G2 F800.0 X13.175 Y11.007 I16.0 J15.9
G2 Y20.793 I16.0 J15.9
G2 X21.65 Y15.9 I16.0 J15.9
G1 F300.0 Z-3.0
G2 F800.0 X13.175 Y11.007 I16.0 J15.9
G2 Y20.793 I16.0 J15.9
G2 X21.65 Y15.9 I16.0 J15.9
G1 F300.0 Z-4.5
G2 F800.0 X13.175 Y11.007 I16.0 J15.9
G2 Y20.793 I16.0 J15.9
G2 X21.65 Y15.9 I16.0 J15.9
G1 F300.0 Z-6.0
G2 F800.0 X13.175 Y11.007 I16.0 J15.9
G2 Y20.793 I16.0 J15.9
G2 X21.65 Y15.9 I16.0 J15.9
G1 F300.0 Z-7.5
G2 F800.0 X13.175 Y11.007 I16.0 J15.9
G2 Y20.793 I16.0 J15.9
G2 X21.65 Y15.9 I16.0 J15.9
G1 F300.0 Z-9.0
G2 F800.0 X13.175 Y11.007 I16.0 J15.9
G2 Y20.793 I16.0 J15.9
G2 X21.65 Y15.9 I16.0 J15.9
( BAs )
G0 Z3.0
G0 X5.511 Y28.1525
G0 Z0.5
G1 F300.0 Z-1.0
G3 F800.0 X4.5656 Y27.9806 I8.2816 J10.2239
G3 X4.1904 Y27.7784 I4.7192 J27.2465
G3 X3.791 Y27.3675 I16.0 J15.9
G3 X3.4102 Y26.948 I16.0 J15.9
G3 X4.1663 Y25.7284 I3.9739 J26.4533
G2 X4.58 Y25.8324 I8.2816 J10.2239
G2 X5.9118 Y26.0893 I8.2816 J10.2239
G2 X2.9219 Y25.8254 I4.3377 J26.854
G2 X4.1548 Y28.5945 I4.3377 J26.854
G2 X5.511 Y28.1525 I4.3377 J26.854
G0 Z3.0
G0 X11.9341 Y25.844
G0 Z0.5
G1 F300.0 Z-1.0
G2 F800.0 X12.8004 Y25.6157 I8.2816 J10.2239
G3 X12.8153 Y25.6115 I13.0117 J26.3353
G3 X14.1733 Y26.0925 I13.1468 J26.8331
G3 X14.2697 Y26.2744 I13.5651 J26.5313
G3 X13.6681 Y27.5467 I13.3403 J26.6133
G3 X13.6412 Y27.5556 I13.4196 J26.839
G3 X12.5014 Y27.8677 I8.2816 J10.2239
G2 X13.3822 Y28.2186 I13.5651 J26.4782
G2 X15.1638 Y25.7664 I13.5651 J26.4782
G2 X12.1494 Y25.4495 I13.5651 J26.4782
G2 X11.9341 Y25.844 I13.5651 J26.4782
G0 Z3.0
G0 X14.716 Y31.9778
G0 Z0.5
G1 F300.0 Z-1.0
G3 F800.0 X13.8502 Y32.3944 I6.4194 J15.8447
G3 X13.4278 Y32.4513 I13.543 J31.7102
G3 X12.8632 Y32.3537 I16.0 J15.9
G3 X12.3085 Y32.2382 I16.0 J15.9
G3 X12.2034 Y30.807 I12.4738 J31.5066
G2 X12.5991 Y30.648 I6.4194 J15.8447
G2 X13.8276 Y30.073 I6.4194 J15.8447
G2 X11.2536 Y31.6169 I13.0036 J31.6169
G2 X13.8786 Y33.1325 I13.0036 J31.6169
G2 X14.716 Y31.9778 I13.0036 J31.6169
G0 Z3.0
G0 X18.5555 Y26.3347
G0 Z0.5
G1 F300.0 Z-1.0
G2 F800.0 X19.1222 Y25.6408 I6.4194 J15.8447
G3 X19.1318 Y25.6287 I19.7161 J26.0988
G3 X20.5132 Y25.2196 I20.118 J26.4222
G3 X20.6981 Y25.3101 I20.2791 J25.9321
G3 X20.9592 Y26.693 I20.1454 J26.1306
G3 X20.9426 Y26.716 I20.3422 J26.2666
G3 X20.204 Y27.6385 I6.4194 J15.8447
G2 X21.1228 Y27.4046 I20.2478 J25.8891
G2 Y24.3735 I20.2478 J25.8891
G2 X18.4978 Y25.8891 I20.2478 J25.8891
G2 X18.5555 Y26.3347 I20.2478 J25.8891
G0 Z3.0
G0 X24.4115 Y29.6619
G0 Z0.5
G1 F300.0 Z-1.0
G3 F800.0 X23.9559 Y30.5079 I8.2166 J21.4866
G3 X23.6477 Y30.8022 I23.3053 J30.1349
G3 X23.1335 Y31.0551 I16.0 J15.9
G3 X22.6168 Y31.2877 I16.0 J15.9
G3 X21.6906 Y30.1917 I22.3206 J30.5987
G2 X21.9173 Y29.8303 I8.2166 J21.4866
G2 X22.5732 Y28.6431 I8.2166 J21.4866
G2 X21.3983 Y31.4051 I22.8141 J30.3765
G2 X24.4128 Y31.0883 I22.8141 J30.3765
G2 X24.4115 Y29.6619 I22.8141 J30.3765
G0 Z3.0
G0 X24.2008 Y22.8398
G0 Z0.5
G1 F300.0 Z-1.0
G2 F800.0 X24.2515 Y21.9453 I8.2166 J21.4866
G3 X24.2521 Y21.9299 I25.0011 J21.9667
G3 X25.1291 Y20.7869 I25.5163 J21.9921
G3 X25.332 Y20.7515 I25.3586 J21.501
G3 X26.356 Y21.7168 I25.367 J21.7401
G3 X26.3562 Y21.7452 I25.6062 J21.7345
G3 X26.3009 Y22.9256 I8.2166 J21.4866
G2 X26.9067 Y22.1963 I25.308 J21.4845
G2 X25.1251 Y19.7441 I25.308 J21.4845
G2 X23.8922 Y22.5131 I25.308 J21.4845
G2 X24.2008 Y22.8398 I25.308 J21.4845
G0 Z3.0
G0 X30.8941 Y22.0894
G0 Z0.5
G1 F300.0 Z-1.0
G3 F800.0 X31.0228 Y23.0416 I12.9868 J24.9946
G3 X30.9464 Y23.4609 I30.2772 J23.1224
G3 X30.679 Y23.9677 I16.0 J15.9
G3 X30.3978 Y24.4596 I16.0 J15.9
G3 X29.0042 Y24.1173 I29.7531 J24.0763
G2 X28.9752 Y23.6918 I12.9868 J24.9946
G2 X28.808 Y22.3458 I12.9868 J24.9946
G2 X29.481 Y25.2709 I30.0218 J23.6065
G2 X31.7335 Y23.2427 I30.0218 J23.6065
G2 X30.8941 Y22.0894 I30.0218 J23.6065
G0 Z3.0
G0 X26.7137 Y16.694
G0 Z0.5
G1 F300.0 Z-1.0
G2 F800.0 X26.2289 Y15.9407 I12.9868 J24.9946
G3 X26.2203 Y15.9278 I26.848 J15.5174
G3 X26.2581 Y14.4876 I27.2797 J15.235
G3 X26.4013 Y14.3397 I26.8634 J14.9305
G3 X27.7972 Y14.5188 I27.0108 J15.1189
G3 X27.814 Y14.5416 I27.201 J14.9738
G3 X28.4631 Y15.5292 I12.9868 J24.9946
G2 X28.5246 Y14.583 I26.8128 J14.9469
G2 X25.6419 Y13.6464 I26.8128 J14.9469
G2 X26.2721 Y16.6112 I26.8128 J14.9469
G2 X26.7137 Y16.694 I26.8128 J14.9469
G0 Z3.0
G0 X31.6876 Y12.1528
G0 Z0.5
G1 F300.0 Z-1.0
G3 F800.0 X32.3515 Y12.8475 I18.908 J25.0288
G3 X32.5361 Y13.2317 I31.7957 J13.3511
G3 X32.6177 Y13.7988 I16.0 J15.9
G3 X32.6792 Y14.3621 I16.0 J15.9
G3 X31.3507 Y14.9043 I31.9324 J14.4309
G2 X31.0771 Y14.577 I18.908 J25.0288
G2 X30.1507 Y13.5864 I18.908 J25.0288
G2 X32.4144 Y15.5573 I31.8736 J13.8929
G2 X33.0446 Y12.5924 I31.8736 J13.8929
G2 X31.6876 Y12.1528 I31.8736 J13.8929
G0 Z3.0
G0 X25.1343 Y10.245
G0 Z0.5
G1 F300.0 Z-1.0
G2 F800.0 X24.2993 Y9.9205 I18.908 J25.0288
G3 X24.2848 Y9.9152 I24.5513 J9.2141
G3 X23.4688 Y8.7278 I24.7346 J8.732
G3 X23.4978 Y8.5239 I24.2188 J8.7303
G3 X24.7323 Y7.8483 I24.4489 J8.7961
G3 X24.7593 Y7.8569 I24.5174 J8.5669
G3 X25.8649 Y8.2743 I18.908 J25.0288
G2 X25.3585 Y7.4728 I24.1875 J8.7733
G2 X22.4758 Y8.4094 I24.1875 J8.7733
G2 X24.7283 Y10.4376 I24.1875 J8.7733
G2 X25.1343 Y10.245 I24.1875 J8.7733
G0 Z3.0
G0 X26.489 Y3.6475
G0 Z0.5
G1 F300.0 Z-1.0
G3 F800.0 X27.4344 Y3.8194 I23.7184 J21.5761
G3 X27.8096 Y4.0216 I27.2808 J4.5535
G3 X28.209 Y4.4325 I16.0 J15.9
G3 X28.5898 Y4.852 I16.0 J15.9
G3 X27.8337 Y6.0716 I28.0261 J5.3467
G2 X27.42 Y5.9676 I23.7184 J21.5761
G2 X26.0882 Y5.7107 I23.7184 J21.5761
G2 X29.0781 Y5.9746 I27.6623 J4.946
G2 X27.8452 Y3.2055 I27.6623 J4.946
G2 X26.489 Y3.6475 I27.6623 J4.946
G0 Z3.0
G0 X20.0659 Y5.956
G0 Z0.5
G1 F300.0 Z-1.0
G2 F800.0 X19.1996 Y6.1843 I23.7184 J21.5761
G3 X19.1847 Y6.1885 I18.9883 J5.4647
G3 X17.8267 Y5.7075 I18.8532 J4.9669
G3 X17.7303 Y5.5256 I18.4349 J5.2687
G3 X18.3319 Y4.2533 I18.6597 J5.1867
G3 X18.3588 Y4.2444 I18.5804 J4.961
G3 X19.4986 Y3.9323 I23.7184 J21.5761
G2 X18.6178 Y3.5814 I18.4349 J5.3218
G2 X16.8362 Y6.0336 I18.4349 J5.3218
G2 X19.8506 Y6.3505 I18.4349 J5.3218
G2 X20.0659 Y5.956 I18.4349 J5.3218
G0 Z3.0
G0 X17.284 Y-0.1778
G0 Z0.5
G1 F300.0 Z-1.0
G3 F800.0 X18.1498 Y-0.5944 I25.5806 J15.9553
G3 X18.5722 Y-0.6513 I18.457 J0.0898
G3 X19.1368 Y-0.5537 I16.0 J15.9
G3 X19.6915 Y-0.4382 I16.0 J15.9
G3 X19.7966 Y0.993 I19.5262 J0.2934
G2 X19.4009 Y1.152 I25.5806 J15.9553
G2 X18.1724 Y1.727 I25.5806 J15.9553
G2 X20.7464 Y0.1831 I18.9964 J0.1831
G2 X18.1214 Y-1.3325 I18.9964 J0.1831
G2 X17.284 Y-0.1778 I18.9964 J0.1831
G0 Z3.0
G0 X13.4445 Y5.4653
G0 Z0.5
G1 F300.0 Z-1.0
G2 F800.0 X12.8778 Y6.1592 I25.5806 J15.9553
G3 X12.8682 Y6.1713 I12.2839 J5.7012
G3 X11.4868 Y6.5804 I11.882 J5.3778
G3 X11.3019 Y6.4899 I11.7209 J5.8679
G3 X11.0408 Y5.107 I11.8546 J5.6694
G3 X11.0574 Y5.084 I11.6578 J5.5334
G3 X11.796 Y4.1615 I25.5806 J15.9553
G2 X10.8772 Y4.3954 I11.7522 J5.9109
G2 Y7.4265 I11.7522 J5.9109
G2 X13.5022 Y5.9109 I11.7522 J5.9109
G2 X13.4445 Y5.4653 I11.7522 J5.9109
G0 Z3.0
G0 X7.5885 Y2.1381
G0 Z0.5
G1 F300.0 Z-1.0
G3 F800.0 X8.0441 Y1.2921 I23.7834 J10.3134
G3 X8.3523 Y0.9978 I8.6947 J1.6651
G3 X8.8665 Y0.7449 I16.0 J15.9
G3 X9.3832 Y0.5123 I16.0 J15.9
G3 X10.3094 Y1.6083 I9.6794 J1.2013
G2 X10.0827 Y1.9697 I23.7834 J10.3134
G2 X9.4268 Y3.1569 I23.7834 J10.3134
G2 X10.6017 Y0.3949 I9.1859 J1.4235
G2 X7.5872 Y0.7117 I9.1859 J1.4235
G2 X7.5885 Y2.1381 I9.1859 J1.4235
G0 Z3.0
G0 X7.7992 Y8.9602
G0 Z0.5
G1 F300.0 Z-1.0
G2 F800.0 X7.7485 Y9.8547 I23.7834 J10.3134
G3 X7.7479 Y9.8701 I6.9989 J9.8333
G3 X6.8709 Y11.0131 I6.4837 J9.8079
G3 X6.668 Y11.0485 I6.6414 J10.299
G3 X5.644 Y10.0832 I6.633 J10.0599
G3 X5.6438 Y10.0548 I6.3938 J10.0655
G3 X5.6991 Y8.8744 I23.7834 J10.3134
G2 X5.0933 Y9.6037 I6.692 J10.3155
G2 X6.8749 Y12.0559 I6.692 J10.3155
G2 X8.1078 Y9.2869 I6.692 J10.3155
G2 X7.7992 Y8.9602 I6.692 J10.3155
G0 Z3.0
G0 X1.1059 Y9.7106
G0 Z0.5
G1 F300.0 Z-1.0
G3 F800.0 X0.9772 Y8.7584 I19.0132 J6.8054
G3 X1.0536 Y8.3391 I1.7228 J8.6776
G3 X1.321 Y7.8323 I16.0 J15.9
G3 X1.6022 Y7.3404 I16.0 J15.9
G3 X2.9958 Y7.6827 I2.2469 J7.7237
G2 X3.0248 Y8.1082 I19.0132 J6.8054
G2 X3.192 Y9.4542 I19.0132 J6.8054
G2 X2.519 Y6.5291 I1.9782 J8.1935
G2 X0.2665 Y8.5573 I1.9782 J8.1935
G2 X1.1059 Y9.7106 I1.9782 J8.1935
G0 Z3.0
G0 X5.2863 Y15.106
G0 Z0.5
G1 F300.0 Z-1.0
G2 F800.0 X5.7711 Y15.8593 I19.0132 J6.8054
G3 X5.7797 Y15.8722 I5.152 J16.2826
G3 X5.7419 Y17.3124 I4.7203 J16.565
G3 X5.5987 Y17.4603 I5.1366 J16.8695
G3 X4.2028 Y17.2812 I4.9892 J16.6811
G3 X4.186 Y17.2584 I4.799 J16.8262
G3 X3.5369 Y16.2708 I19.0132 J6.8054
G2 X3.4754 Y17.217 I5.1872 J16.8531
G2 X6.3581 Y18.1536 I5.1872 J16.8531
G2 X5.7279 Y15.1888 I5.1872 J16.8531
G2 X5.2863 Y15.106 I5.1872 J16.8531
G0 Z3.0
G0 X0.3124 Y19.6472
G0 Z0.5
G1 F300.0 Z-1.0
G3 F800.0 X-0.3515 Y18.9525 I13.092 J6.7712
G3 X-0.5361 Y18.5683 I0.2043 J18.4489
G3 X-0.6177 Y18.0012 I16.0 J15.9
G3 X-0.6792 Y17.4379 I16.0 J15.9
G3 X0.6493 Y16.8957 I0.0676 J17.3691
G2 X0.9229 Y17.223 I13.092 J6.7712
G2 X1.8493 Y18.2136 I13.092 J6.7712
G2 X-0.4144 Y16.2427 I0.1264 J17.9071
G2 X-1.0446 Y19.2076 I0.1264 J17.9071
G2 X0.3124 Y19.6472 I0.1264 J17.9071
G0 Z3.0
G0 X6.8657 Y21.555
G0 Z0.5
G1 F300.0 Z-1.0
G2 F800.0 X7.7007 Y21.8795 I13.092 J6.7712
G3 X7.7152 Y21.8848 I7.4487 J22.5859
G3 X8.5312 Y23.0722 I7.2654 J23.068
G3 X8.5022 Y23.2761 I7.7812 J23.0697
G3 X7.2677 Y23.9517 I7.5511 J23.0039
G3 X7.2407 Y23.9431 I7.4826 J23.2331
G3 X6.1351 Y23.5257 I13.092 J6.7712
G2 X6.6415 Y24.3272 I7.8125 J23.0267
G2 X9.5242 Y23.3906 I7.8125 J23.0267
G2 X7.2717 Y21.3624 I7.8125 J23.0267
G2 X6.8657 Y21.555 I7.8125 J23.0267
G0 Z3.0
G0 X5.511 Y28.1525
G0 Z-0.5
G1 F300.0 Z-2.0
G3 F800.0 X4.5656 Y27.9806 I8.2816 J10.2239
G3 X4.1904 Y27.7784 I4.7192 J27.2465
G3 X3.791 Y27.3675 I16.0 J15.9
G3 X3.4102 Y26.948 I16.0 J15.9
G3 X4.1663 Y25.7284 I3.9739 J26.4533
G2 X4.58 Y25.8324 I8.2816 J10.2239
G2 X5.9118 Y26.0893 I8.2816 J10.2239
G2 X2.9219 Y25.8254 I4.3377 J26.854
G2 X4.1548 Y28.5945 I4.3377 J26.854
G2 X5.511 Y28.1525 I4.3377 J26.854
G0 Z3.0
G0 X11.9341 Y25.844
G0 Z-0.5
G1 F300.0 Z-2.0
G2 F800.0 X12.8004 Y25.6157 I8.2816 J10.2239
G3 X12.8153 Y25.6115 I13.0117 J26.3353
G3 X14.1733 Y26.0925 I13.1468 J26.8331
G3 X14.2697 Y26.2744 I13.5651 J26.5313
G3 X13.6681 Y27.5467 I13.3403 J26.6133
G3 X13.6412 Y27.5556 I13.4196 J26.839
G3 X12.5014 Y27.8677 I8.2816 J10.2239
G2 X13.3822 Y28.2186 I13.5651 J26.4782
G2 X15.1638 Y25.7664 I13.5651 J26.4782
G2 X12.1494 Y25.4495 I13.5651 J26.4782
G2 X11.9341 Y25.844 I13.5651 J26.4782
G0 Z3.0
G0 X14.716 Y31.9778
G0 Z-0.5
G1 F300.0 Z-2.0
G3 F800.0 X13.8502 Y32.3944 I6.4194 J15.8447
G3 X13.4278 Y32.4513 I13.543 J31.7102
G3 X12.8632 Y32.3537 I16.0 J15.9
G3 X12.3085 Y32.2382 I16.0 J15.9
G3 X12.2034 Y30.807 I12.4738 J31.5066
G2 X12.5991 Y30.648 I6.4194 J15.8447
G2 X13.8276 Y30.073 I6.4194 J15.8447
G2 X11.2536 Y31.6169 I13.0036 J31.6169
G2 X13.8786 Y33.1325 I13.0036 J31.6169
G2 X14.716 Y31.9778 I13.0036 J31.6169
G0 Z3.0
G0 X18.5555 Y26.3347
G0 Z-0.5
G1 F300.0 Z-2.0
G2 F800.0 X19.1222 Y25.6408 I6.4194 J15.8447
G3 X19.1318 Y25.6287 I19.7161 J26.0988
G3 X20.5132 Y25.2196 I20.118 J26.4222
G3 X20.6981 Y25.3101 I20.2791 J25.9321
G3 X20.9592 Y26.693 I20.1454 J26.1306
G3 X20.9426 Y26.716 I20.3422 J26.2666
G3 X20.204 Y27.6385 I6.4194 J15.8447
G2 X21.1228 Y27.4046 I20.2478 J25.8891
G2 Y24.3735 I20.2478 J25.8891
G2 X18.4978 Y25.8891 I20.2478 J25.8891
G2 X18.5555 Y26.3347 I20.2478 J25.8891
G0 Z3.0
G0 X24.4115 Y29.6619
G0 Z-0.5
G1 F300.0 Z-2.0
G3 F800.0 X23.9559 Y30.5079 I8.2166 J21.4866
G3 X23.6477 Y30.8022 I23.3053 J30.1349
G3 X23.1335 Y31.0551 I16.0 J15.9
G3 X22.6168 Y31.2877 I16.0 J15.9
G3 X21.6906 Y30.1917 I22.3206 J30.5987
G2 X21.9173 Y29.8303 I8.2166 J21.4866
G2 X22.5732 Y28.6431 I8.2166 J21.4866
G2 X21.3983 Y31.4051 I22.8141 J30.3765
G2 X24.4128 Y31.0883 I22.8141 J30.3765
G2 X24.4115 Y29.6619 I22.8141 J30.3765
G0 Z3.0
G0 X24.2008 Y22.8398
G0 Z-0.5
G1 F300.0 Z-2.0
G2 F800.0 X24.2515 Y21.9453 I8.2166 J21.4866
G3 X24.2521 Y21.9299 I25.0011 J21.9667
G3 X25.1291 Y20.7869 I25.5163 J21.9921
G3 X25.332 Y20.7515 I25.3586 J21.501
G3 X26.356 Y21.7168 I25.367 J21.7401
G3 X26.3562 Y21.7452 I25.6062 J21.7345
G3 X26.3009 Y22.9256 I8.2166 J21.4866
G2 X26.9067 Y22.1963 I25.308 J21.4845
G2 X25.1251 Y19.7441 I25.308 J21.4845
G2 X23.8922 Y22.5131 I25.308 J21.4845
G2 X24.2008 Y22.8398 I25.308 J21.4845
G0 Z3.0
G0 X30.8941 Y22.0894
G0 Z-0.5
G1 F300.0 Z-2.0
G3 F800.0 X31.0228 Y23.0416 I12.9868 J24.9946
G3 X30.9464 Y23.4609 I30.2772 J23.1224
G3 X30.679 Y23.9677 I16.0 J15.9
G3 X30.3978 Y24.4596 I16.0 J15.9
G3 X29.0042 Y24.1173 I29.7531 J24.0763
G2 X28.9752 Y23.6918 I12.9868 J24.9946
G2 X28.808 Y22.3458 I12.9868 J24.9946
G2 X29.481 Y25.2709 I30.0218 J23.6065
G2 X31.7335 Y23.2427 I30.0218 J23.6065
G2 X30.8941 Y22.0894 I30.0218 J23.6065
G0 Z3.0
G0 X26.7137 Y16.694
G0 Z-0.5
G1 F300.0 Z-2.0
G2 F800.0 X26.2289 Y15.9407 I12.9868 J24.9946
G3 X26.2203 Y15.9278 I26.848 J15.5174
G3 X26.2581 Y14.4876 I27.2797 J15.235
G3 X26.4013 Y14.3397 I26.8634 J14.9305
G3 X27.7972 Y14.5188 I27.0108 J15.1189
G3 X27.814 Y14.5416 I27.201 J14.9738
G3 X28.4631 Y15.5292 I12.9868 J24.9946
G2 X28.5246 Y14.583 I26.8128 J14.9469
G2 X25.6419 Y13.6464 I26.8128 J14.9469
G2 X26.2721 Y16.6112 I26.8128 J14.9469
G2 X26.7137 Y16.694 I26.8128 J14.9469
G0 Z3.0
G0 X31.6876 Y12.1528
G0 Z-0.5
G1 F300.0 Z-2.0
G3 F800.0 X32.3515 Y12.8475 I18.908 J25.0288
G3 X32.5361 Y13.2317 I31.7957 J13.3511
G3 X32.6177 Y13.7988 I16.0 J15.9
G3 X32.6792 Y14.3621 I16.0 J15.9
G3 X31.3507 Y14.9043 I31.9324 J14.4309
G2 X31.0771 Y14.577 I18.908 J25.0288
G2 X30.1507 Y13.5864 I18.908 J25.0288
G2 X32.4144 Y15.5573 I31.8736 J13.8929
G2 X33.0446 Y12.5924 I31.8736 J13.8929
G2 X31.6876 Y12.1528 I31.8736 J13.8929
G0 Z3.0
G0 X25.1343 Y10.245
G0 Z-0.5
G1 F300.0 Z-2.0
G2 F800.0 X24.2993 Y9.9205 I18.908 J25.0288
G3 X24.2848 Y9.9152 I24.5513 J9.2141
G3 X23.4688 Y8.7278 I24.7346 J8.732
G3 X23.4978 Y8.5239 I24.2188 J8.7303
G3 X24.7323 Y7.8483 I24.4489 J8.7961
G3 X24.7593 Y7.8569 I24.5174 J8.5669
G3 X25.8649 Y8.2743 I18.908 J25.0288
G2 X25.3585 Y7.4728 I24.1875 J8.7733
G2 X22.4758 Y8.4094 I24.1875 J8.7733
G2 X24.7283 Y10.4376 I24.1875 J8.7733
G2 X25.1343 Y10.245 I24.1875 J8.7733
G0 Z3.0
G0 X26.489 Y3.6475
G0 Z-0.5
G1 F300.0 Z-2.0
G3 F800.0 X27.4344 Y3.8194 I23.7184 J21.5761
G3 X27.8096 Y4.0216 I27.2808 J4.5535
G3 X28.209 Y4.4325 I16.0 J15.9
G3 X28.5898 Y4.852 I16.0 J15.9
G3 X27.8337 Y6.0716 I28.0261 J5.3467
G2 X27.42 Y5.9676 I23.7184 J21.5761
G2 X26.0882 Y5.7107 I23.7184 J21.5761
G2 X29.0781 Y5.9746 I27.6623 J4.946
G2 X27.8452 Y3.2055 I27.6623 J4.946
G2 X26.489 Y3.6475 I27.6623 J4.946
G0 Z3.0
G0 X20.0659 Y5.956
G0 Z-0.5
G1 F300.0 Z-2.0
G2 F800.0 X19.1996 Y6.1843 I23.7184 J21.5761
G3 X19.1847 Y6.1885 I18.9883 J5.4647
G3 X17.8267 Y5.7075 I18.8532 J4.9669
G3 X17.7303 Y5.5256 I18.4349 J5.2687
G3 X18.3319 Y4.2533 I18.6597 J5.1867
G3 X18.3588 Y4.2444 I18.5804 J4.961
G3 X19.4986 Y3.9323 I23.7184 J21.5761
G2 X18.6178 Y3.5814 I18.4349 J5.3218
G2 X16.8362 Y6.0336 I18.4349 J5.3218
G2 X19.8506 Y6.3505 I18.4349 J5.3218
G2 X20.0659 Y5.956 I18.4349 J5.3218
G0 Z3.0
G0 X17.284 Y-0.1778
G0 Z-0.5
G1 F300.0 Z-2.0
G3 F800.0 X18.1498 Y-0.5944 I25.5806 J15.9553
G3 X18.5722 Y-0.6513 I18.457 J0.0898
G3 X19.1368 Y-0.5537 I16.0 J15.9
G3 X19.6915 Y-0.4382 I16.0 J15.9
G3 X19.7966 Y0.993 I19.5262 J0.2934
G2 X19.4009 Y1.152 I25.5806 J15.9553
G2 X18.1724 Y1.727 I25.5806 J15.9553
G2 X20.7464 Y0.1831 I18.9964 J0.1831
G2 X18.1214 Y-1.3325 I18.9964 J0.1831
G2 X17.284 Y-0.1778 I18.9964 J0.1831
G0 Z3.0
G0 X13.4445 Y5.4653
G0 Z-0.5
G1 F300.0 Z-2.0
G2 F800.0 X12.8778 Y6.1592 I25.5806 J15.9553
G3 X12.8682 Y6.1713 I12.2839 J5.7012
G3 X11.4868 Y6.5804 I11.882 J5.3778
G3 X11.3019 Y6.4899 I11.7209 J5.8679
G3 X11.0408 Y5.107 I11.8546 J5.6694
G3 X11.0574 Y5.084 I11.6578 J5.5334
G3 X11.796 Y4.1615 I25.5806 J15.9553
G2 X10.8772 Y4.3954 I11.7522 J5.9109
G2 Y7.4265 I11.7522 J5.9109
G2 X13.5022 Y5.9109 I11.7522 J5.9109
G2 X13.4445 Y5.4653 I11.7522 J5.9109
G0 Z3.0
G0 X7.5885 Y2.1381
G0 Z-0.5
G1 F300.0 Z-2.0
G3 F800.0 X8.0441 Y1.2921 I23.7834 J10.3134
G3 X8.3523 Y0.9978 I8.6947 J1.6651
G3 X8.8665 Y0.7449 I16.0 J15.9
G3 X9.3832 Y0.5123 I16.0 J15.9
G3 X10.3094 Y1.6083 I9.6794 J1.2013
G2 X10.0827 Y1.9697 I23.7834 J10.3134
G2 X9.4268 Y3.1569 I23.7834 J10.3134
G2 X10.6017 Y0.3949 I9.1859 J1.4235
G2 X7.5872 Y0.7117 I9.1859 J1.4235
G2 X7.5885 Y2.1381 I9.1859 J1.4235
G0 Z3.0
G0 X7.7992 Y8.9602
G0 Z-0.5
G1 F300.0 Z-2.0
G2 F800.0 X7.7485 Y9.8547 I23.7834 J10.3134
G3 X7.7479 Y9.8701 I6.9989 J9.8333
G3 X6.8709 Y11.0131 I6.4837 J9.8079
G3 X6.668 Y11.0485 I6.6414 J10.299
G3 X5.644 Y10.0832 I6.633 J10.0599
G3 X5.6438 Y10.0548 I6.3938 J10.0655
G3 X5.6991 Y8.8744 I23.7834 J10.3134
G2 X5.0933 Y9.6037 I6.692 J10.3155
G2 X6.8749 Y12.0559 I6.692 J10.3155
G2 X8.1078 Y9.2869 I6.692 J10.3155
G2 X7.7992 Y8.9602 I6.692 J10.3155
G0 Z3.0
G0 X1.1059 Y9.7106
G0 Z-0.5
G1 F300.0 Z-2.0
G3 F800.0 X0.9772 Y8.7584 I19.0132 J6.8054
G3 X1.0536 Y8.3391 I1.7228 J8.6776
G3 X1.321 Y7.8323 I16.0 J15.9
G3 X1.6022 Y7.3404 I16.0 J15.9
G3 X2.9958 Y7.6827 I2.2469 J7.7237
G2 X3.0248 Y8.1082 I19.0132 J6.8054
G2 X3.192 Y9.4542 I19.0132 J6.8054
G2 X2.519 Y6.5291 I1.9782 J8.1935
G2 X0.2665 Y8.5573 I1.9782 J8.1935
G2 X1.1059 Y9.7106 I1.9782 J8.1935
G0 Z3.0
G0 X5.2863 Y15.106
G0 Z-0.5
G1 F300.0 Z-2.0
G2 F800.0 X5.7711 Y15.8593 I19.0132 J6.8054
G3 X5.7797 Y15.8722 I5.152 J16.2826
G3 X5.7419 Y17.3124 I4.7203 J16.565
G3 X5.5987 Y17.4603 I5.1366 J16.8695
G3 X4.2028 Y17.2812 I4.9892 J16.6811
G3 X4.186 Y17.2584 I4.799 J16.8262
G3 X3.5369 Y16.2708 I19.0132 J6.8054
G2 X3.4754 Y17.217 I5.1872 J16.8531
G2 X6.3581 Y18.1536 I5.1872 J16.8531
G2 X5.7279 Y15.1888 I5.1872 J16.8531
G2 X5.2863 Y15.106 I5.1872 J16.8531
G0 Z3.0
G0 X0.3124 Y19.6472
G0 Z-0.5
G1 F300.0 Z-2.0
G3 F800.0 X-0.3515 Y18.9525 I13.092 J6.7712
G3 X-0.5361 Y18.5683 I0.2043 J18.4489
G3 X-0.6177 Y18.0012 I16.0 J15.9
G3 X-0.6792 Y17.4379 I16.0 J15.9
G3 X0.6493 Y16.8957 I0.0676 J17.3691
G2 X0.9229 Y17.223 I13.092 J6.7712
G2 X1.8493 Y18.2136 I13.092 J6.7712
G2 X-0.4144 Y16.2427 I0.1264 J17.9071
G2 X-1.0446 Y19.2076 I0.1264 J17.9071
G2 X0.3124 Y19.6472 I0.1264 J17.9071
G0 Z3.0
G0 X6.8657 Y21.555
G0 Z-0.5
G1 F300.0 Z-2.0
G2 F800.0 X7.7007 Y21.8795 I13.092 J6.7712
G3 X7.7152 Y21.8848 I7.4487 J22.5859
G3 X8.5312 Y23.0722 I7.2654 J23.068
G3 X8.5022 Y23.2761 I7.7812 J23.0697
G3 X7.2677 Y23.9517 I7.5511 J23.0039
G3 X7.2407 Y23.9431 I7.4826 J23.2331
G3 X6.1351 Y23.5257 I13.092 J6.7712
G2 X6.6415 Y24.3272 I7.8125 J23.0267
G2 X9.5242 Y23.3906 I7.8125 J23.0267
G2 X7.2717 Y21.3624 I7.8125 J23.0267
G2 X6.8657 Y21.555 I7.8125 J23.0267
G0 Z3.0
G0 X5.511 Y28.1525
G0 Z-1.5
G1 F300.0 Z-3.0
G3 F800.0 X4.5656 Y27.9806 I8.2816 J10.2239
G3 X4.1904 Y27.7784 I4.7192 J27.2465
G3 X3.791 Y27.3675 I16.0 J15.9
G3 X3.4102 Y26.948 I16.0 J15.9
G3 X4.1663 Y25.7284 I3.9739 J26.4533
G2 X4.58 Y25.8324 I8.2816 J10.2239
G2 X5.9118 Y26.0893 I8.2816 J10.2239
G2 X2.9219 Y25.8254 I4.3377 J26.854
G2 X4.1548 Y28.5945 I4.3377 J26.854
G2 X5.511 Y28.1525 I4.3377 J26.854
G0 Z3.0
G0 X11.9341 Y25.844
G0 Z-1.5
G1 F300.0 Z-3.0
G2 F800.0 X12.8004 Y25.6157 I8.2816 J10.2239
G3 X12.8153 Y25.6115 I13.0117 J26.3353
G3 X14.1733 Y26.0925 I13.1468 J26.8331
G3 X14.2697 Y26.2744 I13.5651 J26.5313
G3 X13.6681 Y27.5467 I13.3403 J26.6133
G3 X13.6412 Y27.5556 I13.4196 J26.839
G3 X12.5014 Y27.8677 I8.2816 J10.2239
G2 X13.3822 Y28.2186 I13.5651 J26.4782
G2 X15.1638 Y25.7664 I13.5651 J26.4782
G2 X12.1494 Y25.4495 I13.5651 J26.4782
G2 X11.9341 Y25.844 I13.5651 J26.4782
G0 Z3.0
G0 X14.716 Y31.9778
G0 Z-1.5
G1 F300.0 Z-3.0
G3 F800.0 X13.8502 Y32.3944 I6.4194 J15.8447
G3 X13.4278 Y32.4513 I13.543 J31.7102
G3 X12.8632 Y32.3537 I16.0 J15.9
G3 X12.3085 Y32.2382 I16.0 J15.9
G3 X12.2034 Y30.807 I12.4738 J31.5066
G2 X12.5991 Y30.648 I6.4194 J15.8447
G2 X13.8276 Y30.073 I6.4194 J15.8447
G2 X11.2536 Y31.6169 I13.0036 J31.6169
G2 X13.8786 Y33.1325 I13.0036 J31.6169
G2 X14.716 Y31.9778 I13.0036 J31.6169
G0 Z3.0
G0 X18.5555 Y26.3347
G0 Z-1.5
G1 F300.0 Z-3.0
G2 F800.0 X19.1222 Y25.6408 I6.4194 J15.8447
G3 X19.1318 Y25.6287 I19.7161 J26.0988
G3 X20.5132 Y25.2196 I20.118 J26.4222
G3 X20.6981 Y25.3101 I20.2791 J25.9321
G3 X20.9592 Y26.693 I20.1454 J26.1306
G3 X20.9426 Y26.716 I20.3422 J26.2666
G3 X20.204 Y27.6385 I6.4194 J15.8447
G2 X21.1228 Y27.4046 I20.2478 J25.8891
G2 Y24.3735 I20.2478 J25.8891
G2 X18.4978 Y25.8891 I20.2478 J25.8891
G2 X18.5555 Y26.3347 I20.2478 J25.8891
G0 Z3.0
G0 X24.4115 Y29.6619
G0 Z-1.5
G1 F300.0 Z-3.0
G3 F800.0 X23.9559 Y30.5079 I8.2166 J21.4866
G3 X23.6477 Y30.8022 I23.3053 J30.1349
G3 X23.1335 Y31.0551 I16.0 J15.9
G3 X22.6168 Y31.2877 I16.0 J15.9
G3 X21.6906 Y30.1917 I22.3206 J30.5987
G2 X21.9173 Y29.8303 I8.2166 J21.4866
G2 X22.5732 Y28.6431 I8.2166 J21.4866
G2 X21.3983 Y31.4051 I22.8141 J30.3765
G2 X24.4128 Y31.0883 I22.8141 J30.3765
G2 X24.4115 Y29.6619 I22.8141 J30.3765
G0 Z3.0
G0 X24.2008 Y22.8398
G0 Z-1.5
G1 F300.0 Z-3.0
G2 F800.0 X24.2515 Y21.9453 I8.2166 J21.4866
G3 X24.2521 Y21.9299 I25.0011 J21.9667
G3 X25.1291 Y20.7869 I25.5163 J21.9921
G3 X25.332 Y20.7515 I25.3586 J21.501
G3 X26.356 Y21.7168 I25.367 J21.7401
G3 X26.3562 Y21.7452 I25.6062 J21.7345
G3 X26.3009 Y22.9256 I8.2166 J21.4866
G2 X26.9067 Y22.1963 I25.308 J21.4845
G2 X25.1251 Y19.7441 I25.308 J21.4845
G2 X23.8922 Y22.5131 I25.308 J21.4845
G2 X24.2008 Y22.8398 I25.308 J21.4845
G0 Z3.0
G0 X30.8941 Y22.0894
G0 Z-1.5
G1 F300.0 Z-3.0
G3 F800.0 X31.0228 Y23.0416 I12.9868 J24.9946
G3 X30.9464 Y23.4609 I30.2772 J23.1224
G3 X30.679 Y23.9677 I16.0 J15.9
G3 X30.3978 Y24.4596 I16.0 J15.9
G3 X29.0042 Y24.1173 I29.7531 J24.0763
G2 X28.9752 Y23.6918 I12.9868 J24.9946
G2 X28.808 Y22.3458 I12.9868 J24.9946
G2 X29.481 Y25.2709 I30.0218 J23.6065
G2 X31.7335 Y23.2427 I30.0218 J23.6065
G2 X30.8941 Y22.0894 I30.0218 J23.6065
G0 Z3.0
G0 X26.7137 Y16.694
G0 Z-1.5
G1 F300.0 Z-3.0
G2 F800.0 X26.2289 Y15.9407 I12.9868 J24.9946
G3 X26.2203 Y15.9278 I26.848 J15.5174
G3 X26.2581 Y14.4876 I27.2797 J15.235
G3 X26.4013 Y14.3397 I26.8634 J14.9305
G3 X27.7972 Y14.5188 I27.0108 J15.1189
G3 X27.814 Y14.5416 I27.201 J14.9738
G3 X28.4631 Y15.5292 I12.9868 J24.9946
G2 X28.5246 Y14.583 I26.8128 J14.9469
G2 X25.6419 Y13.6464 I26.8128 J14.9469
G2 X26.2721 Y16.6112 I26.8128 J14.9469
G2 X26.7137 Y16.694 I26.8128 J14.9469
G0 Z3.0
G0 X31.6876 Y12.1528
G0 Z-1.5
G1 F300.0 Z-3.0
G3 F800.0 X32.3515 Y12.8475 I18.908 J25.0288
G3 X32.5361 Y13.2317 I31.7957 J13.3511
G3 X32.6177 Y13.7988 I16.0 J15.9
G3 X32.6792 Y14.3621 I16.0 J15.9
G3 X31.3507 Y14.9043 I31.9324 J14.4309
G2 X31.0771 Y14.577 I18.908 J25.0288
G2 X30.1507 Y13.5864 I18.908 J25.0288
G2 X32.4144 Y15.5573 I31.8736 J13.8929
G2 X33.0446 Y12.5924 I31.8736 J13.8929
G2 X31.6876 Y12.1528 I31.8736 J13.8929
G0 Z3.0
G0 X25.1343 Y10.245
G0 Z-1.5
G1 F300.0 Z-3.0
G2 F800.0 X24.2993 Y9.9205 I18.908 J25.0288
G3 X24.2848 Y9.9152 I24.5513 J9.2141
G3 X23.4688 Y8.7278 I24.7346 J8.732
G3 X23.4978 Y8.5239 I24.2188 J8.7303
G3 X24.7323 Y7.8483 I24.4489 J8.7961
G3 X24.7593 Y7.8569 I24.5174 J8.5669
G3 X25.8649 Y8.2743 I18.908 J25.0288
G2 X25.3585 Y7.4728 I24.1875 J8.7733
G2 X22.4758 Y8.4094 I24.1875 J8.7733
G2 X24.7283 Y10.4376 I24.1875 J8.7733
G2 X25.1343 Y10.245 I24.1875 J8.7733
G0 Z3.0
G0 X26.489 Y3.6475
G0 Z-1.5
G1 F300.0 Z-3.0
G3 F800.0 X27.4344 Y3.8194 I23.7184 J21.5761
G3 X27.8096 Y4.0216 I27.2808 J4.5535
G3 X28.209 Y4.4325 I16.0 J15.9
G3 X28.5898 Y4.852 I16.0 J15.9
G3 X27.8337 Y6.0716 I28.0261 J5.3467
G2 X27.42 Y5.9676 I23.7184 J21.5761
G2 X26.0882 Y5.7107 I23.7184 J21.5761
G2 X29.0781 Y5.9746 I27.6623 J4.946
G2 X27.8452 Y3.2055 I27.6623 J4.946
G2 X26.489 Y3.6475 I27.6623 J4.946
G0 Z3.0
G0 X20.0659 Y5.956
G0 Z-1.5
G1 F300.0 Z-3.0
G2 F800.0 X19.1996 Y6.1843 I23.7184 J21.5761
G3 X19.1847 Y6.1885 I18.9883 J5.4647
G3 X17.8267 Y5.7075 I18.8532 J4.9669
G3 X17.7303 Y5.5256 I18.4349 J5.2687
G3 X18.3319 Y4.2533 I18.6597 J5.1867
G3 X18.3588 Y4.2444 I18.5804 J4.961
G3 X19.4986 Y3.9323 I23.7184 J21.5761
G2 X18.6178 Y3.5814 I18.4349 J5.3218
G2 X16.8362 Y6.0336 I18.4349 J5.3218
G2 X19.8506 Y6.3505 I18.4349 J5.3218
G2 X20.0659 Y5.956 I18.4349 J5.3218
G0 Z3.0
G0 X17.284 Y-0.1778
G0 Z-1.5
G1 F300.0 Z-3.0
G3 F800.0 X18.1498 Y-0.5944 I25.5806 J15.9553
G3 X18.5722 Y-0.6513 I18.457 J0.0898
G3 X19.1368 Y-0.5537 I16.0 J15.9
G3 X19.6915 Y-0.4382 I16.0 J15.9
G3 X19.7966 Y0.993 I19.5262 J0.2934
G2 X19.4009 Y1.152 I25.5806 J15.9553
G2 X18.1724 Y1.727 I25.5806 J15.9553
G2 X20.7464 Y0.1831 I18.9964 J0.1831
G2 X18.1214 Y-1.3325 I18.9964 J0.1831
G2 X17.284 Y-0.1778 I18.9964 J0.1831
G0 Z3.0
G0 X13.4445 Y5.4653
G0 Z-1.5
G1 F300.0 Z-3.0
G2 F800.0 X12.8778 Y6.1592 I25.5806 J15.9553
G3 X12.8682 Y6.1713 I12.2839 J5.7012
G3 X11.4868 Y6.5804 I11.882 J5.3778
G3 X11.3019 Y6.4899 I11.7209 J5.8679
G3 X11.0408 Y5.107 I11.8546 J5.6694
G3 X11.0574 Y5.084 I11.6578 J5.5334
G3 X11.796 Y4.1615 I25.5806 J15.9553
G2 X10.8772 Y4.3954 I11.7522 J5.9109
G2 Y7.4265 I11.7522 J5.9109
G2 X13.5022 Y5.9109 I11.7522 J5.9109
G2 X13.4445 Y5.4653 I11.7522 J5.9109
G0 Z3.0
G0 X7.5885 Y2.1381
G0 Z-1.5
G1 F300.0 Z-3.0
G3 F800.0 X8.0441 Y1.2921 I23.7834 J10.3134
G3 X8.3523 Y0.9978 I8.6947 J1.6651
G3 X8.8665 Y0.7449 I16.0 J15.9
G3 X9.3832 Y0.5123 I16.0 J15.9
G3 X10.3094 Y1.6083 I9.6794 J1.2013
G2 X10.0827 Y1.9697 I23.7834 J10.3134
G2 X9.4268 Y3.1569 I23.7834 J10.3134
G2 X10.6017 Y0.3949 I9.1859 J1.4235
G2 X7.5872 Y0.7117 I9.1859 J1.4235
G2 X7.5885 Y2.1381 I9.1859 J1.4235
G0 Z3.0
G0 X7.7992 Y8.9602
G0 Z-1.5
G1 F300.0 Z-3.0
G2 F800.0 X7.7485 Y9.8547 I23.7834 J10.3134
G3 X7.7479 Y9.8701 I6.9989 J9.8333
G3 X6.8709 Y11.0131 I6.4837 J9.8079
G3 X6.668 Y11.0485 I6.6414 J10.299
G3 X5.644 Y10.0832 I6.633 J10.0599
G3 X5.6438 Y10.0548 I6.3938 J10.0655
G3 X5.6991 Y8.8744 I23.7834 J10.3134
G2 X5.0933 Y9.6037 I6.692 J10.3155
G2 X6.8749 Y12.0559 I6.692 J10.3155
G2 X8.1078 Y9.2869 I6.692 J10.3155
G2 X7.7992 Y8.9602 I6.692 J10.3155
G0 Z3.0
G0 X1.1059 Y9.7106
G0 Z-1.5
G1 F300.0 Z-3.0
G3 F800.0 X0.9772 Y8.7584 I19.0132 J6.8054
G3 X1.0536 Y8.3391 I1.7228 J8.6776
G3 X1.321 Y7.8323 I16.0 J15.9
G3 X1.6022 Y7.3404 I16.0 J15.9
G3 X2.9958 Y7.6827 I2.2469 J7.7237
G2 X3.0248 Y8.1082 I19.0132 J6.8054
G2 X3.192 Y9.4542 I19.0132 J6.8054
G2 X2.519 Y6.5291 I1.9782 J8.1935
G2 X0.2665 Y8.5573 I1.9782 J8.1935
G2 X1.1059 Y9.7106 I1.9782 J8.1935
G0 Z3.0
G0 X5.2863 Y15.106
G0 Z-1.5
G1 F300.0 Z-3.0
G2 F800.0 X5.7711 Y15.8593 I19.0132 J6.8054
G3 X5.7797 Y15.8722 I5.152 J16.2826
G3 X5.7419 Y17.3124 I4.7203 J16.565
G3 X5.5987 Y17.4603 I5.1366 J16.8695
G3 X4.2028 Y17.2812 I4.9892 J16.6811
G3 X4.186 Y17.2584 I4.799 J16.8262
G3 X3.5369 Y16.2708 I19.0132 J6.8054
G2 X3.4754 Y17.217 I5.1872 J16.8531
G2 X6.3581 Y18.1536 I5.1872 J16.8531
G2 X5.7279 Y15.1888 I5.1872 J16.8531
G2 X5.2863 Y15.106 I5.1872 J16.8531
G0 Z3.0
G0 X0.3124 Y19.6472
G0 Z-1.5
G1 F300.0 Z-3.0
G3 F800.0 X-0.3515 Y18.9525 I13.092 J6.7712
G3 X-0.5361 Y18.5683 I0.2043 J18.4489
G3 X-0.6177 Y18.0012 I16.0 J15.9
G3 X-0.6792 Y17.4379 I16.0 J15.9
G3 X0.6493 Y16.8957 I0.0676 J17.3691
G2 X0.9229 Y17.223 I13.092 J6.7712
G2 X1.8493 Y18.2136 I13.092 J6.7712
G2 X-0.4144 Y16.2427 I0.1264 J17.9071
G2 X-1.0446 Y19.2076 I0.1264 J17.9071
G2 X0.3124 Y19.6472 I0.1264 J17.9071
G0 Z3.0
G0 X6.8657 Y21.555
G0 Z-1.5
G1 F300.0 Z-3.0
G2 F800.0 X7.7007 Y21.8795 I13.092 J6.7712
G3 X7.7152 Y21.8848 I7.4487 J22.5859
G3 X8.5312 Y23.0722 I7.2654 J23.068
G3 X8.5022 Y23.2761 I7.7812 J23.0697
G3 X7.2677 Y23.9517 I7.5511 J23.0039
G3 X7.2407 Y23.9431 I7.4826 J23.2331
G3 X6.1351 Y23.5257 I13.092 J6.7712
G2 X6.6415 Y24.3272 I7.8125 J23.0267
G2 X9.5242 Y23.3906 I7.8125 J23.0267
G2 X7.2717 Y21.3624 I7.8125 J23.0267
G2 X6.8657 Y21.555 I7.8125 J23.0267
G0 Z3.0
G0 X5.511 Y28.1525
G0 Z-2.5
G1 F300.0 Z-4.0
G3 F800.0 X4.5656 Y27.9806 I8.2816 J10.2239
G3 X4.1904 Y27.7784 I4.7192 J27.2465
G3 X3.791 Y27.3675 I16.0 J15.9
G3 X3.4102 Y26.948 I16.0 J15.9
G3 X4.1663 Y25.7284 I3.9739 J26.4533
G2 X4.58 Y25.8324 I8.2816 J10.2239
G2 X5.9118 Y26.0893 I8.2816 J10.2239
G2 X2.9219 Y25.8254 I4.3377 J26.854
G2 X4.1548 Y28.5945 I4.3377 J26.854
G2 X5.511 Y28.1525 I4.3377 J26.854
G0 Z3.0
G0 X11.9341 Y25.844
G0 Z-2.5
G1 F300.0 Z-4.0
G2 F800.0 X12.8004 Y25.6157 I8.2816 J10.2239
G3 X12.8153 Y25.6115 I13.0117 J26.3353
G3 X14.1733 Y26.0925 I13.1468 J26.8331
G3 X14.2697 Y26.2744 I13.5651 J26.5313
G3 X13.6681 Y27.5467 I13.3403 J26.6133
G3 X13.6412 Y27.5556 I13.4196 J26.839
G3 X12.5014 Y27.8677 I8.2816 J10.2239
G2 X13.3822 Y28.2186 I13.5651 J26.4782
G2 X15.1638 Y25.7664 I13.5651 J26.4782
G2 X12.1494 Y25.4495 I13.5651 J26.4782
G2 X11.9341 Y25.844 I13.5651 J26.4782
G0 Z3.0
G0 X14.716 Y31.9778
G0 Z-2.5
G1 F300.0 Z-4.0
G3 F800.0 X13.8502 Y32.3944 I6.4194 J15.8447
G3 X13.4278 Y32.4513 I13.543 J31.7102
G3 X12.8632 Y32.3537 I16.0 J15.9
G3 X12.3085 Y32.2382 I16.0 J15.9
G3 X12.2034 Y30.807 I12.4738 J31.5066
G2 X12.5991 Y30.648 I6.4194 J15.8447
G2 X13.8276 Y30.073 I6.4194 J15.8447
G2 X11.2536 Y31.6169 I13.0036 J31.6169
G2 X13.8786 Y33.1325 I13.0036 J31.6169
G2 X14.716 Y31.9778 I13.0036 J31.6169
G0 Z3.0
G0 X18.5555 Y26.3347
G0 Z-2.5
G1 F300.0 Z-4.0
G2 F800.0 X19.1222 Y25.6408 I6.4194 J15.8447
G3 X19.1318 Y25.6287 I19.7161 J26.0988
G3 X20.5132 Y25.2196 I20.118 J26.4222
G3 X20.6981 Y25.3101 I20.2791 J25.9321
G3 X20.9592 Y26.693 I20.1454 J26.1306
G3 X20.9426 Y26.716 I20.3422 J26.2666
G3 X20.204 Y27.6385 I6.4194 J15.8447
G2 X21.1228 Y27.4046 I20.2478 J25.8891
G2 Y24.3735 I20.2478 J25.8891
G2 X18.4978 Y25.8891 I20.2478 J25.8891
G2 X18.5555 Y26.3347 I20.2478 J25.8891
G0 Z3.0
G0 X24.4115 Y29.6619
G0 Z-2.5
G1 F300.0 Z-4.0
G3 F800.0 X23.9559 Y30.5079 I8.2166 J21.4866
G3 X23.6477 Y30.8022 I23.3053 J30.1349
G3 X23.1335 Y31.0551 I16.0 J15.9
G3 X22.6168 Y31.2877 I16.0 J15.9
G3 X21.6906 Y30.1917 I22.3206 J30.5987
G2 X21.9173 Y29.8303 I8.2166 J21.4866
G2 X22.5732 Y28.6431 I8.2166 J21.4866
G2 X21.3983 Y31.4051 I22.8141 J30.3765
G2 X24.4128 Y31.0883 I22.8141 J30.3765
G2 X24.4115 Y29.6619 I22.8141 J30.3765
G0 Z3.0
G0 X24.2008 Y22.8398
G0 Z-2.5
G1 F300.0 Z-4.0
G2 F800.0 X24.2515 Y21.9453 I8.2166 J21.4866
G3 X24.2521 Y21.9299 I25.0011 J21.9667
G3 X25.1291 Y20.7869 I25.5163 J21.9921
G3 X25.332 Y20.7515 I25.3586 J21.501
G3 X26.356 Y21.7168 I25.367 J21.7401
G3 X26.3562 Y21.7452 I25.6062 J21.7345
G3 X26.3009 Y22.9256 I8.2166 J21.4866
G2 X26.9067 Y22.1963 I25.308 J21.4845
G2 X25.1251 Y19.7441 I25.308 J21.4845
G2 X23.8922 Y22.5131 I25.308 J21.4845
G2 X24.2008 Y22.8398 I25.308 J21.4845
G0 Z3.0
G0 X30.8941 Y22.0894
G0 Z-2.5
G1 F300.0 Z-4.0
G3 F800.0 X31.0228 Y23.0416 I12.9868 J24.9946
G3 X30.9464 Y23.4609 I30.2772 J23.1224
G3 X30.679 Y23.9677 I16.0 J15.9
G3 X30.3978 Y24.4596 I16.0 J15.9
G3 X29.0042 Y24.1173 I29.7531 J24.0763
G2 X28.9752 Y23.6918 I12.9868 J24.9946
G2 X28.808 Y22.3458 I12.9868 J24.9946
G2 X29.481 Y25.2709 I30.0218 J23.6065
G2 X31.7335 Y23.2427 I30.0218 J23.6065
G2 X30.8941 Y22.0894 I30.0218 J23.6065
G0 Z3.0
G0 X26.7137 Y16.694
G0 Z-2.5
G1 F300.0 Z-4.0
G2 F800.0 X26.2289 Y15.9407 I12.9868 J24.9946
G3 X26.2203 Y15.9278 I26.848 J15.5174
G3 X26.2581 Y14.4876 I27.2797 J15.235
G3 X26.4013 Y14.3397 I26.8634 J14.9305
G3 X27.7972 Y14.5188 I27.0108 J15.1189
G3 X27.814 Y14.5416 I27.201 J14.9738
G3 X28.4631 Y15.5292 I12.9868 J24.9946
G2 X28.5246 Y14.583 I26.8128 J14.9469
G2 X25.6419 Y13.6464 I26.8128 J14.9469
G2 X26.2721 Y16.6112 I26.8128 J14.9469
G2 X26.7137 Y16.694 I26.8128 J14.9469
G0 Z3.0
G0 X31.6876 Y12.1528
G0 Z-2.5
G1 F300.0 Z-4.0
G3 F800.0 X32.3515 Y12.8475 I18.908 J25.0288
G3 X32.5361 Y13.2317 I31.7957 J13.3511
G3 X32.6177 Y13.7988 I16.0 J15.9
G3 X32.6792 Y14.3621 I16.0 J15.9
G3 X31.3507 Y14.9043 I31.9324 J14.4309
G2 X31.0771 Y14.577 I18.908 J25.0288
G2 X30.1507 Y13.5864 I18.908 J25.0288
G2 X32.4144 Y15.5573 I31.8736 J13.8929
G2 X33.0446 Y12.5924 I31.8736 J13.8929
G2 X31.6876 Y12.1528 I31.8736 J13.8929
G0 Z3.0
G0 X25.1343 Y10.245
G0 Z-2.5
G1 F300.0 Z-4.0
G2 F800.0 X24.2993 Y9.9205 I18.908 J25.0288
G3 X24.2848 Y9.9152 I24.5513 J9.2141
G3 X23.4688 Y8.7278 I24.7346 J8.732
G3 X23.4978 Y8.5239 I24.2188 J8.7303
G3 X24.7323 Y7.8483 I24.4489 J8.7961
G3 X24.7593 Y7.8569 I24.5174 J8.5669
G3 X25.8649 Y8.2743 I18.908 J25.0288
G2 X25.3585 Y7.4728 I24.1875 J8.7733
G2 X22.4758 Y8.4094 I24.1875 J8.7733
G2 X24.7283 Y10.4376 I24.1875 J8.7733
G2 X25.1343 Y10.245 I24.1875 J8.7733
G0 Z3.0
G0 X26.489 Y3.6475
G0 Z-2.5
G1 F300.0 Z-4.0
G3 F800.0 X27.4344 Y3.8194 I23.7184 J21.5761
G3 X27.8096 Y4.0216 I27.2808 J4.5535
G3 X28.209 Y4.4325 I16.0 J15.9
G3 X28.5898 Y4.852 I16.0 J15.9
G3 X27.8337 Y6.0716 I28.0261 J5.3467
G2 X27.42 Y5.9676 I23.7184 J21.5761
G2 X26.0882 Y5.7107 I23.7184 J21.5761
G2 X29.0781 Y5.9746 I27.6623 J4.946
G2 X27.8452 Y3.2055 I27.6623 J4.946
G2 X26.489 Y3.6475 I27.6623 J4.946
G0 Z3.0
G0 X20.0659 Y5.956
G0 Z-2.5
G1 F300.0 Z-4.0
G2 F800.0 X19.1996 Y6.1843 I23.7184 J21.5761
G3 X19.1847 Y6.1885 I18.9883 J5.4647
G3 X17.8267 Y5.7075 I18.8532 J4.9669
G3 X17.7303 Y5.5256 I18.4349 J5.2687
G3 X18.3319 Y4.2533 I18.6597 J5.1867
G3 X18.3588 Y4.2444 I18.5804 J4.961
G3 X19.4986 Y3.9323 I23.7184 J21.5761
G2 X18.6178 Y3.5814 I18.4349 J5.3218
G2 X16.8362 Y6.0336 I18.4349 J5.3218
G2 X19.8506 Y6.3505 I18.4349 J5.3218
G2 X20.0659 Y5.956 I18.4349 J5.3218
G0 Z3.0
G0 X17.284 Y-0.1778
G0 Z-2.5
G1 F300.0 Z-4.0
G3 F800.0 X18.1498 Y-0.5944 I25.5806 J15.9553
G3 X18.5722 Y-0.6513 I18.457 J0.0898
G3 X19.1368 Y-0.5537 I16.0 J15.9
G3 X19.6915 Y-0.4382 I16.0 J15.9
G3 X19.7966 Y0.993 I19.5262 J0.2934
G2 X19.4009 Y1.152 I25.5806 J15.9553
G2 X18.1724 Y1.727 I25.5806 J15.9553
G2 X20.7464 Y0.1831 I18.9964 J0.1831
G2 X18.1214 Y-1.3325 I18.9964 J0.1831
G2 X17.284 Y-0.1778 I18.9964 J0.1831
G0 Z3.0
G0 X13.4445 Y5.4653
G0 Z-2.5
G1 F300.0 Z-4.0
G2 F800.0 X12.8778 Y6.1592 I25.5806 J15.9553
G3 X12.8682 Y6.1713 I12.2839 J5.7012
G3 X11.4868 Y6.5804 I11.882 J5.3778
G3 X11.3019 Y6.4899 I11.7209 J5.8679
G3 X11.0408 Y5.107 I11.8546 J5.6694
G3 X11.0574 Y5.084 I11.6578 J5.5334
G3 X11.796 Y4.1615 I25.5806 J15.9553
G2 X10.8772 Y4.3954 I11.7522 J5.9109
G2 Y7.4265 I11.7522 J5.9109
G2 X13.5022 Y5.9109 I11.7522 J5.9109
G2 X13.4445 Y5.4653 I11.7522 J5.9109
G0 Z3.0
G0 X7.5885 Y2.1381
G0 Z-2.5
G1 F300.0 Z-4.0
G3 F800.0 X8.0441 Y1.2921 I23.7834 J10.3134
G3 X8.3523 Y0.9978 I8.6947 J1.6651
G3 X8.8665 Y0.7449 I16.0 J15.9
G3 X9.3832 Y0.5123 I16.0 J15.9
G3 X10.3094 Y1.6083 I9.6794 J1.2013
G2 X10.0827 Y1.9697 I23.7834 J10.3134
G2 X9.4268 Y3.1569 I23.7834 J10.3134
G2 X10.6017 Y0.3949 I9.1859 J1.4235
G2 X7.5872 Y0.7117 I9.1859 J1.4235
G2 X7.5885 Y2.1381 I9.1859 J1.4235
G0 Z3.0
G0 X7.7992 Y8.9602
G0 Z-2.5
G1 F300.0 Z-4.0
G2 F800.0 X7.7485 Y9.8547 I23.7834 J10.3134
G3 X7.7479 Y9.8701 I6.9989 J9.8333
G3 X6.8709 Y11.0131 I6.4837 J9.8079
G3 X6.668 Y11.0485 I6.6414 J10.299
G3 X5.644 Y10.0832 I6.633 J10.0599
G3 X5.6438 Y10.0548 I6.3938 J10.0655
G3 X5.6991 Y8.8744 I23.7834 J10.3134
G2 X5.0933 Y9.6037 I6.692 J10.3155
G2 X6.8749 Y12.0559 I6.692 J10.3155
G2 X8.1078 Y9.2869 I6.692 J10.3155
G2 X7.7992 Y8.9602 I6.692 J10.3155
G0 Z3.0
G0 X1.1059 Y9.7106
G0 Z-2.5
G1 F300.0 Z-4.0
G3 F800.0 X0.9772 Y8.7584 I19.0132 J6.8054
G3 X1.0536 Y8.3391 I1.7228 J8.6776
G3 X1.321 Y7.8323 I16.0 J15.9
G3 X1.6022 Y7.3404 I16.0 J15.9
G3 X2.9958 Y7.6827 I2.2469 J7.7237
G2 X3.0248 Y8.1082 I19.0132 J6.8054
G2 X3.192 Y9.4542 I19.0132 J6.8054
G2 X2.519 Y6.5291 I1.9782 J8.1935
G2 X0.2665 Y8.5573 I1.9782 J8.1935
G2 X1.1059 Y9.7106 I1.9782 J8.1935
G0 Z3.0
G0 X5.2863 Y15.106
G0 Z-2.5
G1 F300.0 Z-4.0
G2 F800.0 X5.7711 Y15.8593 I19.0132 J6.8054
G3 X5.7797 Y15.8722 I5.152 J16.2826
G3 X5.7419 Y17.3124 I4.7203 J16.565
G3 X5.5987 Y17.4603 I5.1366 J16.8695
G3 X4.2028 Y17.2812 I4.9892 J16.6811
G3 X4.186 Y17.2584 I4.799 J16.8262
G3 X3.5369 Y16.2708 I19.0132 J6.8054
G2 X3.4754 Y17.217 I5.1872 J16.8531
G2 X6.3581 Y18.1536 I5.1872 J16.8531
G2 X5.7279 Y15.1888 I5.1872 J16.8531
G2 X5.2863 Y15.106 I5.1872 J16.8531
G0 Z3.0
G0 X0.3124 Y19.6472
G0 Z-2.5
G1 F300.0 Z-4.0
G3 F800.0 X-0.3515 Y18.9525 I13.092 J6.7712
G3 X-0.5361 Y18.5683 I0.2043 J18.4489
G3 X-0.6177 Y18.0012 I16.0 J15.9
G3 X-0.6792 Y17.4379 I16.0 J15.9
G3 X0.6493 Y16.8957 I0.0676 J17.3691
G2 X0.9229 Y17.223 I13.092 J6.7712
G2 X1.8493 Y18.2136 I13.092 J6.7712
G2 X-0.4144 Y16.2427 I0.1264 J17.9071
G2 X-1.0446 Y19.2076 I0.1264 J17.9071
G2 X0.3124 Y19.6472 I0.1264 J17.9071
G0 Z3.0
G0 X6.8657 Y21.555
G0 Z-2.5
G1 F300.0 Z-4.0
G2 F800.0 X7.7007 Y21.8795 I13.092 J6.7712
G3 X7.7152 Y21.8848 I7.4487 J22.5859
G3 X8.5312 Y23.0722 I7.2654 J23.068
G3 X8.5022 Y23.2761 I7.7812 J23.0697
G3 X7.2677 Y23.9517 I7.5511 J23.0039
G3 X7.2407 Y23.9431 I7.4826 J23.2331
G3 X6.1351 Y23.5257 I13.092 J6.7712
G2 X6.6415 Y24.3272 I7.8125 J23.0267
G2 X9.5242 Y23.3906 I7.8125 J23.0267
G2 X7.2717 Y21.3624 I7.8125 J23.0267
G2 X6.8657 Y21.555 I7.8125 J23.0267
G0 Z3.0
G0 X5.511 Y28.1525
G0 Z-3.5
G1 F300.0 Z-5.0
G3 F800.0 X4.5656 Y27.9806 I8.2816 J10.2239
G3 X4.1904 Y27.7784 I4.7192 J27.2465
G3 X3.791 Y27.3675 I16.0 J15.9
G3 X3.4102 Y26.948 I16.0 J15.9
G3 X4.1663 Y25.7284 I3.9739 J26.4533
G2 X4.58 Y25.8324 I8.2816 J10.2239
G2 X5.9118 Y26.0893 I8.2816 J10.2239
G2 X2.9219 Y25.8254 I4.3377 J26.854
G2 X4.1548 Y28.5945 I4.3377 J26.854
G2 X5.511 Y28.1525 I4.3377 J26.854
G0 Z3.0
G0 X11.9341 Y25.844
G0 Z-3.5
G1 F300.0 Z-5.0
G2 F800.0 X12.8004 Y25.6157 I8.2816 J10.2239
G3 X12.8153 Y25.6115 I13.0117 J26.3353
G3 X14.1733 Y26.0925 I13.1468 J26.8331
G3 X14.2697 Y26.2744 I13.5651 J26.5313
G3 X13.6681 Y27.5467 I13.3403 J26.6133
G3 X13.6412 Y27.5556 I13.4196 J26.839
G3 X12.5014 Y27.8677 I8.2816 J10.2239
G2 X13.3822 Y28.2186 I13.5651 J26.4782
G2 X15.1638 Y25.7664 I13.5651 J26.4782
G2 X12.1494 Y25.4495 I13.5651 J26.4782
G2 X11.9341 Y25.844 I13.5651 J26.4782
G0 Z3.0
G0 X14.716 Y31.9778
G0 Z-3.5
G1 F300.0 Z-5.0
G3 F800.0 X13.8502 Y32.3944 I6.4194 J15.8447
G3 X13.4278 Y32.4513 I13.543 J31.7102
G3 X12.8632 Y32.3537 I16.0 J15.9
G3 X12.3085 Y32.2382 I16.0 J15.9
G3 X12.2034 Y30.807 I12.4738 J31.5066
G2 X12.5991 Y30.648 I6.4194 J15.8447
G2 X13.8276 Y30.073 I6.4194 J15.8447
G2 X11.2536 Y31.6169 I13.0036 J31.6169
G2 X13.8786 Y33.1325 I13.0036 J31.6169
G2 X14.716 Y31.9778 I13.0036 J31.6169
G0 Z3.0
G0 X18.5555 Y26.3347
G0 Z-3.5
G1 F300.0 Z-5.0
G2 F800.0 X19.1222 Y25.6408 I6.4194 J15.8447
G3 X19.1318 Y25.6287 I19.7161 J26.0988
G3 X20.5132 Y25.2196 I20.118 J26.4222
G3 X20.6981 Y25.3101 I20.2791 J25.9321
G3 X20.9592 Y26.693 I20.1454 J26.1306
G3 X20.9426 Y26.716 I20.3422 J26.2666
G3 X20.204 Y27.6385 I6.4194 J15.8447
G2 X21.1228 Y27.4046 I20.2478 J25.8891
G2 Y24.3735 I20.2478 J25.8891
G2 X18.4978 Y25.8891 I20.2478 J25.8891
G2 X18.5555 Y26.3347 I20.2478 J25.8891
G0 Z3.0
G0 X24.4115 Y29.6619
G0 Z-3.5
G1 F300.0 Z-5.0
G3 F800.0 X23.9559 Y30.5079 I8.2166 J21.4866
G3 X23.6477 Y30.8022 I23.3053 J30.1349
G3 X23.1335 Y31.0551 I16.0 J15.9
G3 X22.6168 Y31.2877 I16.0 J15.9
G3 X21.6906 Y30.1917 I22.3206 J30.5987
G2 X21.9173 Y29.8303 I8.2166 J21.4866
G2 X22.5732 Y28.6431 I8.2166 J21.4866
G2 X21.3983 Y31.4051 I22.8141 J30.3765
G2 X24.4128 Y31.0883 I22.8141 J30.3765
G2 X24.4115 Y29.6619 I22.8141 J30.3765
G0 Z3.0
G0 X24.2008 Y22.8398
G0 Z-3.5
G1 F300.0 Z-5.0
G2 F800.0 X24.2515 Y21.9453 I8.2166 J21.4866
G3 X24.2521 Y21.9299 I25.0011 J21.9667
G3 X25.1291 Y20.7869 I25.5163 J21.9921
G3 X25.332 Y20.7515 I25.3586 J21.501
G3 X26.356 Y21.7168 I25.367 J21.7401
G3 X26.3562 Y21.7452 I25.6062 J21.7345
G3 X26.3009 Y22.9256 I8.2166 J21.4866
G2 X26.9067 Y22.1963 I25.308 J21.4845
G2 X25.1251 Y19.7441 I25.308 J21.4845
G2 X23.8922 Y22.5131 I25.308 J21.4845
G2 X24.2008 Y22.8398 I25.308 J21.4845
G0 Z3.0
G0 X30.8941 Y22.0894
G0 Z-3.5
G1 F300.0 Z-5.0
G3 F800.0 X31.0228 Y23.0416 I12.9868 J24.9946
G3 X30.9464 Y23.4609 I30.2772 J23.1224
G3 X30.679 Y23.9677 I16.0 J15.9
G3 X30.3978 Y24.4596 I16.0 J15.9
G3 X29.0042 Y24.1173 I29.7531 J24.0763
G2 X28.9752 Y23.6918 I12.9868 J24.9946
G2 X28.808 Y22.3458 I12.9868 J24.9946
G2 X29.481 Y25.2709 I30.0218 J23.6065
G2 X31.7335 Y23.2427 I30.0218 J23.6065
G2 X30.8941 Y22.0894 I30.0218 J23.6065
G0 Z3.0
G0 X26.7137 Y16.694
G0 Z-3.5
G1 F300.0 Z-5.0
G2 F800.0 X26.2289 Y15.9407 I12.9868 J24.9946
G3 X26.2203 Y15.9278 I26.848 J15.5174
G3 X26.2581 Y14.4876 I27.2797 J15.235
G3 X26.4013 Y14.3397 I26.8634 J14.9305
G3 X27.7972 Y14.5188 I27.0108 J15.1189
G3 X27.814 Y14.5416 I27.201 J14.9738
G3 X28.4631 Y15.5292 I12.9868 J24.9946
G2 X28.5246 Y14.583 I26.8128 J14.9469
G2 X25.6419 Y13.6464 I26.8128 J14.9469
G2 X26.2721 Y16.6112 I26.8128 J14.9469
G2 X26.7137 Y16.694 I26.8128 J14.9469
G0 Z3.0
G0 X31.6876 Y12.1528
G0 Z-3.5
G1 F300.0 Z-5.0
G3 F800.0 X32.3515 Y12.8475 I18.908 J25.0288
G3 X32.5361 Y13.2317 I31.7957 J13.3511
G3 X32.6177 Y13.7988 I16.0 J15.9
G3 X32.6792 Y14.3621 I16.0 J15.9
G3 X31.3507 Y14.9043 I31.9324 J14.4309
G2 X31.0771 Y14.577 I18.908 J25.0288
G2 X30.1507 Y13.5864 I18.908 J25.0288
G2 X32.4144 Y15.5573 I31.8736 J13.8929
G2 X33.0446 Y12.5924 I31.8736 J13.8929
G2 X31.6876 Y12.1528 I31.8736 J13.8929
G0 Z3.0
G0 X25.1343 Y10.245
G0 Z-3.5
G1 F300.0 Z-5.0
G2 F800.0 X24.2993 Y9.9205 I18.908 J25.0288
G3 X24.2848 Y9.9152 I24.5513 J9.2141
G3 X23.4688 Y8.7278 I24.7346 J8.732
G3 X23.4978 Y8.5239 I24.2188 J8.7303
G3 X24.7323 Y7.8483 I24.4489 J8.7961
G3 X24.7593 Y7.8569 I24.5174 J8.5669
G3 X25.8649 Y8.2743 I18.908 J25.0288
G2 X25.3585 Y7.4728 I24.1875 J8.7733
G2 X22.4758 Y8.4094 I24.1875 J8.7733
G2 X24.7283 Y10.4376 I24.1875 J8.7733
G2 X25.1343 Y10.245 I24.1875 J8.7733
G0 Z3.0
G0 X26.489 Y3.6475
G0 Z-3.5
G1 F300.0 Z-5.0
G3 F800.0 X27.4344 Y3.8194 I23.7184 J21.5761
G3 X27.8096 Y4.0216 I27.2808 J4.5535
G3 X28.209 Y4.4325 I16.0 J15.9
G3 X28.5898 Y4.852 I16.0 J15.9
G3 X27.8337 Y6.0716 I28.0261 J5.3467
G2 X27.42 Y5.9676 I23.7184 J21.5761
G2 X26.0882 Y5.7107 I23.7184 J21.5761
G2 X29.0781 Y5.9746 I27.6623 J4.946
G2 X27.8452 Y3.2055 I27.6623 J4.946
G2 X26.489 Y3.6475 I27.6623 J4.946
G0 Z3.0
G0 X20.0659 Y5.956
G0 Z-3.5
G1 F300.0 Z-5.0
G2 F800.0 X19.1996 Y6.1843 I23.7184 J21.5761
G3 X19.1847 Y6.1885 I18.9883 J5.4647
G3 X17.8267 Y5.7075 I18.8532 J4.9669
G3 X17.7303 Y5.5256 I18.4349 J5.2687
G3 X18.3319 Y4.2533 I18.6597 J5.1867
G3 X18.3588 Y4.2444 I18.5804 J4.961
G3 X19.4986 Y3.9323 I23.7184 J21.5761
G2 X18.6178 Y3.5814 I18.4349 J5.3218
G2 X16.8362 Y6.0336 I18.4349 J5.3218
G2 X19.8506 Y6.3505 I18.4349 J5.3218
G2 X20.0659 Y5.956 I18.4349 J5.3218
G0 Z3.0
G0 X17.284 Y-0.1778
G0 Z-3.5
G1 F300.0 Z-5.0
G3 F800.0 X18.1498 Y-0.5944 I25.5806 J15.9553
G3 X18.5722 Y-0.6513 I18.457 J0.0898
G3 X19.1368 Y-0.5537 I16.0 J15.9
G3 X19.6915 Y-0.4382 I16.0 J15.9
G3 X19.7966 Y0.993 I19.5262 J0.2934
G2 X19.4009 Y1.152 I25.5806 J15.9553
G2 X18.1724 Y1.727 I25.5806 J15.9553
G2 X20.7464 Y0.1831 I18.9964 J0.1831
G2 X18.1214 Y-1.3325 I18.9964 J0.1831
G2 X17.284 Y-0.1778 I18.9964 J0.1831
G0 Z3.0
G0 X13.4445 Y5.4653
G0 Z-3.5
G1 F300.0 Z-5.0
G2 F800.0 X12.8778 Y6.1592 I25.5806 J15.9553
G3 X12.8682 Y6.1713 I12.2839 J5.7012
G3 X11.4868 Y6.5804 I11.882 J5.3778
G3 X11.3019 Y6.4899 I11.7209 J5.8679
G3 X11.0408 Y5.107 I11.8546 J5.6694
G3 X11.0574 Y5.084 I11.6578 J5.5334
G3 X11.796 Y4.1615 I25.5806 J15.9553
G2 X10.8772 Y4.3954 I11.7522 J5.9109
G2 Y7.4265 I11.7522 J5.9109
G2 X13.5022 Y5.9109 I11.7522 J5.9109
G2 X13.4445 Y5.4653 I11.7522 J5.9109
G0 Z3.0
G0 X7.5885 Y2.1381
G0 Z-3.5
G1 F300.0 Z-5.0
G3 F800.0 X8.0441 Y1.2921 I23.7834 J10.3134
G3 X8.3523 Y0.9978 I8.6947 J1.6651
G3 X8.8665 Y0.7449 I16.0 J15.9
G3 X9.3832 Y0.5123 I16.0 J15.9
G3 X10.3094 Y1.6083 I9.6794 J1.2013
G2 X10.0827 Y1.9697 I23.7834 J10.3134
G2 X9.4268 Y3.1569 I23.7834 J10.3134
G2 X10.6017 Y0.3949 I9.1859 J1.4235
G2 X7.5872 Y0.7117 I9.1859 J1.4235
G2 X7.5885 Y2.1381 I9.1859 J1.4235
G0 Z3.0
G0 X7.7992 Y8.9602
G0 Z-3.5
G1 F300.0 Z-5.0
G2 F800.0 X7.7485 Y9.8547 I23.7834 J10.3134
G3 X7.7479 Y9.8701 I6.9989 J9.8333
G3 X6.8709 Y11.0131 I6.4837 J9.8079
G3 X6.668 Y11.0485 I6.6414 J10.299
G3 X5.644 Y10.0832 I6.633 J10.0599
G3 X5.6438 Y10.0548 I6.3938 J10.0655
G3 X5.6991 Y8.8744 I23.7834 J10.3134
G2 X5.0933 Y9.6037 I6.692 J10.3155
G2 X6.8749 Y12.0559 I6.692 J10.3155
G2 X8.1078 Y9.2869 I6.692 J10.3155
G2 X7.7992 Y8.9602 I6.692 J10.3155
G0 Z3.0
G0 X1.1059 Y9.7106
G0 Z-3.5
G1 F300.0 Z-5.0
G3 F800.0 X0.9772 Y8.7584 I19.0132 J6.8054
G3 X1.0536 Y8.3391 I1.7228 J8.6776
G3 X1.321 Y7.8323 I16.0 J15.9
G3 X1.6022 Y7.3404 I16.0 J15.9
G3 X2.9958 Y7.6827 I2.2469 J7.7237
G2 X3.0248 Y8.1082 I19.0132 J6.8054
G2 X3.192 Y9.4542 I19.0132 J6.8054
G2 X2.519 Y6.5291 I1.9782 J8.1935
G2 X0.2665 Y8.5573 I1.9782 J8.1935
G2 X1.1059 Y9.7106 I1.9782 J8.1935
G0 Z3.0
G0 X5.2863 Y15.106
G0 Z-3.5
G1 F300.0 Z-5.0
G2 F800.0 X5.7711 Y15.8593 I19.0132 J6.8054
G3 X5.7797 Y15.8722 I5.152 J16.2826
G3 X5.7419 Y17.3124 I4.7203 J16.565
G3 X5.5987 Y17.4603 I5.1366 J16.8695
G3 X4.2028 Y17.2812 I4.9892 J16.6811
G3 X4.186 Y17.2584 I4.799 J16.8262
G3 X3.5369 Y16.2708 I19.0132 J6.8054
G2 X3.4754 Y17.217 I5.1872 J16.8531
G2 X6.3581 Y18.1536 I5.1872 J16.8531
G2 X5.7279 Y15.1888 I5.1872 J16.8531
G2 X5.2863 Y15.106 I5.1872 J16.8531
G0 Z3.0
G0 X0.3124 Y19.6472
G0 Z-3.5
G1 F300.0 Z-5.0
G3 F800.0 X-0.3515 Y18.9525 I13.092 J6.7712
G3 X-0.5361 Y18.5683 I0.2043 J18.4489
G3 X-0.6177 Y18.0012 I16.0 J15.9
G3 X-0.6792 Y17.4379 I16.0 J15.9
G3 X0.6493 Y16.8957 I0.0676 J17.3691
G2 X0.9229 Y17.223 I13.092 J6.7712
G2 X1.8493 Y18.2136 I13.092 J6.7712
G2 X-0.4144 Y16.2427 I0.1264 J17.9071
G2 X-1.0446 Y19.2076 I0.1264 J17.9071
G2 X0.3124 Y19.6472 I0.1264 J17.9071
G0 Z3.0
G0 X6.8657 Y21.555
G0 Z-3.5
G1 F300.0 Z-5.0
G2 F800.0 X7.7007 Y21.8795 I13.092 J6.7712
G3 X7.7152 Y21.8848 I7.4487 J22.5859
G3 X8.5312 Y23.0722 I7.2654 J23.068
G3 X8.5022 Y23.2761 I7.7812 J23.0697
G3 X7.2677 Y23.9517 I7.5511 J23.0039
G3 X7.2407 Y23.9431 I7.4826 J23.2331
G3 X6.1351 Y23.5257 I13.092 J6.7712
G2 X6.6415 Y24.3272 I7.8125 J23.0267
G2 X9.5242 Y23.3906 I7.8125 J23.0267
G2 X7.2717 Y21.3624 I7.8125 J23.0267
G2 X6.8657 Y21.555 I7.8125 J23.0267
G0 Z3.0
G0 X5.511 Y28.1525
G0 Z-4.5
G1 F300.0 Z-6.0
G3 F800.0 X4.5656 Y27.9806 I8.2816 J10.2239
G3 X4.1904 Y27.7784 I4.7192 J27.2465
G3 X3.791 Y27.3675 I16.0 J15.9
G3 X3.4102 Y26.948 I16.0 J15.9
G3 X4.1663 Y25.7284 I3.9739 J26.4533
G2 X4.58 Y25.8324 I8.2816 J10.2239
G2 X5.9118 Y26.0893 I8.2816 J10.2239
G2 X2.9219 Y25.8254 I4.3377 J26.854
G2 X4.1548 Y28.5945 I4.3377 J26.854
G2 X5.511 Y28.1525 I4.3377 J26.854
G0 Z3.0
G0 X11.9341 Y25.844
G0 Z-4.5
G1 F300.0 Z-6.0
G2 F800.0 X12.8004 Y25.6157 I8.2816 J10.2239
G3 X12.8153 Y25.6115 I13.0117 J26.3353
G3 X14.1733 Y26.0925 I13.1468 J26.8331
G3 X14.2697 Y26.2744 I13.5651 J26.5313
G3 X13.6681 Y27.5467 I13.3403 J26.6133
G3 X13.6412 Y27.5556 I13.4196 J26.839
G3 X12.5014 Y27.8677 I8.2816 J10.2239
G2 X13.3822 Y28.2186 I13.5651 J26.4782
G2 X15.1638 Y25.7664 I13.5651 J26.4782
G2 X12.1494 Y25.4495 I13.5651 J26.4782
G2 X11.9341 Y25.844 I13.5651 J26.4782
G0 Z3.0
G0 X14.716 Y31.9778
G0 Z-4.5
G1 F300.0 Z-6.0
G3 F800.0 X13.8502 Y32.3944 I6.4194 J15.8447
G3 X13.4278 Y32.4513 I13.543 J31.7102
G3 X12.8632 Y32.3537 I16.0 J15.9
G3 X12.3085 Y32.2382 I16.0 J15.9
G3 X12.2034 Y30.807 I12.4738 J31.5066
G2 X12.5991 Y30.648 I6.4194 J15.8447
G2 X13.8276 Y30.073 I6.4194 J15.8447
G2 X11.2536 Y31.6169 I13.0036 J31.6169
G2 X13.8786 Y33.1325 I13.0036 J31.6169
G2 X14.716 Y31.9778 I13.0036 J31.6169
G0 Z3.0
G0 X18.5555 Y26.3347
G0 Z-4.5
G1 F300.0 Z-6.0
G2 F800.0 X19.1222 Y25.6408 I6.4194 J15.8447
G3 X19.1318 Y25.6287 I19.7161 J26.0988
G3 X20.5132 Y25.2196 I20.118 J26.4222
G3 X20.6981 Y25.3101 I20.2791 J25.9321
G3 X20.9592 Y26.693 I20.1454 J26.1306
G3 X20.9426 Y26.716 I20.3422 J26.2666
G3 X20.204 Y27.6385 I6.4194 J15.8447
G2 X21.1228 Y27.4046 I20.2478 J25.8891
G2 Y24.3735 I20.2478 J25.8891
G2 X18.4978 Y25.8891 I20.2478 J25.8891
G2 X18.5555 Y26.3347 I20.2478 J25.8891
G0 Z3.0
G0 X24.4115 Y29.6619
G0 Z-4.5
G1 F300.0 Z-6.0
G3 F800.0 X23.9559 Y30.5079 I8.2166 J21.4866
G3 X23.6477 Y30.8022 I23.3053 J30.1349
G3 X23.1335 Y31.0551 I16.0 J15.9
G3 X22.6168 Y31.2877 I16.0 J15.9
G3 X21.6906 Y30.1917 I22.3206 J30.5987
G2 X21.9173 Y29.8303 I8.2166 J21.4866
G2 X22.5732 Y28.6431 I8.2166 J21.4866
G2 X21.3983 Y31.4051 I22.8141 J30.3765
G2 X24.4128 Y31.0883 I22.8141 J30.3765
G2 X24.4115 Y29.6619 I22.8141 J30.3765
G0 Z3.0
G0 X24.2008 Y22.8398
G0 Z-4.5
G1 F300.0 Z-6.0
G2 F800.0 X24.2515 Y21.9453 I8.2166 J21.4866
G3 X24.2521 Y21.9299 I25.0011 J21.9667
G3 X25.1291 Y20.7869 I25.5163 J21.9921
G3 X25.332 Y20.7515 I25.3586 J21.501
G3 X26.356 Y21.7168 I25.367 J21.7401
G3 X26.3562 Y21.7452 I25.6062 J21.7345
G3 X26.3009 Y22.9256 I8.2166 J21.4866
G2 X26.9067 Y22.1963 I25.308 J21.4845
G2 X25.1251 Y19.7441 I25.308 J21.4845
G2 X23.8922 Y22.5131 I25.308 J21.4845
G2 X24.2008 Y22.8398 I25.308 J21.4845
G0 Z3.0
G0 X30.8941 Y22.0894
G0 Z-4.5
G1 F300.0 Z-6.0
G3 F800.0 X31.0228 Y23.0416 I12.9868 J24.9946
G3 X30.9464 Y23.4609 I30.2772 J23.1224
G3 X30.679 Y23.9677 I16.0 J15.9
G3 X30.3978 Y24.4596 I16.0 J15.9
G3 X29.0042 Y24.1173 I29.7531 J24.0763
G2 X28.9752 Y23.6918 I12.9868 J24.9946
G2 X28.808 Y22.3458 I12.9868 J24.9946
G2 X29.481 Y25.2709 I30.0218 J23.6065
G2 X31.7335 Y23.2427 I30.0218 J23.6065
G2 X30.8941 Y22.0894 I30.0218 J23.6065
G0 Z3.0
G0 X26.7137 Y16.694
G0 Z-4.5
G1 F300.0 Z-6.0
G2 F800.0 X26.2289 Y15.9407 I12.9868 J24.9946
G3 X26.2203 Y15.9278 I26.848 J15.5174
G3 X26.2581 Y14.4876 I27.2797 J15.235
G3 X26.4013 Y14.3397 I26.8634 J14.9305
G3 X27.7972 Y14.5188 I27.0108 J15.1189
G3 X27.814 Y14.5416 I27.201 J14.9738
G3 X28.4631 Y15.5292 I12.9868 J24.9946
G2 X28.5246 Y14.583 I26.8128 J14.9469
G2 X25.6419 Y13.6464 I26.8128 J14.9469
G2 X26.2721 Y16.6112 I26.8128 J14.9469
G2 X26.7137 Y16.694 I26.8128 J14.9469
G0 Z3.0
G0 X31.6876 Y12.1528
G0 Z-4.5
G1 F300.0 Z-6.0
G3 F800.0 X32.3515 Y12.8475 I18.908 J25.0288
G3 X32.5361 Y13.2317 I31.7957 J13.3511
G3 X32.6177 Y13.7988 I16.0 J15.9
G3 X32.6792 Y14.3621 I16.0 J15.9
G3 X31.3507 Y14.9043 I31.9324 J14.4309
G2 X31.0771 Y14.577 I18.908 J25.0288
G2 X30.1507 Y13.5864 I18.908 J25.0288
G2 X32.4144 Y15.5573 I31.8736 J13.8929
G2 X33.0446 Y12.5924 I31.8736 J13.8929
G2 X31.6876 Y12.1528 I31.8736 J13.8929
G0 Z3.0
G0 X25.1343 Y10.245
G0 Z-4.5
G1 F300.0 Z-6.0
G2 F800.0 X24.2993 Y9.9205 I18.908 J25.0288
G3 X24.2848 Y9.9152 I24.5513 J9.2141
G3 X23.4688 Y8.7278 I24.7346 J8.732
G3 X23.4978 Y8.5239 I24.2188 J8.7303
G3 X24.7323 Y7.8483 I24.4489 J8.7961
G3 X24.7593 Y7.8569 I24.5174 J8.5669
G3 X25.8649 Y8.2743 I18.908 J25.0288
G2 X25.3585 Y7.4728 I24.1875 J8.7733
G2 X22.4758 Y8.4094 I24.1875 J8.7733
G2 X24.7283 Y10.4376 I24.1875 J8.7733
G2 X25.1343 Y10.245 I24.1875 J8.7733
G0 Z3.0
G0 X26.489 Y3.6475
G0 Z-4.5
G1 F300.0 Z-6.0
G3 F800.0 X27.4344 Y3.8194 I23.7184 J21.5761
G3 X27.8096 Y4.0216 I27.2808 J4.5535
G3 X28.209 Y4.4325 I16.0 J15.9
G3 X28.5898 Y4.852 I16.0 J15.9
G3 X27.8337 Y6.0716 I28.0261 J5.3467
G2 X27.42 Y5.9676 I23.7184 J21.5761
G2 X26.0882 Y5.7107 I23.7184 J21.5761
G2 X29.0781 Y5.9746 I27.6623 J4.946
G2 X27.8452 Y3.2055 I27.6623 J4.946
G2 X26.489 Y3.6475 I27.6623 J4.946
G0 Z3.0
G0 X20.0659 Y5.956
G0 Z-4.5
G1 F300.0 Z-6.0
G2 F800.0 X19.1996 Y6.1843 I23.7184 J21.5761
G3 X19.1847 Y6.1885 I18.9883 J5.4647
G3 X17.8267 Y5.7075 I18.8532 J4.9669
G3 X17.7303 Y5.5256 I18.4349 J5.2687
G3 X18.3319 Y4.2533 I18.6597 J5.1867
G3 X18.3588 Y4.2444 I18.5804 J4.961
G3 X19.4986 Y3.9323 I23.7184 J21.5761
G2 X18.6178 Y3.5814 I18.4349 J5.3218
G2 X16.8362 Y6.0336 I18.4349 J5.3218
G2 X19.8506 Y6.3505 I18.4349 J5.3218
G2 X20.0659 Y5.956 I18.4349 J5.3218
G0 Z3.0
G0 X17.284 Y-0.1778
G0 Z-4.5
G1 F300.0 Z-6.0
G3 F800.0 X18.1498 Y-0.5944 I25.5806 J15.9553
G3 X18.5722 Y-0.6513 I18.457 J0.0898
G3 X19.1368 Y-0.5537 I16.0 J15.9
G3 X19.6915 Y-0.4382 I16.0 J15.9
G3 X19.7966 Y0.993 I19.5262 J0.2934
G2 X19.4009 Y1.152 I25.5806 J15.9553
G2 X18.1724 Y1.727 I25.5806 J15.9553
G2 X20.7464 Y0.1831 I18.9964 J0.1831
G2 X18.1214 Y-1.3325 I18.9964 J0.1831
G2 X17.284 Y-0.1778 I18.9964 J0.1831
G0 Z3.0
G0 X13.4445 Y5.4653
G0 Z-4.5
G1 F300.0 Z-6.0
G2 F800.0 X12.8778 Y6.1592 I25.5806 J15.9553
G3 X12.8682 Y6.1713 I12.2839 J5.7012
G3 X11.4868 Y6.5804 I11.882 J5.3778
G3 X11.3019 Y6.4899 I11.7209 J5.8679
G3 X11.0408 Y5.107 I11.8546 J5.6694
G3 X11.0574 Y5.084 I11.6578 J5.5334
G3 X11.796 Y4.1615 I25.5806 J15.9553
G2 X10.8772 Y4.3954 I11.7522 J5.9109
G2 Y7.4265 I11.7522 J5.9109
G2 X13.5022 Y5.9109 I11.7522 J5.9109
G2 X13.4445 Y5.4653 I11.7522 J5.9109
G0 Z3.0
G0 X7.5885 Y2.1381
G0 Z-4.5
G1 F300.0 Z-6.0
G3 F800.0 X8.0441 Y1.2921 I23.7834 J10.3134
G3 X8.3523 Y0.9978 I8.6947 J1.6651
G3 X8.8665 Y0.7449 I16.0 J15.9
G3 X9.3832 Y0.5123 I16.0 J15.9
G3 X10.3094 Y1.6083 I9.6794 J1.2013
G2 X10.0827 Y1.9697 I23.7834 J10.3134
G2 X9.4268 Y3.1569 I23.7834 J10.3134
G2 X10.6017 Y0.3949 I9.1859 J1.4235
G2 X7.5872 Y0.7117 I9.1859 J1.4235
G2 X7.5885 Y2.1381 I9.1859 J1.4235
G0 Z3.0
G0 X7.7992 Y8.9602
G0 Z-4.5
G1 F300.0 Z-6.0
G2 F800.0 X7.7485 Y9.8547 I23.7834 J10.3134
G3 X7.7479 Y9.8701 I6.9989 J9.8333
G3 X6.8709 Y11.0131 I6.4837 J9.8079
G3 X6.668 Y11.0485 I6.6414 J10.299
G3 X5.644 Y10.0832 I6.633 J10.0599
G3 X5.6438 Y10.0548 I6.3938 J10.0655
G3 X5.6991 Y8.8744 I23.7834 J10.3134
G2 X5.0933 Y9.6037 I6.692 J10.3155
G2 X6.8749 Y12.0559 I6.692 J10.3155
G2 X8.1078 Y9.2869 I6.692 J10.3155
G2 X7.7992 Y8.9602 I6.692 J10.3155
G0 Z3.0
G0 X1.1059 Y9.7106
G0 Z-4.5
G1 F300.0 Z-6.0
G3 F800.0 X0.9772 Y8.7584 I19.0132 J6.8054
G3 X1.0536 Y8.3391 I1.7228 J8.6776
G3 X1.321 Y7.8323 I16.0 J15.9
G3 X1.6022 Y7.3404 I16.0 J15.9
G3 X2.9958 Y7.6827 I2.2469 J7.7237
G2 X3.0248 Y8.1082 I19.0132 J6.8054
G2 X3.192 Y9.4542 I19.0132 J6.8054
G2 X2.519 Y6.5291 I1.9782 J8.1935
G2 X0.2665 Y8.5573 I1.9782 J8.1935
G2 X1.1059 Y9.7106 I1.9782 J8.1935
G0 Z3.0
G0 X5.2863 Y15.106
G0 Z-4.5
G1 F300.0 Z-6.0
G2 F800.0 X5.7711 Y15.8593 I19.0132 J6.8054
G3 X5.7797 Y15.8722 I5.152 J16.2826
G3 X5.7419 Y17.3124 I4.7203 J16.565
G3 X5.5987 Y17.4603 I5.1366 J16.8695
G3 X4.2028 Y17.2812 I4.9892 J16.6811
G3 X4.186 Y17.2584 I4.799 J16.8262
G3 X3.5369 Y16.2708 I19.0132 J6.8054
G2 X3.4754 Y17.217 I5.1872 J16.8531
G2 X6.3581 Y18.1536 I5.1872 J16.8531
G2 X5.7279 Y15.1888 I5.1872 J16.8531
G2 X5.2863 Y15.106 I5.1872 J16.8531
G0 Z3.0
G0 X0.3124 Y19.6472
G0 Z-4.5
G1 F300.0 Z-6.0
G3 F800.0 X-0.3515 Y18.9525 I13.092 J6.7712
G3 X-0.5361 Y18.5683 I0.2043 J18.4489
G3 X-0.6177 Y18.0012 I16.0 J15.9
G3 X-0.6792 Y17.4379 I16.0 J15.9
G3 X0.6493 Y16.8957 I0.0676 J17.3691
G2 X0.9229 Y17.223 I13.092 J6.7712
G2 X1.8493 Y18.2136 I13.092 J6.7712
G2 X-0.4144 Y16.2427 I0.1264 J17.9071
G2 X-1.0446 Y19.2076 I0.1264 J17.9071
G2 X0.3124 Y19.6472 I0.1264 J17.9071
G0 Z3.0
G0 X6.8657 Y21.555
G0 Z-4.5
G1 F300.0 Z-6.0
G2 F800.0 X7.7007 Y21.8795 I13.092 J6.7712
G3 X7.7152 Y21.8848 I7.4487 J22.5859
G3 X8.5312 Y23.0722 I7.2654 J23.068
G3 X8.5022 Y23.2761 I7.7812 J23.0697
G3 X7.2677 Y23.9517 I7.5511 J23.0039
G3 X7.2407 Y23.9431 I7.4826 J23.2331
G3 X6.1351 Y23.5257 I13.092 J6.7712
G2 X6.6415 Y24.3272 I7.8125 J23.0267
G2 X9.5242 Y23.3906 I7.8125 J23.0267
G2 X7.2717 Y21.3624 I7.8125 J23.0267
G2 X6.8657 Y21.555 I7.8125 J23.0267
G0 Z3.0
G0 X5.511 Y28.1525
G0 Z-5.5
G1 F300.0 Z-7.0
G3 F800.0 X4.5656 Y27.9806 I8.2816 J10.2239
G3 X4.1904 Y27.7784 I4.7192 J27.2465
G3 X3.791 Y27.3675 I16.0 J15.9
G3 X3.4102 Y26.948 I16.0 J15.9
G3 X4.1663 Y25.7284 I3.9739 J26.4533
G2 X4.58 Y25.8324 I8.2816 J10.2239
G2 X5.9118 Y26.0893 I8.2816 J10.2239
G2 X2.9219 Y25.8254 I4.3377 J26.854
G2 X4.1548 Y28.5945 I4.3377 J26.854
G2 X5.511 Y28.1525 I4.3377 J26.854
G0 Z3.0
G0 X11.9341 Y25.844
G0 Z-5.5
G1 F300.0 Z-7.0
G2 F800.0 X12.8004 Y25.6157 I8.2816 J10.2239
G3 X12.8153 Y25.6115 I13.0117 J26.3353
G3 X14.1733 Y26.0925 I13.1468 J26.8331
G3 X14.2697 Y26.2744 I13.5651 J26.5313
G3 X13.6681 Y27.5467 I13.3403 J26.6133
G3 X13.6412 Y27.5556 I13.4196 J26.839
G3 X12.5014 Y27.8677 I8.2816 J10.2239
G2 X13.3822 Y28.2186 I13.5651 J26.4782
G2 X15.1638 Y25.7664 I13.5651 J26.4782
G2 X12.1494 Y25.4495 I13.5651 J26.4782
G2 X11.9341 Y25.844 I13.5651 J26.4782
G0 Z3.0
G0 X14.716 Y31.9778
G0 Z-5.5
G1 F300.0 Z-7.0
G3 F800.0 X13.8502 Y32.3944 I6.4194 J15.8447
G3 X13.4278 Y32.4513 I13.543 J31.7102
G3 X12.8632 Y32.3537 I16.0 J15.9
G3 X12.3085 Y32.2382 I16.0 J15.9
G3 X12.2034 Y30.807 I12.4738 J31.5066
G2 X12.5991 Y30.648 I6.4194 J15.8447
G2 X13.8276 Y30.073 I6.4194 J15.8447
G2 X11.2536 Y31.6169 I13.0036 J31.6169
G2 X13.8786 Y33.1325 I13.0036 J31.6169
G2 X14.716 Y31.9778 I13.0036 J31.6169
G0 Z3.0
G0 X18.5555 Y26.3347
G0 Z-5.5
G1 F300.0 Z-7.0
G2 F800.0 X19.1222 Y25.6408 I6.4194 J15.8447
G3 X19.1318 Y25.6287 I19.7161 J26.0988
G3 X20.5132 Y25.2196 I20.118 J26.4222
G3 X20.6981 Y25.3101 I20.2791 J25.9321
G3 X20.9592 Y26.693 I20.1454 J26.1306
G3 X20.9426 Y26.716 I20.3422 J26.2666
G3 X20.204 Y27.6385 I6.4194 J15.8447
G2 X21.1228 Y27.4046 I20.2478 J25.8891
G2 Y24.3735 I20.2478 J25.8891
G2 X18.4978 Y25.8891 I20.2478 J25.8891
G2 X18.5555 Y26.3347 I20.2478 J25.8891
G0 Z3.0
G0 X24.4115 Y29.6619
G0 Z-5.5
G1 F300.0 Z-7.0
G3 F800.0 X23.9559 Y30.5079 I8.2166 J21.4866
G3 X23.6477 Y30.8022 I23.3053 J30.1349
G3 X23.1335 Y31.0551 I16.0 J15.9
G3 X22.6168 Y31.2877 I16.0 J15.9
G3 X21.6906 Y30.1917 I22.3206 J30.5987
G2 X21.9173 Y29.8303 I8.2166 J21.4866
G2 X22.5732 Y28.6431 I8.2166 J21.4866
G2 X21.3983 Y31.4051 I22.8141 J30.3765
G2 X24.4128 Y31.0883 I22.8141 J30.3765
G2 X24.4115 Y29.6619 I22.8141 J30.3765
G0 Z3.0
G0 X24.2008 Y22.8398
G0 Z-5.5
G1 F300.0 Z-7.0
G2 F800.0 X24.2515 Y21.9453 I8.2166 J21.4866
G3 X24.2521 Y21.9299 I25.0011 J21.9667
G3 X25.1291 Y20.7869 I25.5163 J21.9921
G3 X25.332 Y20.7515 I25.3586 J21.501
G3 X26.356 Y21.7168 I25.367 J21.7401
G3 X26.3562 Y21.7452 I25.6062 J21.7345
G3 X26.3009 Y22.9256 I8.2166 J21.4866
G2 X26.9067 Y22.1963 I25.308 J21.4845
G2 X25.1251 Y19.7441 I25.308 J21.4845
G2 X23.8922 Y22.5131 I25.308 J21.4845
G2 X24.2008 Y22.8398 I25.308 J21.4845
G0 Z3.0
G0 X30.8941 Y22.0894
G0 Z-5.5
G1 F300.0 Z-7.0
G3 F800.0 X31.0228 Y23.0416 I12.9868 J24.9946
G3 X30.9464 Y23.4609 I30.2772 J23.1224
G3 X30.679 Y23.9677 I16.0 J15.9
G3 X30.3978 Y24.4596 I16.0 J15.9
G3 X29.0042 Y24.1173 I29.7531 J24.0763
G2 X28.9752 Y23.6918 I12.9868 J24.9946
G2 X28.808 Y22.3458 I12.9868 J24.9946
G2 X29.481 Y25.2709 I30.0218 J23.6065
G2 X31.7335 Y23.2427 I30.0218 J23.6065
G2 X30.8941 Y22.0894 I30.0218 J23.6065
G0 Z3.0
G0 X26.7137 Y16.694
G0 Z-5.5
G1 F300.0 Z-7.0
G2 F800.0 X26.2289 Y15.9407 I12.9868 J24.9946
G3 X26.2203 Y15.9278 I26.848 J15.5174
G3 X26.2581 Y14.4876 I27.2797 J15.235
G3 X26.4013 Y14.3397 I26.8634 J14.9305
G3 X27.7972 Y14.5188 I27.0108 J15.1189
G3 X27.814 Y14.5416 I27.201 J14.9738
G3 X28.4631 Y15.5292 I12.9868 J24.9946
G2 X28.5246 Y14.583 I26.8128 J14.9469
G2 X25.6419 Y13.6464 I26.8128 J14.9469
G2 X26.2721 Y16.6112 I26.8128 J14.9469
G2 X26.7137 Y16.694 I26.8128 J14.9469
G0 Z3.0
G0 X31.6876 Y12.1528
G0 Z-5.5
G1 F300.0 Z-7.0
G3 F800.0 X32.3515 Y12.8475 I18.908 J25.0288
G3 X32.5361 Y13.2317 I31.7957 J13.3511
G3 X32.6177 Y13.7988 I16.0 J15.9
G3 X32.6792 Y14.3621 I16.0 J15.9
G3 X31.3507 Y14.9043 I31.9324 J14.4309
G2 X31.0771 Y14.577 I18.908 J25.0288
G2 X30.1507 Y13.5864 I18.908 J25.0288
G2 X32.4144 Y15.5573 I31.8736 J13.8929
G2 X33.0446 Y12.5924 I31.8736 J13.8929
G2 X31.6876 Y12.1528 I31.8736 J13.8929
G0 Z3.0
G0 X25.1343 Y10.245
G0 Z-5.5
G1 F300.0 Z-7.0
G2 F800.0 X24.2993 Y9.9205 I18.908 J25.0288
G3 X24.2848 Y9.9152 I24.5513 J9.2141
G3 X23.4688 Y8.7278 I24.7346 J8.732
G3 X23.4978 Y8.5239 I24.2188 J8.7303
G3 X24.7323 Y7.8483 I24.4489 J8.7961
G3 X24.7593 Y7.8569 I24.5174 J8.5669
G3 X25.8649 Y8.2743 I18.908 J25.0288
G2 X25.3585 Y7.4728 I24.1875 J8.7733
G2 X22.4758 Y8.4094 I24.1875 J8.7733
G2 X24.7283 Y10.4376 I24.1875 J8.7733
G2 X25.1343 Y10.245 I24.1875 J8.7733
G0 Z3.0
G0 X26.489 Y3.6475
G0 Z-5.5
G1 F300.0 Z-7.0
G3 F800.0 X27.4344 Y3.8194 I23.7184 J21.5761
G3 X27.8096 Y4.0216 I27.2808 J4.5535
G3 X28.209 Y4.4325 I16.0 J15.9
G3 X28.5898 Y4.852 I16.0 J15.9
G3 X27.8337 Y6.0716 I28.0261 J5.3467
G2 X27.42 Y5.9676 I23.7184 J21.5761
G2 X26.0882 Y5.7107 I23.7184 J21.5761
G2 X29.0781 Y5.9746 I27.6623 J4.946
G2 X27.8452 Y3.2055 I27.6623 J4.946
G2 X26.489 Y3.6475 I27.6623 J4.946
G0 Z3.0
G0 X20.0659 Y5.956
G0 Z-5.5
G1 F300.0 Z-7.0
G2 F800.0 X19.1996 Y6.1843 I23.7184 J21.5761
G3 X19.1847 Y6.1885 I18.9883 J5.4647
G3 X17.8267 Y5.7075 I18.8532 J4.9669
G3 X17.7303 Y5.5256 I18.4349 J5.2687
G3 X18.3319 Y4.2533 I18.6597 J5.1867
G3 X18.3588 Y4.2444 I18.5804 J4.961
G3 X19.4986 Y3.9323 I23.7184 J21.5761
G2 X18.6178 Y3.5814 I18.4349 J5.3218
G2 X16.8362 Y6.0336 I18.4349 J5.3218
G2 X19.8506 Y6.3505 I18.4349 J5.3218
G2 X20.0659 Y5.956 I18.4349 J5.3218
G0 Z3.0
G0 X17.284 Y-0.1778
G0 Z-5.5
G1 F300.0 Z-7.0
G3 F800.0 X18.1498 Y-0.5944 I25.5806 J15.9553
G3 X18.5722 Y-0.6513 I18.457 J0.0898
G3 X19.1368 Y-0.5537 I16.0 J15.9
G3 X19.6915 Y-0.4382 I16.0 J15.9
G3 X19.7966 Y0.993 I19.5262 J0.2934
G2 X19.4009 Y1.152 I25.5806 J15.9553
G2 X18.1724 Y1.727 I25.5806 J15.9553
G2 X20.7464 Y0.1831 I18.9964 J0.1831
G2 X18.1214 Y-1.3325 I18.9964 J0.1831
G2 X17.284 Y-0.1778 I18.9964 J0.1831
G0 Z3.0
G0 X13.4445 Y5.4653
G0 Z-5.5
G1 F300.0 Z-7.0
G2 F800.0 X12.8778 Y6.1592 I25.5806 J15.9553
G3 X12.8682 Y6.1713 I12.2839 J5.7012
G3 X11.4868 Y6.5804 I11.882 J5.3778
G3 X11.3019 Y6.4899 I11.7209 J5.8679
G3 X11.0408 Y5.107 I11.8546 J5.6694
G3 X11.0574 Y5.084 I11.6578 J5.5334
G3 X11.796 Y4.1615 I25.5806 J15.9553
G2 X10.8772 Y4.3954 I11.7522 J5.9109
G2 Y7.4265 I11.7522 J5.9109
G2 X13.5022 Y5.9109 I11.7522 J5.9109
G2 X13.4445 Y5.4653 I11.7522 J5.9109
G0 Z3.0
G0 X7.5885 Y2.1381
G0 Z-5.5
G1 F300.0 Z-7.0
G3 F800.0 X8.0441 Y1.2921 I23.7834 J10.3134
G3 X8.3523 Y0.9978 I8.6947 J1.6651
G3 X8.8665 Y0.7449 I16.0 J15.9
G3 X9.3832 Y0.5123 I16.0 J15.9
G3 X10.3094 Y1.6083 I9.6794 J1.2013
G2 X10.0827 Y1.9697 I23.7834 J10.3134
G2 X9.4268 Y3.1569 I23.7834 J10.3134
G2 X10.6017 Y0.3949 I9.1859 J1.4235
G2 X7.5872 Y0.7117 I9.1859 J1.4235
G2 X7.5885 Y2.1381 I9.1859 J1.4235
G0 Z3.0
G0 X7.7992 Y8.9602
G0 Z-5.5
G1 F300.0 Z-7.0
G2 F800.0 X7.7485 Y9.8547 I23.7834 J10.3134
G3 X7.7479 Y9.8701 I6.9989 J9.8333
G3 X6.8709 Y11.0131 I6.4837 J9.8079
G3 X6.668 Y11.0485 I6.6414 J10.299
G3 X5.644 Y10.0832 I6.633 J10.0599
G3 X5.6438 Y10.0548 I6.3938 J10.0655
G3 X5.6991 Y8.8744 I23.7834 J10.3134
G2 X5.0933 Y9.6037 I6.692 J10.3155
G2 X6.8749 Y12.0559 I6.692 J10.3155
G2 X8.1078 Y9.2869 I6.692 J10.3155
G2 X7.7992 Y8.9602 I6.692 J10.3155
G0 Z3.0
G0 X1.1059 Y9.7106
G0 Z-5.5
G1 F300.0 Z-7.0
G3 F800.0 X0.9772 Y8.7584 I19.0132 J6.8054
G3 X1.0536 Y8.3391 I1.7228 J8.6776
G3 X1.321 Y7.8323 I16.0 J15.9
G3 X1.6022 Y7.3404 I16.0 J15.9
G3 X2.9958 Y7.6827 I2.2469 J7.7237
G2 X3.0248 Y8.1082 I19.0132 J6.8054
G2 X3.192 Y9.4542 I19.0132 J6.8054
G2 X2.519 Y6.5291 I1.9782 J8.1935
G2 X0.2665 Y8.5573 I1.9782 J8.1935
G2 X1.1059 Y9.7106 I1.9782 J8.1935
G0 Z3.0
G0 X5.2863 Y15.106
G0 Z-5.5
G1 F300.0 Z-7.0
G2 F800.0 X5.7711 Y15.8593 I19.0132 J6.8054
G3 X5.7797 Y15.8722 I5.152 J16.2826
G3 X5.7419 Y17.3124 I4.7203 J16.565
G3 X5.5987 Y17.4603 I5.1366 J16.8695
G3 X4.2028 Y17.2812 I4.9892 J16.6811
G3 X4.186 Y17.2584 I4.799 J16.8262
G3 X3.5369 Y16.2708 I19.0132 J6.8054
G2 X3.4754 Y17.217 I5.1872 J16.8531
G2 X6.3581 Y18.1536 I5.1872 J16.8531
G2 X5.7279 Y15.1888 I5.1872 J16.8531
G2 X5.2863 Y15.106 I5.1872 J16.8531
G0 Z3.0
G0 X0.3124 Y19.6472
G0 Z-5.5
G1 F300.0 Z-7.0
G3 F800.0 X-0.3515 Y18.9525 I13.092 J6.7712
G3 X-0.5361 Y18.5683 I0.2043 J18.4489
G3 X-0.6177 Y18.0012 I16.0 J15.9
G3 X-0.6792 Y17.4379 I16.0 J15.9
G3 X0.6493 Y16.8957 I0.0676 J17.3691
G2 X0.9229 Y17.223 I13.092 J6.7712
G2 X1.8493 Y18.2136 I13.092 J6.7712
G2 X-0.4144 Y16.2427 I0.1264 J17.9071
G2 X-1.0446 Y19.2076 I0.1264 J17.9071
G2 X0.3124 Y19.6472 I0.1264 J17.9071
G0 Z3.0
G0 X6.8657 Y21.555
G0 Z-5.5
G1 F300.0 Z-7.0
G2 F800.0 X7.7007 Y21.8795 I13.092 J6.7712
G3 X7.7152 Y21.8848 I7.4487 J22.5859
G3 X8.5312 Y23.0722 I7.2654 J23.068
G3 X8.5022 Y23.2761 I7.7812 J23.0697
G3 X7.2677 Y23.9517 I7.5511 J23.0039
G3 X7.2407 Y23.9431 I7.4826 J23.2331
G3 X6.1351 Y23.5257 I13.092 J6.7712
G2 X6.6415 Y24.3272 I7.8125 J23.0267
G2 X9.5242 Y23.3906 I7.8125 J23.0267
G2 X7.2717 Y21.3624 I7.8125 J23.0267
G2 X6.8657 Y21.555 I7.8125 J23.0267
( Epaulement )
G0 Z3.0
G0 X23.625 Y15.9
G0 Z0.5
G1 F300.0 Z-1.2
G3 F800.0 X12.1875 Y22.5034 I16.0 J15.9
G3 Y9.2966 I16.0 J15.9
G3 X23.625 Y15.9 I16.0 J15.9
G1 F300.0 Z-2.0
G3 F800.0 X12.1875 Y22.5034 I16.0 J15.9
G3 Y9.2966 I16.0 J15.9
G3 X23.625 Y15.9 I16.0 J15.9
( Evidage )
G0 Z-1.0
G1 F300.0 X24.35
G3 F800.0 X11.825 Y23.1313 I16.0 J15.9
G3 Y8.6687 I16.0 J15.9
G3 X24.35 Y15.9 I16.0 J15.9
G0 Z3.0
G0 X25.0936 Y17.5841
G0 Z0.5
G1 F300.0 Z-1.0
G3 F800.0 X24.9148 Y18.361 I16.0 J15.9
G3 X24.9789 Y18.3536 I25.308 J21.4845
G3 X26.7544 Y18.6883 I25.308 J21.4845
G2 X26.4565 Y18.0748 I12.9868 J24.9946
G3 X25.84 Y17.941 I26.8128 J14.9469
G3 X25.0936 Y17.5841 I26.8128 J14.9469
G0 Z3.0
G0 X24.6587 Y12.651
G0 Z0.5
G1 F300.0 Z-1.0
G3 F800.0 X24.7063 Y12.6073 I26.8128 J14.9469
G3 X26.3394 Y11.8345 I26.8128 J14.9469
G2 X25.7378 Y11.5133 I18.908 J25.0288
G3 X25.1604 Y11.7674 I24.1875 J8.7733
G3 X24.3468 Y11.9174 I24.1875 J8.7733
G3 X24.6587 Y12.651 I16.0 J15.9
G0 Z3.0
G0 X21.0953 Y8.1821
G0 Z0.5
G1 F300.0 Z-1.0
G3 F800.0 X21.1081 Y8.1187 I24.1875 J8.7733
G3 X21.9751 Y6.5336 I24.1875 J8.7733
G2 X21.2996 Y6.6273 I23.7184 J21.5761
G3 X20.9818 Y7.1723 I18.4349 J5.3218
G3 X20.4118 Y7.7719 I18.4349 J5.3218
G3 X21.0953 Y8.1821 I16.0 J15.9
G0 Z3.0
G0 X15.5857 Y6.6611
G0 Z0.5
G1 F300.0 Z-1.0
G3 F800.0 X15.5588 Y6.6023 I18.4349 J5.3218
G3 X15.3285 Y4.8103 I18.4349 J5.3218
G2 X14.8371 Y5.2832 I25.5806 J15.9553
G3 X14.9004 Y5.9109 I11.7522 J5.9109
G3 X14.7916 Y6.7311 I11.7522 J5.9109
G3 X15.5857 Y6.6611 I16.0 J15.9
G0 Z3.0
G0 X10.2343 Y8.6691
G0 Z0.5
G1 F300.0 Z-1.0
G3 F800.0 X10.1781 Y8.6373 I11.7522 J5.9109
G3 X8.9384 Y7.323 I11.7522 J5.9109
G2 X8.8188 Y7.9943 I23.7834 J10.3134
G3 X9.2389 Y8.465 I6.692 J10.3155
G3 X9.6331 Y9.1924 I6.692 J10.3155
G3 X10.2343 Y8.6691 I16.0 J15.9
G0 Z3.0
G0 X7.0852 Y13.439
G0 Z0.5
G1 F300.0 Z-1.0
G3 F800.0 X7.0211 Y13.4464 I6.692 J10.3155
G3 X5.2456 Y13.1117 I6.692 J10.3155
G2 X5.5435 Y13.7252 I19.0132 J6.8054
G3 X6.16 Y13.859 I5.1872 J16.8531
G3 X6.9064 Y14.2159 I5.1872 J16.8531
G3 X7.0852 Y13.439 I16.0 J15.9
G0 Z3.0
G0 X7.3413 Y19.149
G0 Z0.5
G1 F300.0 Z-1.0
G3 F800.0 X7.2937 Y19.1927 I5.1872 J16.8531
G3 X5.6606 Y19.9655 I5.1872 J16.8531
G2 X6.2622 Y20.2867 I13.092 J6.7712
G3 X6.8396 Y20.0326 I7.8125 J23.0267
G3 X7.6532 Y19.8826 I7.8125 J23.0267
G3 X7.3413 Y19.149 I16.0 J15.9
G0 Z3.0
G0 X10.9047 Y23.6179
G0 Z0.5
G1 F300.0 Z-1.0
G3 F800.0 X10.8919 Y23.6813 I7.8125 J23.0267
G3 X10.0249 Y25.2664 I7.8125 J23.0267
G2 X10.7004 Y25.1727 I8.2816 J10.2239
G3 X11.0182 Y24.6277 I13.5651 J26.4782
G3 X11.5882 Y24.0281 I13.5651 J26.4782
G3 X11.3759 Y23.9092 I16.0 J15.9
G3 X10.9047 Y23.6179 I16.0 J15.9
G0 Z3.0
G0 X16.4143 Y25.1389
G0 Z0.5
G1 F300.0 Z-1.0
G3 F800.0 X16.4412 Y25.1977 I13.5651 J26.4782
G3 X16.6715 Y26.9897 I13.5651 J26.4782
G2 X17.1629 Y26.5168 I6.4194 J15.8447
G3 X17.0996 Y25.8891 I20.2478 J25.8891
G3 X17.2084 Y25.0689 I20.2478 J25.8891
G3 X16.4143 Y25.1389 I16.0 J15.9
G0 Z3.0
G0 X21.7657 Y23.1309
G0 Z0.5
G1 F300.0 Z-1.0
G3 F800.0 X21.8219 Y23.1627 I20.2478 J25.8891
G3 X23.0616 Y24.477 I20.2478 J25.8891
G2 X23.1812 Y23.8057 I8.2166 J21.4866
G3 X22.7611 Y23.335 I25.308 J21.4845
G3 X22.3669 Y22.6076 I25.308 J21.4845
G3 X21.7657 Y23.1309 I16.0 J15.9
G0 Z3.0
G0 X27.2108 Y25.8528
G0 Z0.5
G1 F300.0 Z-1.0
G3 F800.0 X26.7034 Y27.6579 I8.2166 J21.4866
G2 X27.8638 Y26.4858 I16.0 J15.9
G3 X27.2108 Y25.8528 I30.0218 J23.6065
G1 F300.0 X26.7723 Y25.752
G3 F800.0 X25.6796 Y29.0727 I8.2166 J21.4866
G3 X25.681 Y29.0758 I22.8141 J30.3765
G2 X28.5442 Y26.3864 I16.0 J15.9
G3 X27.0116 Y24.5286 I30.0218 J23.6065
G3 X26.7723 Y25.752 I8.2166 J21.4866
G0 Z3.0
G0 X31.5703 Y19.1211
G0 Z0.5
G1 F300.0 Z-1.0
G2 F800.0 X31.8202 Y17.4907 I16.0 J15.9
G3 X30.9199 Y17.3624 I31.8736 J13.8929
G3 X31.5703 Y19.1211 I12.9868 J24.9946
G1 F300.0 X31.1412 Y19.2567
G3 F800.0 X31.5737 Y20.8674 I12.9868 J24.9946
G3 X31.5766 Y20.8691 I30.0218 J23.6065
G2 X32.3123 Y17.0104 I16.0 J15.9
G3 X29.9804 Y16.4082 I31.8736 J13.8929
G3 X31.1412 Y19.2567 I12.9868 J24.9946
G0 Z3.0
G0 X30.4899 Y9.3539
G0 Z0.5
G1 F300.0 Z-1.0
G2 F800.0 X29.7338 Y7.888 I16.0 J15.9
G3 X28.93 Y8.3134 I27.6623 J4.946
G3 X30.4899 Y9.3539 I18.908 J25.0288
G1 F300.0 X30.9 Y9.1686
G2 F800.0 X29.8496 Y7.2102 I16.0 J15.9
G3 X27.6091 Y8.0937 I27.6623 J4.946
G3 X31.5192 Y10.7647 I18.908 J25.0288
G3 X31.5225 Y10.7643 I31.8736 J13.8929
G2 X30.9 Y9.1686 I16.0 J15.9
G0 Z3.0
G0 X23.8749 Y2.0871
G0 Z0.5
G1 F300.0 Z-1.0
G2 F800.0 X22.4016 Y1.3456 I16.0 J15.9
G3 X22.0013 Y2.1623 I18.9964 J0.1831
G3 X23.8749 Y2.0871 I23.7184 J21.5761
G1 F300.0 X23.8713 Y2.5371
G3 F800.0 X25.5368 Y2.6235 I23.7184 J21.5761
G3 X25.5393 Y2.6213 I27.6623 J4.946
G2 X22.0968 Y0.7293 I16.0 J15.9
G3 X20.8035 Y2.7609 I18.9964 J0.1831
G3 X23.8713 Y2.5371 I23.7184 J21.5761
G0 Z3.0
G0 X14.2519 Y0.0964
G0 Z0.5
G1 F300.0 Z-1.0
G2 F800.0 X12.6241 Y0.3625 I16.0 J15.9
G3 X12.7803 Y1.2585 I9.1859 J1.4235
G3 X14.2519 Y0.0964 I25.5806 J15.9553
G1 F300.0 X14.2025 Y-0.3509
G2 F800.0 X12.0153 Y0.043 I16.0 J15.9
G3 X12.1632 Y2.4468 I9.1859 J1.4235
G3 X15.9117 Y-0.4465 I25.5806 J15.9553
G3 X15.9124 Y-0.4498 I18.9964 J0.1831
G2 X14.2025 Y-0.3509 I16.0 J15.9
G0 Z3.0
G0 X5.2966 Y4.1421
G0 Z0.5
G1 F300.0 Z-1.0
G2 F800.0 X4.1362 Y5.3142 I16.0 J15.9
G3 X4.7892 Y5.9472 I1.9782 J8.1935
G3 X5.2966 Y4.1421 I23.7834 J10.3134
G1 F300.0 X5.7235 Y4.2846
G3 F800.0 X6.3204 Y2.7273 I23.7834 J10.3134
G3 X6.319 Y2.7242 I9.1859 J1.4235
G2 X3.4558 Y5.4136 I16.0 J15.9
G3 X4.9884 Y7.2714 I1.9782 J8.1935
G3 X5.7235 Y4.2846 I23.7834 J10.3134
G0 Z3.0
G0 X0.4297 Y12.6789
G0 Z0.5
G1 F300.0 Z-1.0
G2 F800.0 X0.1798 Y14.3093 I16.0 J15.9
G3 X1.0801 Y14.4376 I0.1264 J17.9071
G3 X0.4297 Y12.6789 I19.0132 J6.8054
G1 F300.0 X0.8588 Y12.5433
G3 F800.0 X0.4263 Y10.9326 I19.0132 J6.8054
G3 X0.4234 Y10.9309 I1.9782 J8.1935
G2 X-0.3123 Y14.7896 I16.0 J15.9
G3 X2.0196 Y15.3918 I0.1264 J17.9071
G3 X0.8588 Y12.5433 I19.0132 J6.8054
G0 Z3.0
G0 X1.5101 Y22.4461
G0 Z0.5
G1 F300.0 Z-1.0
G2 F800.0 X2.2662 Y23.912 I16.0 J15.9
G3 X3.07 Y23.4866 I4.3377 J26.854
G3 X1.5101 Y22.4461 I13.092 J6.7712
G1 F300.0 X1.1 Y22.6314
G2 F800.0 X2.1504 Y24.5898 I16.0 J15.9
G3 X4.3909 Y23.7063 I4.3377 J26.854
G3 X0.4808 Y21.0353 I13.092 J6.7712
G3 X0.4775 Y21.0357 I0.1264 J17.9071
G2 X1.1 Y22.6314 I16.0 J15.9
G0 Z3.0
G0 X8.1251 Y29.7129
G0 Z0.5
G1 F300.0 Z-1.0
G2 F800.0 X9.5984 Y30.4544 I16.0 J15.9
G3 X9.9987 Y29.6377 I13.0036 J31.6169
G3 X8.1251 Y29.7129 I8.2816 J10.2239
G1 F300.0 X7.9022 Y30.1038
G2 F800.0 X9.9032 Y31.0707 I16.0 J15.9
G3 X11.1965 Y29.0391 I13.0036 J31.6169
G3 X6.4632 Y29.1765 I8.2816 J10.2239
G3 X6.4607 Y29.1787 I4.3377 J26.854
G2 X7.825 Y30.0595 I16.0 J15.9
G2 X7.9022 Y30.1038 I16.0 J15.9
G0 Z3.0
G0 X17.7481 Y31.7036
G0 Z0.5
G1 F300.0 Z-1.0
G2 F800.0 X19.3759 Y31.4375 I16.0 J15.9
G3 X19.2197 Y30.5415 I22.8141 J30.3765
G3 X17.7481 Y31.7036 I6.4194 J15.8447
G1 F300.0 X17.4865 Y31.3374
G3 F800.0 X16.0883 Y32.2465 I6.4194 J15.8447
G3 X16.0876 Y32.2498 I13.0036 J31.6169
G2 X19.9847 Y31.757 I16.0 J15.9
G3 X19.8368 Y29.3532 I22.8141 J30.3765
G3 X17.4865 Y31.3374 I6.4194 J15.8447
G1 F300.0 X16.9644 Y30.6066
G3 F800.0 X15.2524 Y31.6904 I6.4194 J15.8447
G3 X14.6952 Y33.1006 I13.0036 J31.6169
G2 X21.5451 Y32.2345 I16.0 J15.9
G3 X20.9938 Y31.699 I22.8141 J30.3765
G3 X22.5789 Y28.1388 I22.8141 J30.3765
G3 X22.8193 Y28.1265 I22.8141 J30.3765
G2 X24.1424 Y23.4091 I8.2166 J21.4866
G3 X23.4877 Y22.807 I25.308 J21.4845
G3 X25.0728 Y19.2468 I25.308 J21.4845
G3 X27.3635 Y22.3997 I25.308 J21.4845
G3 X26.2424 Y23.5313 I25.308 J21.4845
G3 X24.6766 Y29.1141 I8.2166 J21.4866
G3 X25.0546 Y30.5825 I22.8141 J30.3765
G2 X30.0872 Y25.8556 I16.0 J15.9
G3 X29.3265 Y25.7464 I30.0218 J23.6065
G3 X28.5162 Y21.9344 I30.0218 J23.6065
G3 X28.7035 Y21.7831 I30.0218 J23.6065
G2 X27.0011 Y17.189 I12.9868 J24.9946
G3 X26.1176 Y17.0867 I26.8128 J14.9469
G3 X25.3073 Y13.2748 I26.8128 J14.9469
G3 X29.0137 Y14.4791 I26.8128 J14.9469
G3 X28.7719 Y16.0535 I26.8128 J14.9469
G3 X30.7866 Y21.4905 I12.9868 J24.9946
G3 X31.9555 Y22.4562 I30.0218 J23.6065
G2 X33.25 Y15.9 I16.0 J15.9
G2 X33.2485 Y15.674 I16.0 J15.9
G3 X32.5689 Y16.0328 I31.8736 J13.8929
G3 X29.6728 Y13.4251 I31.8736 J13.8929
G3 X29.7354 Y13.1927 I31.8736 J13.8929
G2 X25.6577 Y10.4765 I18.908 J25.0288
G3 X24.8828 Y10.9131 I24.1875 J8.7733
G3 X21.9867 Y8.3055 I24.1875 J8.7733
G3 X25.6931 Y7.1012 I24.1875 J8.7733
G3 X26.4229 Y8.5171 I24.1875 J8.7733
G3 X31.2486 Y11.7315 I18.908 J25.0288
G3 X32.7619 Y11.8257 I31.8736 J13.8929
G2 X29.8215 Y5.5787 I16.0 J15.9
G3 X29.4826 Y6.2685 I27.6623 J4.946
G3 X25.6068 Y5.8611 I27.6623 J4.946
G3 X25.5208 Y5.6363 I27.6623 J4.946
G2 X20.6254 Y5.8357 I23.7184 J21.5761
G3 X20.2551 Y6.6444 I18.4349 J5.3218
G3 X16.3794 Y6.237 I18.4349 J5.3218
G3 X18.67 Y3.0842 I18.4349 J5.3218
G3 X20.0927 Y3.8007 I18.4349 J5.3218
G3 X25.8862 Y3.5647 I23.7184 J21.5761
G3 X27.1659 Y2.7514 I27.6623 J4.946
G2 X21.1151 Y-0.5742 I16.0 J15.9
G3 X21.2464 Y0.1831 I18.9964 J0.1831
G3 X17.8714 Y2.1316 I18.9964 J0.1831
G3 X17.6696 Y2.0003 I18.9964 J0.1831
G2 X13.8264 Y5.0391 I25.5806 J15.9553
G3 X14.0022 Y5.9109 I11.7522 J5.9109
G3 X10.6272 Y7.8595 I11.7522 J5.9109
G3 Y3.9624 I11.7522 J5.9109
G3 X12.1993 Y3.7058 I11.7522 J5.9109
G3 X16.7476 Y0.1096 I25.5806 J15.9553
G3 X17.3048 Y-1.3006 I18.9964 J0.1831
G2 X10.4549 Y-0.4345 I16.0 J15.9
G3 X11.0062 Y0.101 I9.1859 J1.4235
G3 X9.4211 Y3.6612 I9.1859 J1.4235
G3 X9.1807 Y3.6735 I9.1859 J1.4235
G2 X7.8576 Y8.3909 I23.7834 J10.3134
G3 X8.5123 Y8.993 I6.692 J10.3155
G3 X6.9272 Y12.5532 I6.692 J10.3155
G3 X4.6365 Y9.4003 I6.692 J10.3155
G3 X5.7576 Y8.2687 I6.692 J10.3155
G3 X7.3234 Y2.6859 I23.7834 J10.3134
G3 X6.9454 Y1.2175 I9.1859 J1.4235
G2 X1.9128 Y5.9444 I16.0 J15.9
G3 X2.6735 Y6.0536 I1.9782 J8.1935
G3 X3.4838 Y9.8656 I1.9782 J8.1935
G3 X3.2965 Y10.0169 I1.9782 J8.1935
G2 X4.9989 Y14.611 I19.0132 J6.8054
G3 X5.8824 Y14.7133 I5.1872 J16.8531
G3 X6.6927 Y18.5252 I5.1872 J16.8531
G3 X2.9863 Y17.3209 I5.1872 J16.8531
G3 X3.2281 Y15.7465 I5.1872 J16.8531
G3 X1.2134 Y10.3095 I19.0132 J6.8054
G3 X0.0445 Y9.3438 I1.9782 J8.1935
G2 X-1.2485 Y16.126 I16.0 J15.9
G3 X-0.5689 Y15.7672 I0.1264 J17.9071
G3 X2.3272 Y18.3749 I0.1264 J17.9071
G3 X2.2646 Y18.6073 I0.1264 J17.9071
G2 X6.3423 Y21.3235 I13.092 J6.7712
G3 X7.1172 Y20.8869 I7.8125 J23.0267
G3 X10.0133 Y23.4945 I7.8125 J23.0267
G3 X6.3069 Y24.6988 I7.8125 J23.0267
G3 X5.5771 Y23.2829 I7.8125 J23.0267
G3 X0.7514 Y20.0685 I13.092 J6.7712
G3 X-0.7619 Y19.9743 I0.1264 J17.9071
G2 X2.1785 Y26.2213 I16.0 J15.9
G3 X2.5174 Y25.5315 I4.3377 J26.854
G3 X6.3932 Y25.9389 I4.3377 J26.854
G3 X6.4792 Y26.1637 I4.3377 J26.854
G2 X11.3746 Y25.9643 I8.2816 J10.2239
G3 X11.7449 Y25.1556 I13.5651 J26.4782
G3 X15.6206 Y25.563 I13.5651 J26.4782
G3 X13.33 Y28.7158 I13.5651 J26.4782
G3 X11.9073 Y27.9993 I13.5651 J26.4782
G3 X6.1138 Y28.2353 I8.2816 J10.2239
G3 X4.8341 Y29.0486 I4.3377 J26.854
G2 X7.375 Y30.8389 I16.0 J15.9
G2 X10.8849 Y32.3742 I16.0 J15.9
G3 X10.7536 Y31.6169 I13.0036 J31.6169
G3 X14.1286 Y29.6684 I13.0036 J31.6169
G3 X14.3304 Y29.7997 I13.0036 J31.6169
G2 X18.1736 Y26.7609 I6.4194 J15.8447
G3 X17.9978 Y25.8891 I20.2478 J25.8891
G3 X21.3728 Y23.9405 I20.2478 J25.8891
G3 Y27.8376 I20.2478 J25.8891
G3 X19.8007 Y28.0942 I20.2478 J25.8891
G3 X16.9644 Y30.6066 I6.4194 J15.8447
G0 Z3.0
G0 X17.7481 Y31.7036
G0 Z-0.5
G1 F300.0 Z-2.0
G2 F800.0 X19.3759 Y31.4375 I16.0 J15.9
G3 X19.2197 Y30.5415 I22.8141 J30.3765
G3 X17.7481 Y31.7036 I6.4194 J15.8447
G1 F300.0 X17.4865 Y31.3374
G3 F800.0 X16.0883 Y32.2465 I6.4194 J15.8447
G3 X16.0876 Y32.2498 I13.0036 J31.6169
G2 X19.9847 Y31.757 I16.0 J15.9
G3 X19.8368 Y29.3532 I22.8141 J30.3765
G3 X17.4865 Y31.3374 I6.4194 J15.8447
G0 Z3.0
G0 X16.6715 Y26.9897
G0 Z-0.5
G1 F300.0 Z-2.0
G2 F800.0 X17.1629 Y26.5168 I6.4194 J15.8447
G3 X17.0996 Y25.8891 I20.2478 J25.8891
G3 X17.2084 Y25.0689 I20.2478 J25.8891
G3 X16.4143 Y25.1389 I16.0 J15.9
G3 X16.4412 Y25.1977 I13.5651 J26.4782
G3 X16.6715 Y26.9897 I13.5651 J26.4782
G0 Z3.0
G0 X11.5882 Y24.0281
G0 Z-0.5
G1 F300.0 Z-2.0
G3 F800.0 X11.3759 Y23.9092 I16.0 J15.9
G3 X10.9047 Y23.6179 I16.0 J15.9
G3 X10.8919 Y23.6813 I7.8125 J23.0267
G3 X10.0249 Y25.2664 I7.8125 J23.0267
G2 X10.7004 Y25.1727 I8.2816 J10.2239
G3 X11.0182 Y24.6277 I13.5651 J26.4782
G3 X11.5882 Y24.0281 I13.5651 J26.4782
G0 Z3.0
G0 X7.6532 Y19.8826
G0 Z-0.5
G1 F300.0 Z-2.0
G3 F800.0 X7.3413 Y19.149 I16.0 J15.9
G3 X7.2937 Y19.1927 I5.1872 J16.8531
G3 X5.6606 Y19.9655 I5.1872 J16.8531
G2 X6.2622 Y20.2867 I13.092 J6.7712
G3 X6.8396 Y20.0326 I7.8125 J23.0267
G3 X7.6532 Y19.8826 I7.8125 J23.0267
G0 Z3.0
G0 X6.9064 Y14.2159
G0 Z-0.5
G1 F300.0 Z-2.0
G3 F800.0 X7.0852 Y13.439 I16.0 J15.9
G3 X7.0211 Y13.4464 I6.692 J10.3155
G3 X5.2456 Y13.1117 I6.692 J10.3155
G2 X5.5435 Y13.7252 I19.0132 J6.8054
G3 X6.16 Y13.859 I5.1872 J16.8531
G3 X6.9064 Y14.2159 I5.1872 J16.8531
G0 Z3.0
G0 X9.6331 Y9.1924
G0 Z-0.5
G1 F300.0 Z-2.0
G3 F800.0 X10.2343 Y8.6691 I16.0 J15.9
G3 X10.1781 Y8.6373 I11.7522 J5.9109
G3 X8.9384 Y7.323 I11.7522 J5.9109
G2 X8.8188 Y7.9943 I23.7834 J10.3134
G3 X9.2389 Y8.465 I6.692 J10.3155
G3 X9.6331 Y9.1924 I6.692 J10.3155
G0 Z3.0
G0 X14.7916 Y6.7311
G0 Z-0.5
G1 F300.0 Z-2.0
G3 F800.0 X15.5857 Y6.6611 I16.0 J15.9
G3 X15.5588 Y6.6023 I18.4349 J5.3218
G3 X15.3285 Y4.8103 I18.4349 J5.3218
G2 X14.8371 Y5.2832 I25.5806 J15.9553
G3 X14.9004 Y5.9109 I11.7522 J5.9109
G3 X14.7916 Y6.7311 I11.7522 J5.9109
G0 Z3.0
G0 X20.4118 Y7.7719
G0 Z-0.5
G1 F300.0 Z-2.0
G3 F800.0 X21.0953 Y8.1821 I16.0 J15.9
G3 X21.1081 Y8.1187 I24.1875 J8.7733
G3 X21.9751 Y6.5336 I24.1875 J8.7733
G2 X21.2996 Y6.6273 I23.7184 J21.5761
G3 X20.9818 Y7.1723 I18.4349 J5.3218
G3 X20.4118 Y7.7719 I18.4349 J5.3218
G0 Z3.0
G0 X24.3468 Y11.9174
G0 Z-0.5
G1 F300.0 Z-2.0
G3 F800.0 X24.6587 Y12.651 I16.0 J15.9
G3 X24.7063 Y12.6073 I26.8128 J14.9469
G3 X26.3394 Y11.8345 I26.8128 J14.9469
G2 X25.7378 Y11.5133 I18.908 J25.0288
G3 X25.1604 Y11.7674 I24.1875 J8.7733
G3 X24.3468 Y11.9174 I24.1875 J8.7733
G0 Z3.0
G0 X25.0936 Y17.5841
G0 Z-0.5
G1 F300.0 Z-2.0
G3 F800.0 X24.9148 Y18.361 I16.0 J15.9
G3 X24.9789 Y18.3536 I25.308 J21.4845
G3 X26.7544 Y18.6883 I25.308 J21.4845
G2 X26.4565 Y18.0748 I12.9868 J24.9946
G3 X25.84 Y17.941 I26.8128 J14.9469
G3 X25.0936 Y17.5841 I26.8128 J14.9469
G0 Z3.0
G0 X22.3669 Y22.6076
G0 Z-0.5
G1 F300.0 Z-2.0
G3 F800.0 X21.7657 Y23.1309 I16.0 J15.9
G3 X21.8219 Y23.1627 I20.2478 J25.8891
G3 X23.0616 Y24.477 I20.2478 J25.8891
G2 X23.1812 Y23.8057 I8.2166 J21.4866
G3 X22.7611 Y23.335 I25.308 J21.4845
G3 X22.3669 Y22.6076 I25.308 J21.4845
G0 Z3.0
G0 X27.2108 Y25.8528
G0 Z-0.5
G1 F300.0 Z-2.0
G3 F800.0 X26.7034 Y27.6579 I8.2166 J21.4866
G2 X27.8638 Y26.4858 I16.0 J15.9
G3 X27.2108 Y25.8528 I30.0218 J23.6065
G1 F300.0 X26.7723 Y25.752
G3 F800.0 X25.6796 Y29.0727 I8.2166 J21.4866
G3 X25.681 Y29.0758 I22.8141 J30.3765
G2 X28.5442 Y26.3864 I16.0 J15.9
G3 X27.0116 Y24.5286 I30.0218 J23.6065
G3 X26.7723 Y25.752 I8.2166 J21.4866
G0 Z3.0
G0 X31.5703 Y19.1211
G0 Z-0.5
G1 F300.0 Z-2.0
G2 F800.0 X31.8202 Y17.4907 I16.0 J15.9
G3 X30.9199 Y17.3624 I31.8736 J13.8929
G3 X31.5703 Y19.1211 I12.9868 J24.9946
G1 F300.0 X31.1412 Y19.2567
G3 F800.0 X31.5737 Y20.8674 I12.9868 J24.9946
G3 X31.5766 Y20.8691 I30.0218 J23.6065
G2 X32.3123 Y17.0104 I16.0 J15.9
G3 X29.9804 Y16.4082 I31.8736 J13.8929
G3 X31.1412 Y19.2567 I12.9868 J24.9946
G0 Z3.0
G0 X30.4899 Y9.3539
G0 Z-0.5
G1 F300.0 Z-2.0
G2 F800.0 X29.7338 Y7.888 I16.0 J15.9
G3 X28.93 Y8.3134 I27.6623 J4.946
G3 X30.4899 Y9.3539 I18.908 J25.0288
G1 F300.0 X30.9 Y9.1686
G2 F800.0 X29.8496 Y7.2102 I16.0 J15.9
G3 X27.6091 Y8.0937 I27.6623 J4.946
G3 X31.5192 Y10.7647 I18.908 J25.0288
G3 X31.5225 Y10.7643 I31.8736 J13.8929
G2 X30.9 Y9.1686 I16.0 J15.9
G0 Z3.0
G0 X23.8749 Y2.0871
G0 Z-0.5
G1 F300.0 Z-2.0
G2 F800.0 X22.4016 Y1.3456 I16.0 J15.9
G3 X22.0013 Y2.1623 I18.9964 J0.1831
G3 X23.8749 Y2.0871 I23.7184 J21.5761
G1 F300.0 X23.8713 Y2.5371
G3 F800.0 X25.5368 Y2.6235 I23.7184 J21.5761
G3 X25.5393 Y2.6213 I27.6623 J4.946
G2 X22.0968 Y0.7293 I16.0 J15.9
G3 X20.8035 Y2.7609 I18.9964 J0.1831
G3 X23.8713 Y2.5371 I23.7184 J21.5761
G0 Z3.0
G0 X14.2519 Y0.0964
G0 Z-0.5
G1 F300.0 Z-2.0
G2 F800.0 X12.6241 Y0.3625 I16.0 J15.9
G3 X12.7803 Y1.2585 I9.1859 J1.4235
G3 X14.2519 Y0.0964 I25.5806 J15.9553
G1 F300.0 X14.2025 Y-0.3509
G2 F800.0 X12.0153 Y0.043 I16.0 J15.9
G3 X12.1632 Y2.4468 I9.1859 J1.4235
G3 X15.9117 Y-0.4465 I25.5806 J15.9553
G3 X15.9124 Y-0.4498 I18.9964 J0.1831
G2 X14.2025 Y-0.3509 I16.0 J15.9
G0 Z3.0
G0 X5.2966 Y4.1421
G0 Z-0.5
G1 F300.0 Z-2.0
G2 F800.0 X4.1362 Y5.3142 I16.0 J15.9
G3 X4.7892 Y5.9472 I1.9782 J8.1935
G3 X5.2966 Y4.1421 I23.7834 J10.3134
G1 F300.0 X5.7235 Y4.2846
G3 F800.0 X6.3204 Y2.7273 I23.7834 J10.3134
G3 X6.319 Y2.7242 I9.1859 J1.4235
G2 X3.4558 Y5.4136 I16.0 J15.9
G3 X4.9884 Y7.2714 I1.9782 J8.1935
G3 X5.7235 Y4.2846 I23.7834 J10.3134
G0 Z3.0
G0 X0.4297 Y12.6789
G0 Z-0.5
G1 F300.0 Z-2.0
G2 F800.0 X0.1798 Y14.3093 I16.0 J15.9
G3 X1.0801 Y14.4376 I0.1264 J17.9071
G3 X0.4297 Y12.6789 I19.0132 J6.8054
G1 F300.0 X0.8588 Y12.5433
G3 F800.0 X0.4263 Y10.9326 I19.0132 J6.8054
G3 X0.4234 Y10.9309 I1.9782 J8.1935
G2 X-0.3123 Y14.7896 I16.0 J15.9
G3 X2.0196 Y15.3918 I0.1264 J17.9071
G3 X0.8588 Y12.5433 I19.0132 J6.8054
G0 Z3.0
G0 X1.5101 Y22.4461
G0 Z-0.5
G1 F300.0 Z-2.0
G2 F800.0 X2.2662 Y23.912 I16.0 J15.9
G3 X3.07 Y23.4866 I4.3377 J26.854
G3 X1.5101 Y22.4461 I13.092 J6.7712
G1 F300.0 X1.1 Y22.6314
G2 F800.0 X2.1504 Y24.5898 I16.0 J15.9
G3 X4.3909 Y23.7063 I4.3377 J26.854
G3 X0.4808 Y21.0353 I13.092 J6.7712
G3 X0.4775 Y21.0357 I0.1264 J17.9071
G2 X1.1 Y22.6314 I16.0 J15.9
G0 Z3.0
G0 X8.1251 Y29.7129
G0 Z-0.5
G1 F300.0 Z-2.0
G2 F800.0 X9.5984 Y30.4544 I16.0 J15.9
G3 X9.9987 Y29.6377 I13.0036 J31.6169
G3 X8.1251 Y29.7129 I8.2816 J10.2239
G1 F300.0 X7.9022 Y30.1038
G2 F800.0 X9.9032 Y31.0707 I16.0 J15.9
G3 X11.1965 Y29.0391 I13.0036 J31.6169
G3 X6.4632 Y29.1765 I8.2816 J10.2239
G3 X6.4607 Y29.1787 I4.3377 J26.854
G2 X7.825 Y30.0595 I16.0 J15.9
G2 X7.9022 Y30.1038 I16.0 J15.9
G1 F300.0 X7.4565 Y30.8857
G2 F800.0 X10.8849 Y32.3742 I16.0 J15.9
G3 X10.7536 Y31.6169 I13.0036 J31.6169
G3 X14.1286 Y29.6684 I13.0036 J31.6169
G3 X14.3304 Y29.7997 I13.0036 J31.6169
G2 X18.1736 Y26.7609 I6.4194 J15.8447
G3 X17.9978 Y25.8891 I20.2478 J25.8891
G3 X21.3728 Y23.9405 I20.2478 J25.8891
G3 Y27.8376 I20.2478 J25.8891
G3 X19.8007 Y28.0942 I20.2478 J25.8891
G3 X15.2524 Y31.6904 I6.4194 J15.8447
G3 X14.6952 Y33.1006 I13.0036 J31.6169
G2 X21.5451 Y32.2345 I16.0 J15.9
G3 X20.9938 Y31.699 I22.8141 J30.3765
G3 X22.5789 Y28.1388 I22.8141 J30.3765
G3 X22.8193 Y28.1265 I22.8141 J30.3765
G2 X24.1424 Y23.4091 I8.2166 J21.4866
G3 X23.4877 Y22.807 I25.308 J21.4845
G3 X25.0728 Y19.2468 I25.308 J21.4845
G3 X27.3635 Y22.3997 I25.308 J21.4845
G3 X26.2424 Y23.5313 I25.308 J21.4845
G3 X24.6766 Y29.1141 I8.2166 J21.4866
G3 X25.0546 Y30.5825 I22.8141 J30.3765
G2 X30.0872 Y25.8556 I16.0 J15.9
G3 X29.3265 Y25.7464 I30.0218 J23.6065
G3 X28.5162 Y21.9344 I30.0218 J23.6065
G3 X28.7035 Y21.7831 I30.0218 J23.6065
G2 X27.0011 Y17.189 I12.9868 J24.9946
G3 X26.1176 Y17.0867 I26.8128 J14.9469
G3 X25.3073 Y13.2748 I26.8128 J14.9469
G3 X29.0137 Y14.4791 I26.8128 J14.9469
G3 X28.7719 Y16.0535 I26.8128 J14.9469
G3 X30.7866 Y21.4905 I12.9868 J24.9946
G3 X31.9555 Y22.4562 I30.0218 J23.6065
G2 X33.25 Y15.9 I16.0 J15.9
G2 X33.2485 Y15.674 I16.0 J15.9
G3 X32.5689 Y16.0328 I31.8736 J13.8929
G3 X29.6728 Y13.4251 I31.8736 J13.8929
G3 X29.7354 Y13.1927 I31.8736 J13.8929
G2 X25.6577 Y10.4765 I18.908 J25.0288
G3 X24.8828 Y10.9131 I24.1875 J8.7733
G3 X21.9867 Y8.3055 I24.1875 J8.7733
G3 X25.6931 Y7.1012 I24.1875 J8.7733
G3 X26.4229 Y8.5171 I24.1875 J8.7733
G3 X31.2486 Y11.7315 I18.908 J25.0288
G3 X32.7619 Y11.8257 I31.8736 J13.8929
G2 X29.8215 Y5.5787 I16.0 J15.9
G3 X29.4826 Y6.2685 I27.6623 J4.946
G3 X25.6068 Y5.8611 I27.6623 J4.946
G3 X25.5208 Y5.6363 I27.6623 J4.946
G2 X20.6254 Y5.8357 I23.7184 J21.5761
G3 X20.2551 Y6.6444 I18.4349 J5.3218
G3 X16.3794 Y6.237 I18.4349 J5.3218
G3 X18.67 Y3.0842 I18.4349 J5.3218
G3 X20.0927 Y3.8007 I18.4349 J5.3218
G3 X25.8862 Y3.5647 I23.7184 J21.5761
G3 X27.1659 Y2.7514 I27.6623 J4.946
G2 X21.1151 Y-0.5742 I16.0 J15.9
G3 X21.2464 Y0.1831 I18.9964 J0.1831
G3 X17.8714 Y2.1316 I18.9964 J0.1831
G3 X17.6696 Y2.0003 I18.9964 J0.1831
G2 X13.8264 Y5.0391 I25.5806 J15.9553
G3 X14.0022 Y5.9109 I11.7522 J5.9109
G3 X10.6272 Y7.8595 I11.7522 J5.9109
G3 Y3.9624 I11.7522 J5.9109
G3 X12.1993 Y3.7058 I11.7522 J5.9109
G3 X16.7476 Y0.1096 I25.5806 J15.9553
G3 X17.3048 Y-1.3006 I18.9964 J0.1831
G2 X10.4549 Y-0.4345 I16.0 J15.9
G3 X11.0062 Y0.101 I9.1859 J1.4235
G3 X9.4211 Y3.6612 I9.1859 J1.4235
G3 X9.1807 Y3.6735 I9.1859 J1.4235
G2 X7.8576 Y8.3909 I23.7834 J10.3134
G3 X8.5123 Y8.993 I6.692 J10.3155
G3 X6.9272 Y12.5532 I6.692 J10.3155
G3 X4.6365 Y9.4003 I6.692 J10.3155
G3 X5.7576 Y8.2687 I6.692 J10.3155
G3 X7.3234 Y2.6859 I23.7834 J10.3134
G3 X6.9454 Y1.2175 I9.1859 J1.4235
G2 X1.9128 Y5.9444 I16.0 J15.9
G3 X2.6735 Y6.0536 I1.9782 J8.1935
G3 X3.4838 Y9.8656 I1.9782 J8.1935
G3 X3.2965 Y10.0169 I1.9782 J8.1935
G2 X4.9989 Y14.611 I19.0132 J6.8054
G3 X5.8824 Y14.7133 I5.1872 J16.8531
G3 X6.6927 Y18.5252 I5.1872 J16.8531
G3 X2.9863 Y17.3209 I5.1872 J16.8531
G3 X3.2281 Y15.7465 I5.1872 J16.8531
G3 X1.2134 Y10.3095 I19.0132 J6.8054
G3 X0.0445 Y9.3438 I1.9782 J8.1935
G2 X-1.2485 Y16.126 I16.0 J15.9
G3 X-0.5689 Y15.7672 I0.1264 J17.9071
G3 X2.3272 Y18.3749 I0.1264 J17.9071
G3 X2.2646 Y18.6073 I0.1264 J17.9071
G2 X6.3423 Y21.3235 I13.092 J6.7712
G3 X7.1172 Y20.8869 I7.8125 J23.0267
G3 X10.0133 Y23.4945 I7.8125 J23.0267
G3 X6.3069 Y24.6988 I7.8125 J23.0267
G3 X5.5771 Y23.2829 I7.8125 J23.0267
G3 X0.7514 Y20.0685 I13.092 J6.7712
G3 X-0.7619 Y19.9743 I0.1264 J17.9071
G2 X2.1785 Y26.2213 I16.0 J15.9
G3 X2.5174 Y25.5315 I4.3377 J26.854
G3 X6.3932 Y25.9389 I4.3377 J26.854
G3 X6.4792 Y26.1637 I4.3377 J26.854
G2 X11.3746 Y25.9643 I8.2816 J10.2239
G3 X11.7449 Y25.1556 I13.5651 J26.4782
G3 X15.6206 Y25.563 I13.5651 J26.4782
G3 X13.33 Y28.7158 I13.5651 J26.4782
G3 X11.9073 Y27.9993 I13.5651 J26.4782
G3 X6.1138 Y28.2353 I8.2816 J10.2239
G3 X4.8341 Y29.0486 I4.3377 J26.854
G2 X7.375 Y30.8389 I16.0 J15.9
G2 X7.4565 Y30.8857 I16.0 J15.9
G0 Z3.0
G0 X11.8644 Y23.1539
G0 Z-0.5
G1 F300.0 Z-2.0
G3 F800.0 X11.825 Y23.1313 I16.0 J15.9
G3 Y8.6687 I16.0 J15.9
G3 X24.35 Y15.9 I16.0 J15.9
G3 X11.8644 Y23.1539 I16.0 J15.9
G1 F300.0 Z-3.0
G3 F800.0 X11.825 Y23.1313 I16.0 J15.9
G3 Y8.6687 I16.0 J15.9
G3 X24.35 Y15.9 I16.0 J15.9
G3 X11.8644 Y23.1539 I16.0 J15.9
G1 F300.0 X11.4196 Y23.9342
G3 F800.0 X11.3759 Y23.9092 I16.0 J15.9
G3 X10.9047 Y23.6179 I16.0 J15.9
G3 X10.8919 Y23.6813 I7.8125 J23.0267
G3 X10.0249 Y25.2664 I7.8125 J23.0267
G2 X10.7004 Y25.1727 I8.2816 J10.2239
G3 X11.0182 Y24.6277 I13.5651 J26.4782
G3 X11.5882 Y24.0281 I13.5651 J26.4782
G3 X11.4196 Y23.9342 I16.0 J15.9
G0 Z3.0
G0 X16.4143 Y25.1389
G0 Z-1.5
G1 F300.0 Z-3.0
G3 F800.0 X16.4412 Y25.1977 I13.5651 J26.4782
G3 X16.6715 Y26.9897 I13.5651 J26.4782
G2 X17.1629 Y26.5168 I6.4194 J15.8447
G3 X17.0996 Y25.8891 I20.2478 J25.8891
G3 X17.2084 Y25.0689 I20.2478 J25.8891
G3 X16.4143 Y25.1389 I16.0 J15.9
G0 Z3.0
G0 X21.7657 Y23.1309
G0 Z-1.5
G1 F300.0 Z-3.0
G3 F800.0 X21.8219 Y23.1627 I20.2478 J25.8891
G3 X23.0616 Y24.477 I20.2478 J25.8891
G2 X23.1812 Y23.8057 I8.2166 J21.4866
G3 X22.7611 Y23.335 I25.308 J21.4845
G3 X22.3669 Y22.6076 I25.308 J21.4845
G3 X21.7657 Y23.1309 I16.0 J15.9
G0 Z3.0
G0 X24.9148 Y18.361
G0 Z-1.5
G1 F300.0 Z-3.0
G3 F800.0 X24.9789 Y18.3536 I25.308 J21.4845
G3 X26.7544 Y18.6883 I25.308 J21.4845
G2 X26.4565 Y18.0748 I12.9868 J24.9946
G3 X25.84 Y17.941 I26.8128 J14.9469
G3 X25.0936 Y17.5841 I26.8128 J14.9469
G3 X24.9148 Y18.361 I16.0 J15.9
G0 Z3.0
G0 X24.6587 Y12.651
G0 Z-1.5
G1 F300.0 Z-3.0
G3 F800.0 X24.7063 Y12.6073 I26.8128 J14.9469
G3 X26.3394 Y11.8345 I26.8128 J14.9469
G2 X25.7378 Y11.5133 I18.908 J25.0288
G3 X25.1604 Y11.7674 I24.1875 J8.7733
G3 X24.3468 Y11.9174 I24.1875 J8.7733
G3 X24.6587 Y12.651 I16.0 J15.9
G0 Z3.0
G0 X21.0953 Y8.1821
G0 Z-1.5
G1 F300.0 Z-3.0
G3 F800.0 X21.1081 Y8.1187 I24.1875 J8.7733
G3 X21.9751 Y6.5336 I24.1875 J8.7733
G2 X21.2996 Y6.6273 I23.7184 J21.5761
G3 X20.9818 Y7.1723 I18.4349 J5.3218
G3 X20.4118 Y7.7719 I18.4349 J5.3218
G3 X21.0953 Y8.1821 I16.0 J15.9
G0 Z3.0
G0 X15.5857 Y6.6611
G0 Z-1.5
G1 F300.0 Z-3.0
G3 F800.0 X15.5588 Y6.6023 I18.4349 J5.3218
G3 X15.3285 Y4.8103 I18.4349 J5.3218
G2 X14.8371 Y5.2832 I25.5806 J15.9553
G3 X14.9004 Y5.9109 I11.7522 J5.9109
G3 X14.7916 Y6.7311 I11.7522 J5.9109
G3 X15.5857 Y6.6611 I16.0 J15.9
G0 Z3.0
G0 X10.2343 Y8.6691
G0 Z-1.5
G1 F300.0 Z-3.0
G3 F800.0 X10.1781 Y8.6373 I11.7522 J5.9109
G3 X8.9384 Y7.323 I11.7522 J5.9109
G2 X8.8188 Y7.9943 I23.7834 J10.3134
G3 X9.2389 Y8.465 I6.692 J10.3155
G3 X9.6331 Y9.1924 I6.692 J10.3155
G3 X10.2343 Y8.6691 I16.0 J15.9
G0 Z3.0
G0 X7.0852 Y13.439
G0 Z-1.5
G1 F300.0 Z-3.0
G3 F800.0 X7.0211 Y13.4464 I6.692 J10.3155
G3 X5.2456 Y13.1117 I6.692 J10.3155
G2 X5.5435 Y13.7252 I19.0132 J6.8054
G3 X6.16 Y13.859 I5.1872 J16.8531
G3 X6.9064 Y14.2159 I5.1872 J16.8531
G3 X7.0852 Y13.439 I16.0 J15.9
G0 Z3.0
G0 X7.3413 Y19.149
G0 Z-1.5
G1 F300.0 Z-3.0
G3 F800.0 X7.2937 Y19.1927 I5.1872 J16.8531
G3 X5.6606 Y19.9655 I5.1872 J16.8531
G2 X6.2622 Y20.2867 I13.092 J6.7712
G3 X6.8396 Y20.0326 I7.8125 J23.0267
G3 X7.6532 Y19.8826 I7.8125 J23.0267
G3 X7.3413 Y19.149 I16.0 J15.9
G0 Z3.0
G0 X3.07 Y23.4866
G0 Z-1.5
G1 F300.0 Z-3.0
G3 F800.0 X1.5101 Y22.4461 I13.092 J6.7712
G2 X2.2662 Y23.912 I16.0 J15.9
G3 X3.07 Y23.4866 I4.3377 J26.854
G1 F300.0 X3.3014 Y23.1006
G3 F800.0 X0.4808 Y21.0353 I13.092 J6.7712
G3 X0.4775 Y21.0357 I0.1264 J17.9071
G2 X2.1504 Y24.5898 I16.0 J15.9
G3 X4.3909 Y23.7063 I4.3377 J26.854
G3 X3.3014 Y23.1006 I13.092 J6.7712
G0 Z3.0
G0 X8.1251 Y29.7129
G0 Z-1.5
G1 F300.0 Z-3.0
G2 F800.0 X9.5984 Y30.4544 I16.0 J15.9
G3 X9.9987 Y29.6377 I13.0036 J31.6169
G3 X8.1251 Y29.7129 I8.2816 J10.2239
G1 F300.0 X7.9022 Y30.1038
G2 F800.0 X9.9032 Y31.0707 I16.0 J15.9
G3 X11.1965 Y29.0391 I13.0036 J31.6169
G3 X6.4632 Y29.1765 I8.2816 J10.2239
G3 X6.4607 Y29.1787 I4.3377 J26.854
G2 X7.825 Y30.0595 I16.0 J15.9
G2 X7.9022 Y30.1038 I16.0 J15.9
G0 Z3.0
G0 X17.7481 Y31.7036
G0 Z-1.5
G1 F300.0 Z-3.0
G2 F800.0 X19.3759 Y31.4375 I16.0 J15.9
G3 X19.2197 Y30.5415 I22.8141 J30.3765
G3 X17.7481 Y31.7036 I6.4194 J15.8447
G1 F300.0 X17.4865 Y31.3374
G3 F800.0 X16.0883 Y32.2465 I6.4194 J15.8447
G3 X16.0876 Y32.2498 I13.0036 J31.6169
G2 X19.9847 Y31.757 I16.0 J15.9
G3 X19.8368 Y29.3532 I22.8141 J30.3765
G3 X17.4865 Y31.3374 I6.4194 J15.8447
G0 Z3.0
G0 X26.7034 Y27.6579
G0 Z-1.5
G1 F300.0 Z-3.0
G2 F800.0 X27.8638 Y26.4858 I16.0 J15.9
G3 X27.2108 Y25.8528 I30.0218 J23.6065
G3 X26.7034 Y27.6579 I8.2166 J21.4866
G1 F300.0 X26.2765 Y27.5154
G3 F800.0 X25.6796 Y29.0727 I8.2166 J21.4866
G3 X25.681 Y29.0758 I22.8141 J30.3765
G2 X28.5442 Y26.3864 I16.0 J15.9
G3 X27.0116 Y24.5286 I30.0218 J23.6065
G3 X26.2765 Y27.5154 I8.2166 J21.4866
G0 Z3.0
G0 X31.5703 Y19.1211
G0 Z-1.5
G1 F300.0 Z-3.0
G2 F800.0 X31.8202 Y17.4907 I16.0 J15.9
G3 X30.9199 Y17.3624 I31.8736 J13.8929
G3 X31.5703 Y19.1211 I12.9868 J24.9946
G1 F300.0 X31.1412 Y19.2567
G3 F800.0 X31.5737 Y20.8674 I12.9868 J24.9946
G3 X31.5766 Y20.8691 I30.0218 J23.6065
G2 X32.3123 Y17.0104 I16.0 J15.9
G3 X29.9804 Y16.4082 I31.8736 J13.8929
G3 X31.1412 Y19.2567 I12.9868 J24.9946
G0 Z3.0
G0 X30.4899 Y9.3539
G0 Z-1.5
G1 F300.0 Z-3.0
G2 F800.0 X29.7338 Y7.888 I16.0 J15.9
G3 X28.93 Y8.3134 I27.6623 J4.946
G3 X30.4899 Y9.3539 I18.908 J25.0288
G1 F300.0 X30.9 Y9.1686
G2 F800.0 X29.8496 Y7.2102 I16.0 J15.9
G3 X27.6091 Y8.0937 I27.6623 J4.946
G3 X31.5192 Y10.7647 I18.908 J25.0288
G3 X31.5225 Y10.7643 I31.8736 J13.8929
G2 X30.9 Y9.1686 I16.0 J15.9
G0 Z3.0
G0 X23.8749 Y2.0871
G0 Z-1.5
G1 F300.0 Z-3.0
G2 F800.0 X22.4016 Y1.3456 I16.0 J15.9
G3 X22.0013 Y2.1623 I18.9964 J0.1831
G3 X23.8749 Y2.0871 I23.7184 J21.5761
G1 F300.0 X23.8713 Y2.5371
G3 F800.0 X25.5368 Y2.6235 I23.7184 J21.5761
G3 X25.5393 Y2.6213 I27.6623 J4.946
G2 X22.0968 Y0.7293 I16.0 J15.9
G3 X20.8035 Y2.7609 I18.9964 J0.1831
G3 X23.8713 Y2.5371 I23.7184 J21.5761
G0 Z3.0
G0 X14.2519 Y0.0964
G0 Z-1.5
G1 F300.0 Z-3.0
G2 F800.0 X12.6241 Y0.3625 I16.0 J15.9
G3 X12.7803 Y1.2585 I9.1859 J1.4235
G3 X14.2519 Y0.0964 I25.5806 J15.9553
G1 F300.0 X14.2025 Y-0.3509
G2 F800.0 X12.0153 Y0.043 I16.0 J15.9
G3 X12.1632 Y2.4468 I9.1859 J1.4235
G3 X15.9117 Y-0.4465 I25.5806 J15.9553
G3 X15.9124 Y-0.4498 I18.9964 J0.1831
G2 X14.2025 Y-0.3509 I16.0 J15.9
G0 Z3.0
G0 X5.2966 Y4.1421
G0 Z-1.5
G1 F300.0 Z-3.0
G2 F800.0 X4.1362 Y5.3142 I16.0 J15.9
G3 X4.7892 Y5.9472 I1.9782 J8.1935
G3 X5.2966 Y4.1421 I23.7834 J10.3134
G1 F300.0 X5.7235 Y4.2846
G3 F800.0 X6.3204 Y2.7273 I23.7834 J10.3134
G3 X6.319 Y2.7242 I9.1859 J1.4235
G2 X3.4558 Y5.4136 I16.0 J15.9
G3 X4.9884 Y7.2714 I1.9782 J8.1935
G3 X5.7235 Y4.2846 I23.7834 J10.3134
G0 Z3.0
G0 X0.4297 Y12.6789
G0 Z-1.5
G1 F300.0 Z-3.0
G2 F800.0 X0.1798 Y14.3093 I16.0 J15.9
G3 X1.0801 Y14.4376 I0.1264 J17.9071
G3 X0.4297 Y12.6789 I19.0132 J6.8054
G1 F300.0 X0.8588 Y12.5433
G3 F800.0 X0.4263 Y10.9326 I19.0132 J6.8054
G3 X0.4234 Y10.9309 I1.9782 J8.1935
G2 X-0.3123 Y14.7896 I16.0 J15.9
G3 X2.0196 Y15.3918 I0.1264 J17.9071
G3 X0.8588 Y12.5433 I19.0132 J6.8054
G1 F300.0 X1.7152 Y12.2726
G3 F800.0 X1.2134 Y10.3095 I19.0132 J6.8054
G3 X0.0445 Y9.3438 I1.9782 J8.1935
G2 X-1.2485 Y16.126 I16.0 J15.9
G3 X-0.5689 Y15.7672 I0.1264 J17.9071
G3 X2.3272 Y18.3749 I0.1264 J17.9071
G3 X2.2646 Y18.6073 I0.1264 J17.9071
G2 X6.3423 Y21.3235 I13.092 J6.7712
G3 X7.1172 Y20.8869 I7.8125 J23.0267
G3 X10.0133 Y23.4945 I7.8125 J23.0267
G3 X6.3069 Y24.6988 I7.8125 J23.0267
G3 X5.5771 Y23.2829 I7.8125 J23.0267
G3 X0.7514 Y20.0685 I13.092 J6.7712
G3 X-0.7619 Y19.9743 I0.1264 J17.9071
G2 X2.1785 Y26.2213 I16.0 J15.9
G3 X2.5174 Y25.5315 I4.3377 J26.854
G3 X6.3932 Y25.9389 I4.3377 J26.854
G3 X6.4792 Y26.1637 I4.3377 J26.854
G2 X11.3746 Y25.9643 I8.2816 J10.2239
G3 X11.7449 Y25.1556 I13.5651 J26.4782
G3 X15.6206 Y25.563 I13.5651 J26.4782
G3 X13.33 Y28.7158 I13.5651 J26.4782
G3 X11.9073 Y27.9993 I13.5651 J26.4782
G3 X6.1138 Y28.2353 I8.2816 J10.2239
G3 X4.8341 Y29.0486 I4.3377 J26.854
G2 X7.375 Y30.8389 I16.0 J15.9
G2 X10.8849 Y32.3742 I16.0 J15.9
G3 X10.7536 Y31.6169 I13.0036 J31.6169
G3 X14.1286 Y29.6684 I13.0036 J31.6169
G3 X14.3304 Y29.7997 I13.0036 J31.6169
G2 X18.1736 Y26.7609 I6.4194 J15.8447
G3 X17.9978 Y25.8891 I20.2478 J25.8891
G3 X21.3728 Y23.9405 I20.2478 J25.8891
G3 Y27.8376 I20.2478 J25.8891
G3 X19.8007 Y28.0942 I20.2478 J25.8891
G3 X15.2524 Y31.6904 I6.4194 J15.8447
G3 X14.6952 Y33.1006 I13.0036 J31.6169
G2 X21.5451 Y32.2345 I16.0 J15.9
G3 X20.9938 Y31.699 I22.8141 J30.3765
G3 X22.5789 Y28.1388 I22.8141 J30.3765
G3 X22.8193 Y28.1265 I22.8141 J30.3765
G2 X24.1424 Y23.4091 I8.2166 J21.4866
G3 X23.4877 Y22.807 I25.308 J21.4845
G3 X25.0728 Y19.2468 I25.308 J21.4845
G3 X27.3635 Y22.3997 I25.308 J21.4845
G3 X26.2424 Y23.5313 I25.308 J21.4845
G3 X24.6766 Y29.1141 I8.2166 J21.4866
G3 X25.0546 Y30.5825 I22.8141 J30.3765
G2 X30.0872 Y25.8556 I16.0 J15.9
G3 X29.3265 Y25.7464 I30.0218 J23.6065
G3 X28.5162 Y21.9344 I30.0218 J23.6065
G3 X28.7035 Y21.7831 I30.0218 J23.6065
G2 X27.0011 Y17.189 I12.9868 J24.9946
G3 X26.1176 Y17.0867 I26.8128 J14.9469
G3 X25.3073 Y13.2748 I26.8128 J14.9469
G3 X29.0137 Y14.4791 I26.8128 J14.9469
G3 X28.7719 Y16.0535 I26.8128 J14.9469
G3 X30.7866 Y21.4905 I12.9868 J24.9946
G3 X31.9555 Y22.4562 I30.0218 J23.6065
G2 X33.25 Y15.9 I16.0 J15.9
G2 X33.2485 Y15.674 I16.0 J15.9
G3 X32.5689 Y16.0328 I31.8736 J13.8929
G3 X29.6728 Y13.4251 I31.8736 J13.8929
G3 X29.7354 Y13.1927 I31.8736 J13.8929
G2 X25.6577 Y10.4765 I18.908 J25.0288
G3 X24.8828 Y10.9131 I24.1875 J8.7733
G3 X21.9867 Y8.3055 I24.1875 J8.7733
G3 X25.6931 Y7.1012 I24.1875 J8.7733
G3 X26.4229 Y8.5171 I24.1875 J8.7733
G3 X31.2486 Y11.7315 I18.908 J25.0288
G3 X32.7619 Y11.8257 I31.8736 J13.8929
G2 X29.8215 Y5.5787 I16.0 J15.9
G3 X29.4826 Y6.2685 I27.6623 J4.946
G3 X25.6068 Y5.8611 I27.6623 J4.946
G3 X25.5208 Y5.6363 I27.6623 J4.946
G2 X20.6254 Y5.8357 I23.7184 J21.5761
G3 X20.2551 Y6.6444 I18.4349 J5.3218
G3 X16.3794 Y6.237 I18.4349 J5.3218
G3 X18.67 Y3.0842 I18.4349 J5.3218
G3 X20.0927 Y3.8007 I18.4349 J5.3218
G3 X25.8862 Y3.5647 I23.7184 J21.5761
G3 X27.1659 Y2.7514 I27.6623 J4.946
G2 X21.1151 Y-0.5742 I16.0 J15.9
G3 X21.2464 Y0.1831 I18.9964 J0.1831
G3 X17.8714 Y2.1316 I18.9964 J0.1831
G3 X17.6696 Y2.0003 I18.9964 J0.1831
G2 X13.8264 Y5.0391 I25.5806 J15.9553
G3 X14.0022 Y5.9109 I11.7522 J5.9109
G3 X10.6272 Y7.8595 I11.7522 J5.9109
G3 Y3.9624 I11.7522 J5.9109
G3 X12.1993 Y3.7058 I11.7522 J5.9109
G3 X16.7476 Y0.1096 I25.5806 J15.9553
G3 X17.3048 Y-1.3006 I18.9964 J0.1831
G2 X10.4549 Y-0.4345 I16.0 J15.9
G3 X11.0062 Y0.101 I9.1859 J1.4235
G3 X9.4211 Y3.6612 I9.1859 J1.4235
G3 X9.1807 Y3.6735 I9.1859 J1.4235
G2 X7.8576 Y8.3909 I23.7834 J10.3134
G3 X8.5123 Y8.993 I6.692 J10.3155
G3 X6.9272 Y12.5532 I6.692 J10.3155
G3 X4.6365 Y9.4003 I6.692 J10.3155
G3 X5.7576 Y8.2687 I6.692 J10.3155
G3 X7.3234 Y2.6859 I23.7834 J10.3134
G3 X6.9454 Y1.2175 I9.1859 J1.4235
G2 X1.9128 Y5.9444 I16.0 J15.9
G3 X2.6735 Y6.0536 I1.9782 J8.1935
G3 X3.4838 Y9.8656 I1.9782 J8.1935
G3 X3.2965 Y10.0169 I1.9782 J8.1935
G2 X4.9989 Y14.611 I19.0132 J6.8054
G3 X5.8824 Y14.7133 I5.1872 J16.8531
G3 X6.6927 Y18.5252 I5.1872 J16.8531
G3 X2.9863 Y17.3209 I5.1872 J16.8531
G3 X3.2281 Y15.7465 I5.1872 J16.8531
G3 X1.7152 Y12.2726 I19.0132 J6.8054
G0 Z3.0
G0 X0.4297 Y12.6789
G0 Z-2.5
G1 F300.0 Z-4.0
G2 F800.0 X0.1798 Y14.3093 I16.0 J15.9
G3 X1.0801 Y14.4376 I0.1264 J17.9071
G3 X0.4297 Y12.6789 I19.0132 J6.8054
G1 F300.0 X0.8588 Y12.5433
G3 F800.0 X0.4263 Y10.9326 I19.0132 J6.8054
G3 X0.4234 Y10.9309 I1.9782 J8.1935
G2 X-0.3123 Y14.7896 I16.0 J15.9
G3 X2.0196 Y15.3918 I0.1264 J17.9071
G3 X0.8588 Y12.5433 I19.0132 J6.8054
G0 Z3.0
G0 X5.2456 Y13.1117
G0 Z-2.5
G1 F300.0 Z-4.0
G2 F800.0 X5.5435 Y13.7252 I19.0132 J6.8054
G3 X6.16 Y13.859 I5.1872 J16.8531
