( Made using CamBam - http://www.cambam.co.uk )
( Impeller_5 12/29/2016 2:55:38 PM )
( T4 : 1.5 )
G21 G90 G64 G40
G0 Z3.0
( T4 : 1.5 )
T4 M6
( Evidage Centre )
G17
M3
G0 X22.0 Y15.9
G0 Z0.5
G1 F150.0 Z-0.3
G2 F250.0 X13.0 Y10.7038 I16.0 J15.9
G2 Y21.0962 I16.0 J15.9
G2 X22.0 Y15.9 I16.0 J15.9
G1 F150.0 X21.55
G3 F250.0 X13.225 Y20.7064 I16.0 J15.9
G3 Y11.0936 I16.0 J15.9
G3 X21.55 Y15.9 I16.0 J15.9
G1 F150.0 Z-0.6
G3 F250.0 X13.225 Y20.7064 I16.0 J15.9
G3 Y11.0936 I16.0 J15.9
G3 X21.55 Y15.9 I16.0 J15.9
G1 F150.0 X22.0
G2 F250.0 X13.0 Y10.7038 I16.0 J15.9
G2 Y21.0962 I16.0 J15.9
G2 X22.0 Y15.9 I16.0 J15.9
G1 F150.0 Z-0.9
G2 F250.0 X13.0 Y10.7038 I16.0 J15.9
G2 Y21.0962 I16.0 J15.9
G2 X22.0 Y15.9 I16.0 J15.9
G1 F150.0 X21.55
G3 F250.0 X13.225 Y20.7064 I16.0 J15.9
G3 Y11.0936 I16.0 J15.9
G3 X21.55 Y15.9 I16.0 J15.9
G1 F150.0 Z-1.2
G3 F250.0 X13.225 Y20.7064 I16.0 J15.9
G3 Y11.0936 I16.0 J15.9
G3 X21.55 Y15.9 I16.0 J15.9
G1 F150.0 X22.0
G2 F250.0 X13.0 Y10.7038 I16.0 J15.9
G2 Y21.0962 I16.0 J15.9
G2 X22.0 Y15.9 I16.0 J15.9
G1 F150.0 Z-1.5
G2 F250.0 X13.0 Y10.7038 I16.0 J15.9
G2 Y21.0962 I16.0 J15.9
G2 X22.0 Y15.9 I16.0 J15.9
G1 F150.0 X21.55
G3 F250.0 X13.225 Y20.7064 I16.0 J15.9
G3 Y11.0936 I16.0 J15.9
G3 X21.55 Y15.9 I16.0 J15.9
G1 F150.0 Z-1.8
G3 F250.0 X13.225 Y20.7064 I16.0 J15.9
G3 Y11.0936 I16.0 J15.9
G3 X21.55 Y15.9 I16.0 J15.9
G1 F150.0 X22.0
G2 F250.0 X13.0 Y10.7038 I16.0 J15.9
G2 Y21.0962 I16.0 J15.9
G2 X22.0 Y15.9 I16.0 J15.9
G1 F150.0 Z-2.1
G2 F250.0 X13.0 Y10.7038 I16.0 J15.9
G2 Y21.0962 I16.0 J15.9
G2 X22.0 Y15.9 I16.0 J15.9
G1 F150.0 X21.55
G3 F250.0 X13.225 Y20.7064 I16.0 J15.9
G3 Y11.0936 I16.0 J15.9
G3 X21.55 Y15.9 I16.0 J15.9
G1 F150.0 Z-2.4
G3 F250.0 X13.225 Y20.7064 I16.0 J15.9
G3 Y11.0936 I16.0 J15.9
G3 X21.55 Y15.9 I16.0 J15.9
G1 F150.0 X22.0
G2 F250.0 X13.0 Y10.7038 I16.0 J15.9
G2 Y21.0962 I16.0 J15.9
G2 X22.0 Y15.9 I16.0 J15.9
G1 F150.0 Z-2.7
G2 F250.0 X13.0 Y10.7038 I16.0 J15.9
G2 Y21.0962 I16.0 J15.9
G2 X22.0 Y15.9 I16.0 J15.9
G1 F150.0 X21.55
G3 F250.0 X13.225 Y20.7064 I16.0 J15.9
G3 Y11.0936 I16.0 J15.9
G3 X21.55 Y15.9 I16.0 J15.9
G1 F150.0 Z-3.0
G3 F250.0 X13.225 Y20.7064 I16.0 J15.9
G3 Y11.0936 I16.0 J15.9
G3 X21.55 Y15.9 I16.0 J15.9
G1 F150.0 X22.0
G2 F250.0 X13.0 Y10.7038 I16.0 J15.9
G2 Y21.0962 I16.0 J15.9
G2 X22.0 Y15.9 I16.0 J15.9
G1 F150.0 Z-3.3
G2 F250.0 X13.0 Y10.7038 I16.0 J15.9
G2 Y21.0962 I16.0 J15.9
G2 X22.0 Y15.9 I16.0 J15.9
G1 F150.0 X21.55
G3 F250.0 X13.225 Y20.7064 I16.0 J15.9
G3 Y11.0936 I16.0 J15.9
G3 X21.55 Y15.9 I16.0 J15.9
G1 F150.0 Z-3.6
G3 F250.0 X13.225 Y20.7064 I16.0 J15.9
G3 Y11.0936 I16.0 J15.9
G3 X21.55 Y15.9 I16.0 J15.9
G1 F150.0 X22.0
G2 F250.0 X13.0 Y10.7038 I16.0 J15.9
G2 Y21.0962 I16.0 J15.9
G2 X22.0 Y15.9 I16.0 J15.9
G1 F150.0 Z-3.9
G2 F250.0 X13.0 Y10.7038 I16.0 J15.9
G2 Y21.0962 I16.0 J15.9
G2 X22.0 Y15.9 I16.0 J15.9
G1 F150.0 X21.55
G3 F250.0 X13.225 Y20.7064 I16.0 J15.9
G3 Y11.0936 I16.0 J15.9
G3 X21.55 Y15.9 I16.0 J15.9
G1 F150.0 Z-4.2
G3 F250.0 X13.225 Y20.7064 I16.0 J15.9
G3 Y11.0936 I16.0 J15.9
G3 X21.55 Y15.9 I16.0 J15.9
G1 F150.0 X22.0
G2 F250.0 X13.0 Y10.7038 I16.0 J15.9
G2 Y21.0962 I16.0 J15.9
G2 X22.0 Y15.9 I16.0 J15.9
G1 F150.0 Z-4.5
G2 F250.0 X13.0 Y10.7038 I16.0 J15.9
G2 Y21.0962 I16.0 J15.9
G2 X22.0 Y15.9 I16.0 J15.9
G1 F150.0 X21.55
G3 F250.0 X13.225 Y20.7064 I16.0 J15.9
G3 Y11.0936 I16.0 J15.9
G3 X21.55 Y15.9 I16.0 J15.9
G1 F150.0 Z-4.8
G3 F250.0 X13.225 Y20.7064 I16.0 J15.9
G3 Y11.0936 I16.0 J15.9
G3 X21.55 Y15.9 I16.0 J15.9
G1 F150.0 X22.0
G2 F250.0 X13.0 Y10.7038 I16.0 J15.9
G2 Y21.0962 I16.0 J15.9
G2 X22.0 Y15.9 I16.0 J15.9
G1 F150.0 Z-5.1
G2 F250.0 X13.0 Y10.7038 I16.0 J15.9
G2 Y21.0962 I16.0 J15.9
G2 X22.0 Y15.9 I16.0 J15.9
G1 F150.0 X21.55
G3 F250.0 X13.225 Y20.7064 I16.0 J15.9
G3 Y11.0936 I16.0 J15.9
G3 X21.55 Y15.9 I16.0 J15.9
G1 F150.0 Z-5.4
G3 F250.0 X13.225 Y20.7064 I16.0 J15.9
G3 Y11.0936 I16.0 J15.9
G3 X21.55 Y15.9 I16.0 J15.9
G1 F150.0 X22.0
G2 F250.0 X13.0 Y10.7038 I16.0 J15.9
G2 Y21.0962 I16.0 J15.9
G2 X22.0 Y15.9 I16.0 J15.9
G1 F150.0 Z-5.7
G2 F250.0 X13.0 Y10.7038 I16.0 J15.9
G2 Y21.0962 I16.0 J15.9
G2 X22.0 Y15.9 I16.0 J15.9
G1 F150.0 X21.55
G3 F250.0 X13.225 Y20.7064 I16.0 J15.9
G3 Y11.0936 I16.0 J15.9
G3 X21.55 Y15.9 I16.0 J15.9
G1 F150.0 Z-6.0
G3 F250.0 X13.225 Y20.7064 I16.0 J15.9
G3 Y11.0936 I16.0 J15.9
G3 X21.55 Y15.9 I16.0 J15.9
G1 F150.0 X22.0
G2 F250.0 X13.0 Y10.7038 I16.0 J15.9
G2 Y21.0962 I16.0 J15.9
G2 X22.0 Y15.9 I16.0 J15.9
G1 F150.0 Z-6.3
G2 F250.0 X13.0 Y10.7038 I16.0 J15.9
G2 Y21.0962 I16.0 J15.9
G2 X22.0 Y15.9 I16.0 J15.9
G1 F150.0 X21.55
G3 F250.0 X13.225 Y20.7064 I16.0 J15.9
G3 Y11.0936 I16.0 J15.9
G3 X21.55 Y15.9 I16.0 J15.9
G1 F150.0 Z-6.6
G3 F250.0 X13.225 Y20.7064 I16.0 J15.9
G3 Y11.0936 I16.0 J15.9
G3 X21.55 Y15.9 I16.0 J15.9
G1 F150.0 X22.0
G2 F250.0 X13.0 Y10.7038 I16.0 J15.9
G2 Y21.0962 I16.0 J15.9
G2 X22.0 Y15.9 I16.0 J15.9
G1 F150.0 Z-6.9
G2 F250.0 X13.0 Y10.7038 I16.0 J15.9
G2 Y21.0962 I16.0 J15.9
G2 X22.0 Y15.9 I16.0 J15.9
G1 F150.0 X21.55
G3 F250.0 X13.225 Y20.7064 I16.0 J15.9
G3 Y11.0936 I16.0 J15.9
G3 X21.55 Y15.9 I16.0 J15.9
G1 F150.0 Z-7.2
G3 F250.0 X13.225 Y20.7064 I16.0 J15.9
G3 Y11.0936 I16.0 J15.9
G3 X21.55 Y15.9 I16.0 J15.9
G1 F150.0 X22.0
G2 F250.0 X13.0 Y10.7038 I16.0 J15.9
G2 Y21.0962 I16.0 J15.9
G2 X22.0 Y15.9 I16.0 J15.9
G1 F150.0 Z-7.5
G2 F250.0 X13.0 Y10.7038 I16.0 J15.9
G2 Y21.0962 I16.0 J15.9
G2 X22.0 Y15.9 I16.0 J15.9
G1 F150.0 X21.55
G3 F250.0 X13.225 Y20.7064 I16.0 J15.9
G3 Y11.0936 I16.0 J15.9
G3 X21.55 Y15.9 I16.0 J15.9
G1 F150.0 Z-7.7
G3 F250.0 X13.225 Y20.7064 I16.0 J15.9
G3 Y11.0936 I16.0 J15.9
G3 X21.55 Y15.9 I16.0 J15.9
G1 F150.0 X22.0
G2 F250.0 X13.0 Y10.7038 I16.0 J15.9
G2 Y21.0962 I16.0 J15.9
G2 X22.0 Y15.9 I16.0 J15.9
( BAs )
G0 Z3.0
G0 X20.0659 Y25.844
G0 Z0.5
G1 F150.0 Z-0.3
G2 F250.0 X19.8506 Y25.4495 I18.4349 J26.4782
G2 X16.8362 Y25.7664 I18.4349 J26.4782
G2 X18.6178 Y28.2186 I18.4349 J26.4782
G2 X19.4986 Y27.8677 I18.4349 J26.4782
G3 X18.3588 Y27.5556 I23.7184 J10.2239
G3 X18.3319 Y27.5467 I18.5804 J26.839
G3 X17.7303 Y26.2744 I18.6597 J26.6133
G3 X17.8267 Y26.0925 I18.4349 J26.5313
G3 X19.1847 Y25.6115 I18.8532 J26.8331
G3 X19.1996 Y25.6157 I18.9883 J26.3353
G2 X20.0659 Y25.844 I23.7184 J10.2239
G0 Z3.0
G0 X26.489 Y28.1525
G0 Z0.5
G1 F150.0 Z-0.3
G2 F250.0 X27.8452 Y28.5945 I27.6623 J26.854
G2 X29.0781 Y25.8254 I27.6623 J26.854
G2 X26.0882 Y26.0893 I27.6623 J26.854
G2 X27.42 Y25.8324 I23.7184 J10.2239
G2 X27.8337 Y25.7284 I23.7184 J10.2239
G3 X28.5898 Y26.948 I28.0261 J26.4533
G3 X28.209 Y27.3675 I16.0 J15.9
G3 X27.8096 Y27.7784 I16.0 J15.9
G3 X27.4344 Y27.9806 I27.2808 J27.2465
G3 X26.489 Y28.1525 I23.7184 J10.2239
G0 Z3.0
G0 X25.1343 Y21.555
G0 Z0.5
G1 F150.0 Z-0.3
G2 F250.0 X24.7283 Y21.3624 I24.1875 J23.0267
G2 X22.4758 Y23.3906 I24.1875 J23.0267
G2 X25.3585 Y24.3272 I24.1875 J23.0267
G2 X25.8649 Y23.5257 I24.1875 J23.0267
G3 X24.7593 Y23.9431 I18.908 J6.7712
G3 X24.7323 Y23.9517 I24.5174 J23.2331
G3 X23.4978 Y23.2761 I24.4489 J23.0039
G3 X23.4688 Y23.0722 I24.2188 J23.0697
G3 X24.2848 Y21.8848 I24.7346 J23.068
G3 X24.2993 Y21.8795 I24.5513 J22.5859
G2 X25.1343 Y21.555 I18.908 J6.7712
G0 Z3.0
G0 X31.6876 Y19.6472
G0 Z0.5
G1 F150.0 Z-0.3
G2 F250.0 X33.0446 Y19.2076 I31.8736 J17.9071
G2 X32.4144 Y16.2427 I31.8736 J17.9071
G2 X30.1507 Y18.2136 I31.8736 J17.9071
G2 X31.0771 Y17.223 I18.908 J6.7712
G2 X31.3507 Y16.8957 I18.908 J6.7712
G3 X32.6792 Y17.4379 I31.9324 J17.3691
G3 X32.6177 Y18.0012 I16.0 J15.9
G3 X32.5361 Y18.5683 I16.0 J15.9
G3 X32.3515 Y18.9525 I31.7957 J18.4489
G3 X31.6876 Y19.6472 I18.908 J6.7712
G0 Z3.0
G0 X26.7137 Y15.106
G0 Z0.5
G1 F150.0 Z-0.3
G2 F250.0 X26.2721 Y15.1888 I26.8128 J16.8531
G2 X25.6419 Y18.1536 I26.8128 J16.8531
G2 X28.5246 Y17.217 I26.8128 J16.8531
G2 X28.4631 Y16.2708 I26.8128 J16.8531
G3 X27.814 Y17.2584 I12.9868 J6.8054
G3 X27.7972 Y17.2812 I27.201 J16.8262
G3 X26.4013 Y17.4603 I27.0108 J16.6811
G3 X26.2581 Y17.3124 I26.8634 J16.8695
G3 X26.2203 Y15.8722 I27.2797 J16.565
G3 X26.2289 Y15.8593 I26.848 J16.2826
G2 X26.7137 Y15.106 I12.9868 J6.8054
G0 Z3.0
G0 X30.8941 Y9.7106
G0 Z0.5
G1 F150.0 Z-0.3
G2 F250.0 X31.7335 Y8.5573 I30.0218 J8.1935
G2 X29.481 Y6.5291 I30.0218 J8.1935
G2 X28.808 Y9.4542 I30.0218 J8.1935
G2 X28.9752 Y8.1082 I12.9868 J6.8054
G2 X29.0042 Y7.6827 I12.9868 J6.8054
G3 X30.3978 Y7.3404 I29.7531 J7.7237
G3 X30.679 Y7.8323 I16.0 J15.9
G3 X30.9464 Y8.3391 I16.0 J15.9
G3 X31.0228 Y8.7584 I30.2772 J8.6776
G3 X30.8941 Y9.7106 I12.9868 J6.8054
G0 Z3.0
G0 X24.2008 Y8.9602
G0 Z0.5
G1 F150.0 Z-0.3
G2 F250.0 X23.8922 Y9.2869 I25.308 J10.3155
G2 X25.1251 Y12.0559 I25.308 J10.3155
G2 X26.9067 Y9.6037 I25.308 J10.3155
G2 X26.3009 Y8.8744 I25.308 J10.3155
G3 X26.3562 Y10.0548 I8.2166 J10.3134
G3 X26.356 Y10.0832 I25.6062 J10.0655
G3 X25.332 Y11.0485 I25.367 J10.0599
G3 X25.1291 Y11.0131 I25.3586 J10.299
G3 X24.2521 Y9.8701 I25.5163 J9.8079
G3 X24.2515 Y9.8547 I25.0011 J9.8333
G2 X24.2008 Y8.9602 I8.2166 J10.3134
G0 Z3.0
G0 X24.4115 Y2.1381
G0 Z0.5
G1 F150.0 Z-0.3
G2 F250.0 X24.4128 Y0.7117 I22.8141 J1.4235
G2 X21.3983 Y0.3949 I22.8141 J1.4235
G2 X22.5732 Y3.1569 I22.8141 J1.4235
G2 X21.9173 Y1.9697 I8.2166 J10.3134
G2 X21.6906 Y1.6083 I8.2166 J10.3134
G3 X22.6168 Y0.5123 I22.3206 J1.2013
G3 X23.1335 Y0.7449 I16.0 J15.9
G3 X23.6477 Y0.9978 I16.0 J15.9
G3 X23.9559 Y1.2921 I23.3053 J1.6651
G3 X24.4115 Y2.1381 I8.2166 J10.3134
G0 Z3.0
G0 X18.5555 Y5.4653
G0 Z0.5
G1 F150.0 Z-0.3
G2 F250.0 X18.4978 Y5.9109 I20.2478 J5.9109
G2 X21.1228 Y7.4265 I20.2478 J5.9109
G2 Y4.3954 I20.2478 J5.9109
G2 X20.204 Y4.1615 I20.2478 J5.9109
G3 X20.9426 Y5.084 I6.4194 J15.9553
G3 X20.9592 Y5.107 I20.3422 J5.5334
G3 X20.6981 Y6.4899 I20.1454 J5.6694
G3 X20.5132 Y6.5804 I20.2791 J5.8679
G3 X19.1318 Y6.1713 I20.118 J5.3778
G3 X19.1222 Y6.1592 I19.7161 J5.7012
G2 X18.5555 Y5.4653 I6.4194 J15.9553
G0 Z3.0
G0 X14.716 Y-0.1778
G0 Z0.5
G1 F150.0 Z-0.3
G2 F250.0 X13.8786 Y-1.3325 I13.0036 J0.1831
G2 X11.2536 Y0.1831 I13.0036 J0.1831
G2 X13.8276 Y1.727 I13.0036 J0.1831
G2 X12.5991 Y1.152 I6.4194 J15.9553
G2 X12.2034 Y0.993 I6.4194 J15.9553
G3 X12.3085 Y-0.4382 I12.4738 J0.2934
G3 X12.8632 Y-0.5537 I16.0 J15.9
G3 X13.4278 Y-0.6513 I16.0 J15.9
G3 X13.8502 Y-0.5944 I13.543 J0.0898
G3 X14.716 Y-0.1778 I6.4194 J15.9553
G0 Z3.0
G0 X11.9341 Y5.956
G0 Z0.5
G1 F150.0 Z-0.3
G2 F250.0 X12.1494 Y6.3505 I13.5651 J5.3218
G2 X15.1638 Y6.0336 I13.5651 J5.3218
G2 X13.3822 Y3.5814 I13.5651 J5.3218
G2 X12.5014 Y3.9323 I13.5651 J5.3218
G3 X13.6412 Y4.2444 I8.2816 J21.5761
G3 X13.6681 Y4.2533 I13.4196 J4.961
G3 X14.2697 Y5.5256 I13.3403 J5.1867
G3 X14.1733 Y5.7075 I13.5651 J5.2687
G3 X12.8153 Y6.1885 I13.1468 J4.9669
G3 X12.8004 Y6.1843 I13.0117 J5.4647
G2 X11.9341 Y5.956 I8.2816 J21.5761
G0 Z3.0
G0 X5.511 Y3.6475
G0 Z0.5
G1 F150.0 Z-0.3
G2 F250.0 X4.1548 Y3.2055 I4.3377 J4.946
G2 X2.9219 Y5.9746 I4.3377 J4.946
G2 X5.9118 Y5.7107 I4.3377 J4.946
G2 X4.58 Y5.9676 I8.2816 J21.5761
G2 X4.1663 Y6.0716 I8.2816 J21.5761
G3 X3.4102 Y4.852 I3.9739 J5.3467
G3 X3.791 Y4.4325 I16.0 J15.9
G3 X4.1904 Y4.0216 I16.0 J15.9
G3 X4.5656 Y3.8194 I4.7192 J4.5535
G3 X5.511 Y3.6475 I8.2816 J21.5761
G0 Z3.0
G0 X6.8657 Y10.245
G0 Z0.5
G1 F150.0 Z-0.3
G2 F250.0 X7.2717 Y10.4376 I7.8125 J8.7733
G2 X9.5242 Y8.4094 I7.8125 J8.7733
G2 X6.6415 Y7.4728 I7.8125 J8.7733
G2 X6.1351 Y8.2743 I7.8125 J8.7733
G3 X7.2407 Y7.8569 I13.092 J25.0288
G3 X7.2677 Y7.8483 I7.4826 J8.5669
G3 X8.5022 Y8.5239 I7.5511 J8.7961
G3 X8.5312 Y8.7278 I7.7812 J8.7303
G3 X7.7152 Y9.9152 I7.2654 J8.732
G3 X7.7007 Y9.9205 I7.4487 J9.2141
G2 X6.8657 Y10.245 I13.092 J25.0288
G0 Z3.0
G0 X0.3124 Y12.1528
G0 Z0.5
G1 F150.0 Z-0.3
G2 F250.0 X-1.0446 Y12.5924 I0.1264 J13.8929
G2 X-0.4144 Y15.5573 I0.1264 J13.8929
G2 X1.8493 Y13.5864 I0.1264 J13.8929
G2 X0.9229 Y14.577 I13.092 J25.0288
G2 X0.6493 Y14.9043 I13.092 J25.0288
G3 X-0.6792 Y14.3621 I0.0676 J14.4309
G3 X-0.6177 Y13.7988 I16.0 J15.9
G3 X-0.5361 Y13.2317 I16.0 J15.9
G3 X-0.3515 Y12.8475 I0.2043 J13.3511
G3 X0.3124 Y12.1528 I13.092 J25.0288
G0 Z3.0
G0 X5.2863 Y16.694
G0 Z0.5
G1 F150.0 Z-0.3
G2 F250.0 X5.7279 Y16.6112 I5.1872 J14.9469
G2 X6.3581 Y13.6464 I5.1872 J14.9469
G2 X3.4754 Y14.583 I5.1872 J14.9469
G2 X3.5369 Y15.5292 I5.1872 J14.9469
G3 X4.186 Y14.5416 I19.0132 J24.9946
G3 X4.2028 Y14.5188 I4.799 J14.9738
G3 X5.5987 Y14.3397 I4.9892 J15.1189
G3 X5.7419 Y14.4876 I5.1366 J14.9305
G3 X5.7797 Y15.9278 I4.7203 J15.235
G3 X5.7711 Y15.9407 I5.152 J15.5174
G2 X5.2863 Y16.694 I19.0132 J24.9946
G0 Z3.0
G0 X1.1059 Y22.0894
G0 Z0.5
G1 F150.0 Z-0.3
G2 F250.0 X0.2665 Y23.2427 I1.9782 J23.6065
G2 X2.519 Y25.2709 I1.9782 J23.6065
G2 X3.192 Y22.3458 I1.9782 J23.6065
G2 X3.0248 Y23.6918 I19.0132 J24.9946
G2 X2.9958 Y24.1173 I19.0132 J24.9946
G3 X1.6022 Y24.4596 I2.2469 J24.0763
G3 X1.321 Y23.9677 I16.0 J15.9
G3 X1.0536 Y23.4609 I16.0 J15.9
G3 X0.9772 Y23.0416 I1.7228 J23.1224
G3 X1.1059 Y22.0894 I19.0132 J24.9946
G0 Z3.0
G0 X7.7992 Y22.8398
G0 Z0.5
G1 F150.0 Z-0.3
G2 F250.0 X8.1078 Y22.5131 I6.692 J21.4845
G2 X6.8749 Y19.7441 I6.692 J21.4845
G2 X5.0933 Y22.1963 I6.692 J21.4845
G2 X5.6991 Y22.9256 I6.692 J21.4845
G3 X5.6438 Y21.7452 I23.7834 J21.4866
G3 X5.644 Y21.7168 I6.3938 J21.7345
G3 X6.668 Y20.7515 I6.633 J21.7401
G3 X6.8709 Y20.7869 I6.6414 J21.501
G3 X7.7479 Y21.9299 I6.4837 J21.9921
G3 X7.7485 Y21.9453 I6.9989 J21.9667
G2 X7.7992 Y22.8398 I23.7834 J21.4866
G0 Z3.0
G0 X7.5885 Y29.6619
G0 Z0.5
G1 F150.0 Z-0.3
G2 F250.0 X7.5872 Y31.0883 I9.1859 J30.3765
G2 X10.6017 Y31.4051 I9.1859 J30.3765
G2 X9.4268 Y28.6431 I9.1859 J30.3765
G2 X10.0827 Y29.8303 I23.7834 J21.4866
G2 X10.3094 Y30.1917 I23.7834 J21.4866
G3 X9.3832 Y31.2877 I9.6794 J30.5987
G3 X8.8665 Y31.0551 I16.0 J15.9
G3 X8.3523 Y30.8022 I16.0 J15.9
G3 X8.0441 Y30.5079 I8.6947 J30.1349
G3 X7.5885 Y29.6619 I23.7834 J21.4866
G0 Z3.0
G0 X13.4445 Y26.3347
G0 Z0.5
G1 F150.0 Z-0.3
G2 F250.0 X13.5022 Y25.8891 I11.7522 J25.8891
G2 X10.8772 Y24.3735 I11.7522 J25.8891
G2 Y27.4046 I11.7522 J25.8891
G2 X11.796 Y27.6385 I11.7522 J25.8891
G3 X11.0574 Y26.716 I25.5806 J15.8447
G3 X11.0408 Y26.693 I11.6578 J26.2666
G3 X11.3019 Y25.3101 I11.8546 J26.1306
G3 X11.4868 Y25.2196 I11.7209 J25.9321
G3 X12.8682 Y25.6287 I11.882 J26.4222
G3 X12.8778 Y25.6408 I12.2839 J26.0988
G2 X13.4445 Y26.3347 I25.5806 J15.8447
G0 Z3.0
G0 X17.284 Y31.9778
G0 Z0.5
G1 F150.0 Z-0.3
G2 F250.0 X18.1214 Y33.1325 I18.9964 J31.6169
G2 X20.7464 Y31.6169 I18.9964 J31.6169
G2 X18.1724 Y30.073 I18.9964 J31.6169
G2 X19.4009 Y30.648 I25.5806 J15.8447
G2 X19.7966 Y30.807 I25.5806 J15.8447
G3 X19.6915 Y32.2382 I19.5262 J31.5066
G3 X19.1368 Y32.3537 I16.0 J15.9
G3 X18.5722 Y32.4513 I16.0 J15.9
G3 X18.1498 Y32.3944 I18.457 J31.7102
G3 X17.284 Y31.9778 I25.5806 J15.8447
G0 Z3.0
G0 X20.0659 Y25.844
G0 Z0.2
G1 F150.0 Z-0.6
G2 F250.0 X19.8506 Y25.4495 I18.4349 J26.4782
G2 X16.8362 Y25.7664 I18.4349 J26.4782
G2 X18.6178 Y28.2186 I18.4349 J26.4782
G2 X19.4986 Y27.8677 I18.4349 J26.4782
G3 X18.3588 Y27.5556 I23.7184 J10.2239
G3 X18.3319 Y27.5467 I18.5804 J26.839
G3 X17.7303 Y26.2744 I18.6597 J26.6133
G3 X17.8267 Y26.0925 I18.4349 J26.5313
G3 X19.1847 Y25.6115 I18.8532 J26.8331
G3 X19.1996 Y25.6157 I18.9883 J26.3353
G2 X20.0659 Y25.844 I23.7184 J10.2239
G0 Z3.0
G0 X26.489 Y28.1525
G0 Z0.2
G1 F150.0 Z-0.6
G2 F250.0 X27.8452 Y28.5945 I27.6623 J26.854
G2 X29.0781 Y25.8254 I27.6623 J26.854
G2 X26.0882 Y26.0893 I27.6623 J26.854
G2 X27.42 Y25.8324 I23.7184 J10.2239
G2 X27.8337 Y25.7284 I23.7184 J10.2239
G3 X28.5898 Y26.948 I28.0261 J26.4533
G3 X28.209 Y27.3675 I16.0 J15.9
G3 X27.8096 Y27.7784 I16.0 J15.9
G3 X27.4344 Y27.9806 I27.2808 J27.2465
G3 X26.489 Y28.1525 I23.7184 J10.2239
G0 Z3.0
G0 X25.1343 Y21.555
G0 Z0.2
G1 F150.0 Z-0.6
G2 F250.0 X24.7283 Y21.3624 I24.1875 J23.0267
G2 X22.4758 Y23.3906 I24.1875 J23.0267
G2 X25.3585 Y24.3272 I24.1875 J23.0267
G2 X25.8649 Y23.5257 I24.1875 J23.0267
G3 X24.7593 Y23.9431 I18.908 J6.7712
G3 X24.7323 Y23.9517 I24.5174 J23.2331
G3 X23.4978 Y23.2761 I24.4489 J23.0039
G3 X23.4688 Y23.0722 I24.2188 J23.0697
G3 X24.2848 Y21.8848 I24.7346 J23.068
G3 X24.2993 Y21.8795 I24.5513 J22.5859
G2 X25.1343 Y21.555 I18.908 J6.7712
G0 Z3.0
G0 X31.6876 Y19.6472
G0 Z0.2
G1 F150.0 Z-0.6
G2 F250.0 X33.0446 Y19.2076 I31.8736 J17.9071
G2 X32.4144 Y16.2427 I31.8736 J17.9071
G2 X30.1507 Y18.2136 I31.8736 J17.9071
G2 X31.0771 Y17.223 I18.908 J6.7712
G2 X31.3507 Y16.8957 I18.908 J6.7712
G3 X32.6792 Y17.4379 I31.9324 J17.3691
G3 X32.6177 Y18.0012 I16.0 J15.9
G3 X32.5361 Y18.5683 I16.0 J15.9
G3 X32.3515 Y18.9525 I31.7957 J18.4489
G3 X31.6876 Y19.6472 I18.908 J6.7712
G0 Z3.0
G0 X26.7137 Y15.106
G0 Z0.2
G1 F150.0 Z-0.6
G2 F250.0 X26.2721 Y15.1888 I26.8128 J16.8531
G2 X25.6419 Y18.1536 I26.8128 J16.8531
G2 X28.5246 Y17.217 I26.8128 J16.8531
G2 X28.4631 Y16.2708 I26.8128 J16.8531
G3 X27.814 Y17.2584 I12.9868 J6.8054
G3 X27.7972 Y17.2812 I27.201 J16.8262
G3 X26.4013 Y17.4603 I27.0108 J16.6811
G3 X26.2581 Y17.3124 I26.8634 J16.8695
G3 X26.2203 Y15.8722 I27.2797 J16.565
G3 X26.2289 Y15.8593 I26.848 J16.2826
G2 X26.7137 Y15.106 I12.9868 J6.8054
G0 Z3.0
G0 X30.8941 Y9.7106
G0 Z0.2
G1 F150.0 Z-0.6
G2 F250.0 X31.7335 Y8.5573 I30.0218 J8.1935
G2 X29.481 Y6.5291 I30.0218 J8.1935
G2 X28.808 Y9.4542 I30.0218 J8.1935
G2 X28.9752 Y8.1082 I12.9868 J6.8054
G2 X29.0042 Y7.6827 I12.9868 J6.8054
G3 X30.3978 Y7.3404 I29.7531 J7.7237
G3 X30.679 Y7.8323 I16.0 J15.9
G3 X30.9464 Y8.3391 I16.0 J15.9
G3 X31.0228 Y8.7584 I30.2772 J8.6776
G3 X30.8941 Y9.7106 I12.9868 J6.8054
G0 Z3.0
G0 X24.2008 Y8.9602
G0 Z0.2
G1 F150.0 Z-0.6
G2 F250.0 X23.8922 Y9.2869 I25.308 J10.3155
G2 X25.1251 Y12.0559 I25.308 J10.3155
G2 X26.9067 Y9.6037 I25.308 J10.3155
G2 X26.3009 Y8.8744 I25.308 J10.3155
G3 X26.3562 Y10.0548 I8.2166 J10.3134
G3 X26.356 Y10.0832 I25.6062 J10.0655
G3 X25.332 Y11.0485 I25.367 J10.0599
G3 X25.1291 Y11.0131 I25.3586 J10.299
G3 X24.2521 Y9.8701 I25.5163 J9.8079
G3 X24.2515 Y9.8547 I25.0011 J9.8333
G2 X24.2008 Y8.9602 I8.2166 J10.3134
G0 Z3.0
G0 X24.4115 Y2.1381
G0 Z0.2
G1 F150.0 Z-0.6
G2 F250.0 X24.4128 Y0.7117 I22.8141 J1.4235
G2 X21.3983 Y0.3949 I22.8141 J1.4235
G2 X22.5732 Y3.1569 I22.8141 J1.4235
G2 X21.9173 Y1.9697 I8.2166 J10.3134
G2 X21.6906 Y1.6083 I8.2166 J10.3134
G3 X22.6168 Y0.5123 I22.3206 J1.2013
G3 X23.1335 Y0.7449 I16.0 J15.9
G3 X23.6477 Y0.9978 I16.0 J15.9
G3 X23.9559 Y1.2921 I23.3053 J1.6651
G3 X24.4115 Y2.1381 I8.2166 J10.3134
G0 Z3.0
G0 X18.5555 Y5.4653
G0 Z0.2
G1 F150.0 Z-0.6
G2 F250.0 X18.4978 Y5.9109 I20.2478 J5.9109
G2 X21.1228 Y7.4265 I20.2478 J5.9109
G2 Y4.3954 I20.2478 J5.9109
G2 X20.204 Y4.1615 I20.2478 J5.9109
G3 X20.9426 Y5.084 I6.4194 J15.9553
G3 X20.9592 Y5.107 I20.3422 J5.5334
G3 X20.6981 Y6.4899 I20.1454 J5.6694
G3 X20.5132 Y6.5804 I20.2791 J5.8679
G3 X19.1318 Y6.1713 I20.118 J5.3778
G3 X19.1222 Y6.1592 I19.7161 J5.7012
G2 X18.5555 Y5.4653 I6.4194 J15.9553
G0 Z3.0
G0 X14.716 Y-0.1778
G0 Z0.2
G1 F150.0 Z-0.6
G2 F250.0 X13.8786 Y-1.3325 I13.0036 J0.1831
G2 X11.2536 Y0.1831 I13.0036 J0.1831
G2 X13.8276 Y1.727 I13.0036 J0.1831
G2 X12.5991 Y1.152 I6.4194 J15.9553
G2 X12.2034 Y0.993 I6.4194 J15.9553
G3 X12.3085 Y-0.4382 I12.4738 J0.2934
G3 X12.8632 Y-0.5537 I16.0 J15.9
G3 X13.4278 Y-0.6513 I16.0 J15.9
G3 X13.8502 Y-0.5944 I13.543 J0.0898
G3 X14.716 Y-0.1778 I6.4194 J15.9553
G0 Z3.0
G0 X11.9341 Y5.956
G0 Z0.2
G1 F150.0 Z-0.6
G2 F250.0 X12.1494 Y6.3505 I13.5651 J5.3218
G2 X15.1638 Y6.0336 I13.5651 J5.3218
G2 X13.3822 Y3.5814 I13.5651 J5.3218
G2 X12.5014 Y3.9323 I13.5651 J5.3218
G3 X13.6412 Y4.2444 I8.2816 J21.5761
G3 X13.6681 Y4.2533 I13.4196 J4.961
G3 X14.2697 Y5.5256 I13.3403 J5.1867
G3 X14.1733 Y5.7075 I13.5651 J5.2687
G3 X12.8153 Y6.1885 I13.1468 J4.9669
G3 X12.8004 Y6.1843 I13.0117 J5.4647
G2 X11.9341 Y5.956 I8.2816 J21.5761
G0 Z3.0
G0 X5.511 Y3.6475
G0 Z0.2
G1 F150.0 Z-0.6
G2 F250.0 X4.1548 Y3.2055 I4.3377 J4.946
G2 X2.9219 Y5.9746 I4.3377 J4.946
G2 X5.9118 Y5.7107 I4.3377 J4.946
G2 X4.58 Y5.9676 I8.2816 J21.5761
G2 X4.1663 Y6.0716 I8.2816 J21.5761
G3 X3.4102 Y4.852 I3.9739 J5.3467
G3 X3.791 Y4.4325 I16.0 J15.9
G3 X4.1904 Y4.0216 I16.0 J15.9
G3 X4.5656 Y3.8194 I4.7192 J4.5535
G3 X5.511 Y3.6475 I8.2816 J21.5761
G0 Z3.0
G0 X6.8657 Y10.245
G0 Z0.2
G1 F150.0 Z-0.6
G2 F250.0 X7.2717 Y10.4376 I7.8125 J8.7733
G2 X9.5242 Y8.4094 I7.8125 J8.7733
G2 X6.6415 Y7.4728 I7.8125 J8.7733
G2 X6.1351 Y8.2743 I7.8125 J8.7733
G3 X7.2407 Y7.8569 I13.092 J25.0288
G3 X7.2677 Y7.8483 I7.4826 J8.5669
G3 X8.5022 Y8.5239 I7.5511 J8.7961
G3 X8.5312 Y8.7278 I7.7812 J8.7303
G3 X7.7152 Y9.9152 I7.2654 J8.732
G3 X7.7007 Y9.9205 I7.4487 J9.2141
G2 X6.8657 Y10.245 I13.092 J25.0288
G0 Z3.0
G0 X0.3124 Y12.1528
G0 Z0.2
G1 F150.0 Z-0.6
G2 F250.0 X-1.0446 Y12.5924 I0.1264 J13.8929
G2 X-0.4144 Y15.5573 I0.1264 J13.8929
G2 X1.8493 Y13.5864 I0.1264 J13.8929
G2 X0.9229 Y14.577 I13.092 J25.0288
G2 X0.6493 Y14.9043 I13.092 J25.0288
G3 X-0.6792 Y14.3621 I0.0676 J14.4309
G3 X-0.6177 Y13.7988 I16.0 J15.9
G3 X-0.5361 Y13.2317 I16.0 J15.9
G3 X-0.3515 Y12.8475 I0.2043 J13.3511
G3 X0.3124 Y12.1528 I13.092 J25.0288
G0 Z3.0
G0 X5.2863 Y16.694
G0 Z0.2
G1 F150.0 Z-0.6
G2 F250.0 X5.7279 Y16.6112 I5.1872 J14.9469
G2 X6.3581 Y13.6464 I5.1872 J14.9469
G2 X3.4754 Y14.583 I5.1872 J14.9469
G2 X3.5369 Y15.5292 I5.1872 J14.9469
G3 X4.186 Y14.5416 I19.0132 J24.9946
G3 X4.2028 Y14.5188 I4.799 J14.9738
G3 X5.5987 Y14.3397 I4.9892 J15.1189
G3 X5.7419 Y14.4876 I5.1366 J14.9305
G3 X5.7797 Y15.9278 I4.7203 J15.235
G3 X5.7711 Y15.9407 I5.152 J15.5174
G2 X5.2863 Y16.694 I19.0132 J24.9946
G0 Z3.0
G0 X1.1059 Y22.0894
G0 Z0.2
G1 F150.0 Z-0.6
G2 F250.0 X0.2665 Y23.2427 I1.9782 J23.6065
G2 X2.519 Y25.2709 I1.9782 J23.6065
G2 X3.192 Y22.3458 I1.9782 J23.6065
G2 X3.0248 Y23.6918 I19.0132 J24.9946
G2 X2.9958 Y24.1173 I19.0132 J24.9946
G3 X1.6022 Y24.4596 I2.2469 J24.0763
G3 X1.321 Y23.9677 I16.0 J15.9
G3 X1.0536 Y23.4609 I16.0 J15.9
G3 X0.9772 Y23.0416 I1.7228 J23.1224
G3 X1.1059 Y22.0894 I19.0132 J24.9946
G0 Z3.0
G0 X7.7992 Y22.8398
G0 Z0.2
G1 F150.0 Z-0.6
G2 F250.0 X8.1078 Y22.5131 I6.692 J21.4845
G2 X6.8749 Y19.7441 I6.692 J21.4845
G2 X5.0933 Y22.1963 I6.692 J21.4845
G2 X5.6991 Y22.9256 I6.692 J21.4845
G3 X5.6438 Y21.7452 I23.7834 J21.4866
G3 X5.644 Y21.7168 I6.3938 J21.7345
G3 X6.668 Y20.7515 I6.633 J21.7401
G3 X6.8709 Y20.7869 I6.6414 J21.501
G3 X7.7479 Y21.9299 I6.4837 J21.9921
G3 X7.7485 Y21.9453 I6.9989 J21.9667
G2 X7.7992 Y22.8398 I23.7834 J21.4866
G0 Z3.0
G0 X7.5885 Y29.6619
G0 Z0.2
G1 F150.0 Z-0.6
G2 F250.0 X7.5872 Y31.0883 I9.1859 J30.3765
G2 X10.6017 Y31.4051 I9.1859 J30.3765
G2 X9.4268 Y28.6431 I9.1859 J30.3765
G2 X10.0827 Y29.8303 I23.7834 J21.4866
G2 X10.3094 Y30.1917 I23.7834 J21.4866
G3 X9.3832 Y31.2877 I9.6794 J30.5987
G3 X8.8665 Y31.0551 I16.0 J15.9
G3 X8.3523 Y30.8022 I16.0 J15.9
G3 X8.0441 Y30.5079 I8.6947 J30.1349
G3 X7.5885 Y29.6619 I23.7834 J21.4866
G0 Z3.0
G0 X13.4445 Y26.3347
G0 Z0.2
G1 F150.0 Z-0.6
G2 F250.0 X13.5022 Y25.8891 I11.7522 J25.8891
G2 X10.8772 Y24.3735 I11.7522 J25.8891
G2 Y27.4046 I11.7522 J25.8891
G2 X11.796 Y27.6385 I11.7522 J25.8891
G3 X11.0574 Y26.716 I25.5806 J15.8447
G3 X11.0408 Y26.693 I11.6578 J26.2666
G3 X11.3019 Y25.3101 I11.8546 J26.1306
G3 X11.4868 Y25.2196 I11.7209 J25.9321
G3 X12.8682 Y25.6287 I11.882 J26.4222
G3 X12.8778 Y25.6408 I12.2839 J26.0988
G2 X13.4445 Y26.3347 I25.5806 J15.8447
G0 Z3.0
G0 X17.284 Y31.9778
G0 Z0.2
G1 F150.0 Z-0.6
G2 F250.0 X18.1214 Y33.1325 I18.9964 J31.6169
G2 X20.7464 Y31.6169 I18.9964 J31.6169
G2 X18.1724 Y30.073 I18.9964 J31.6169
G2 X19.4009 Y30.648 I25.5806 J15.8447
G2 X19.7966 Y30.807 I25.5806 J15.8447
G3 X19.6915 Y32.2382 I19.5262 J31.5066
G3 X19.1368 Y32.3537 I16.0 J15.9
G3 X18.5722 Y32.4513 I16.0 J15.9
G3 X18.1498 Y32.3944 I18.457 J31.7102
G3 X17.284 Y31.9778 I25.5806 J15.8447
G0 Z3.0
G0 X20.0659 Y25.844
G0 Z-0.1
G1 F150.0 Z-0.9
G2 F250.0 X19.8506 Y25.4495 I18.4349 J26.4782
G2 X16.8362 Y25.7664 I18.4349 J26.4782
G2 X18.6178 Y28.2186 I18.4349 J26.4782
G2 X19.4986 Y27.8677 I18.4349 J26.4782
G3 X18.3588 Y27.5556 I23.7184 J10.2239
G3 X18.3319 Y27.5467 I18.5804 J26.839
G3 X17.7303 Y26.2744 I18.6597 J26.6133
G3 X17.8267 Y26.0925 I18.4349 J26.5313
G3 X19.1847 Y25.6115 I18.8532 J26.8331
G3 X19.1996 Y25.6157 I18.9883 J26.3353
G2 X20.0659 Y25.844 I23.7184 J10.2239
G0 Z3.0
G0 X26.489 Y28.1525
G0 Z-0.1
G1 F150.0 Z-0.9
G2 F250.0 X27.8452 Y28.5945 I27.6623 J26.854
G2 X29.0781 Y25.8254 I27.6623 J26.854
G2 X26.0882 Y26.0893 I27.6623 J26.854
G2 X27.42 Y25.8324 I23.7184 J10.2239
G2 X27.8337 Y25.7284 I23.7184 J10.2239
G3 X28.5898 Y26.948 I28.0261 J26.4533
G3 X28.209 Y27.3675 I16.0 J15.9
G3 X27.8096 Y27.7784 I16.0 J15.9
G3 X27.4344 Y27.9806 I27.2808 J27.2465
G3 X26.489 Y28.1525 I23.7184 J10.2239
G0 Z3.0
G0 X25.1343 Y21.555
G0 Z-0.1
G1 F150.0 Z-0.9
G2 F250.0 X24.7283 Y21.3624 I24.1875 J23.0267
G2 X22.4758 Y23.3906 I24.1875 J23.0267
G2 X25.3585 Y24.3272 I24.1875 J23.0267
G2 X25.8649 Y23.5257 I24.1875 J23.0267
G3 X24.7593 Y23.9431 I18.908 J6.7712
G3 X24.7323 Y23.9517 I24.5174 J23.2331
G3 X23.4978 Y23.2761 I24.4489 J23.0039
G3 X23.4688 Y23.0722 I24.2188 J23.0697
G3 X24.2848 Y21.8848 I24.7346 J23.068
G3 X24.2993 Y21.8795 I24.5513 J22.5859
G2 X25.1343 Y21.555 I18.908 J6.7712
G0 Z3.0
G0 X31.6876 Y19.6472
G0 Z-0.1
G1 F150.0 Z-0.9
G2 F250.0 X33.0446 Y19.2076 I31.8736 J17.9071
G2 X32.4144 Y16.2427 I31.8736 J17.9071
G2 X30.1507 Y18.2136 I31.8736 J17.9071
G2 X31.0771 Y17.223 I18.908 J6.7712
G2 X31.3507 Y16.8957 I18.908 J6.7712
G3 X32.6792 Y17.4379 I31.9324 J17.3691
G3 X32.6177 Y18.0012 I16.0 J15.9
G3 X32.5361 Y18.5683 I16.0 J15.9
G3 X32.3515 Y18.9525 I31.7957 J18.4489
G3 X31.6876 Y19.6472 I18.908 J6.7712
G0 Z3.0
G0 X26.7137 Y15.106
G0 Z-0.1
G1 F150.0 Z-0.9
G2 F250.0 X26.2721 Y15.1888 I26.8128 J16.8531
G2 X25.6419 Y18.1536 I26.8128 J16.8531
G2 X28.5246 Y17.217 I26.8128 J16.8531
G2 X28.4631 Y16.2708 I26.8128 J16.8531
G3 X27.814 Y17.2584 I12.9868 J6.8054
G3 X27.7972 Y17.2812 I27.201 J16.8262
G3 X26.4013 Y17.4603 I27.0108 J16.6811
G3 X26.2581 Y17.3124 I26.8634 J16.8695
G3 X26.2203 Y15.8722 I27.2797 J16.565
G3 X26.2289 Y15.8593 I26.848 J16.2826
G2 X26.7137 Y15.106 I12.9868 J6.8054
G0 Z3.0
G0 X30.8941 Y9.7106
G0 Z-0.1
G1 F150.0 Z-0.9
G2 F250.0 X31.7335 Y8.5573 I30.0218 J8.1935
G2 X29.481 Y6.5291 I30.0218 J8.1935
G2 X28.808 Y9.4542 I30.0218 J8.1935
G2 X28.9752 Y8.1082 I12.9868 J6.8054
G2 X29.0042 Y7.6827 I12.9868 J6.8054
G3 X30.3978 Y7.3404 I29.7531 J7.7237
G3 X30.679 Y7.8323 I16.0 J15.9
G3 X30.9464 Y8.3391 I16.0 J15.9
G3 X31.0228 Y8.7584 I30.2772 J8.6776
G3 X30.8941 Y9.7106 I12.9868 J6.8054
G0 Z3.0
G0 X24.2008 Y8.9602
G0 Z-0.1
G1 F150.0 Z-0.9
G2 F250.0 X23.8922 Y9.2869 I25.308 J10.3155
G2 X25.1251 Y12.0559 I25.308 J10.3155
G2 X26.9067 Y9.6037 I25.308 J10.3155
G2 X26.3009 Y8.8744 I25.308 J10.3155
G3 X26.3562 Y10.0548 I8.2166 J10.3134
G3 X26.356 Y10.0832 I25.6062 J10.0655
G3 X25.332 Y11.0485 I25.367 J10.0599
G3 X25.1291 Y11.0131 I25.3586 J10.299
G3 X24.2521 Y9.8701 I25.5163 J9.8079
G3 X24.2515 Y9.8547 I25.0011 J9.8333
G2 X24.2008 Y8.9602 I8.2166 J10.3134
G0 Z3.0
G0 X24.4115 Y2.1381
G0 Z-0.1
G1 F150.0 Z-0.9
G2 F250.0 X24.4128 Y0.7117 I22.8141 J1.4235
G2 X21.3983 Y0.3949 I22.8141 J1.4235
G2 X22.5732 Y3.1569 I22.8141 J1.4235
G2 X21.9173 Y1.9697 I8.2166 J10.3134
G2 X21.6906 Y1.6083 I8.2166 J10.3134
G3 X22.6168 Y0.5123 I22.3206 J1.2013
G3 X23.1335 Y0.7449 I16.0 J15.9
G3 X23.6477 Y0.9978 I16.0 J15.9
G3 X23.9559 Y1.2921 I23.3053 J1.6651
G3 X24.4115 Y2.1381 I8.2166 J10.3134
G0 Z3.0
G0 X18.5555 Y5.4653
G0 Z-0.1
G1 F150.0 Z-0.9
G2 F250.0 X18.4978 Y5.9109 I20.2478 J5.9109
G2 X21.1228 Y7.4265 I20.2478 J5.9109
G2 Y4.3954 I20.2478 J5.9109
G2 X20.204 Y4.1615 I20.2478 J5.9109
G3 X20.9426 Y5.084 I6.4194 J15.9553
G3 X20.9592 Y5.107 I20.3422 J5.5334
G3 X20.6981 Y6.4899 I20.1454 J5.6694
G3 X20.5132 Y6.5804 I20.2791 J5.8679
G3 X19.1318 Y6.1713 I20.118 J5.3778
G3 X19.1222 Y6.1592 I19.7161 J5.7012
G2 X18.5555 Y5.4653 I6.4194 J15.9553
G0 Z3.0
G0 X14.716 Y-0.1778
G0 Z-0.1
G1 F150.0 Z-0.9
G2 F250.0 X13.8786 Y-1.3325 I13.0036 J0.1831
G2 X11.2536 Y0.1831 I13.0036 J0.1831
G2 X13.8276 Y1.727 I13.0036 J0.1831
G2 X12.5991 Y1.152 I6.4194 J15.9553
G2 X12.2034 Y0.993 I6.4194 J15.9553
G3 X12.3085 Y-0.4382 I12.4738 J0.2934
G3 X12.8632 Y-0.5537 I16.0 J15.9
G3 X13.4278 Y-0.6513 I16.0 J15.9
G3 X13.8502 Y-0.5944 I13.543 J0.0898
G3 X14.716 Y-0.1778 I6.4194 J15.9553
G0 Z3.0
G0 X11.9341 Y5.956
G0 Z-0.1
G1 F150.0 Z-0.9
G2 F250.0 X12.1494 Y6.3505 I13.5651 J5.3218
G2 X15.1638 Y6.0336 I13.5651 J5.3218
G2 X13.3822 Y3.5814 I13.5651 J5.3218
G2 X12.5014 Y3.9323 I13.5651 J5.3218
G3 X13.6412 Y4.2444 I8.2816 J21.5761
G3 X13.6681 Y4.2533 I13.4196 J4.961
G3 X14.2697 Y5.5256 I13.3403 J5.1867
G3 X14.1733 Y5.7075 I13.5651 J5.2687
G3 X12.8153 Y6.1885 I13.1468 J4.9669
G3 X12.8004 Y6.1843 I13.0117 J5.4647
G2 X11.9341 Y5.956 I8.2816 J21.5761
G0 Z3.0
G0 X5.511 Y3.6475
G0 Z-0.1
G1 F150.0 Z-0.9
G2 F250.0 X4.1548 Y3.2055 I4.3377 J4.946
G2 X2.9219 Y5.9746 I4.3377 J4.946
G2 X5.9118 Y5.7107 I4.3377 J4.946
G2 X4.58 Y5.9676 I8.2816 J21.5761
G2 X4.1663 Y6.0716 I8.2816 J21.5761
G3 X3.4102 Y4.852 I3.9739 J5.3467
G3 X3.791 Y4.4325 I16.0 J15.9
G3 X4.1904 Y4.0216 I16.0 J15.9
G3 X4.5656 Y3.8194 I4.7192 J4.5535
G3 X5.511 Y3.6475 I8.2816 J21.5761
G0 Z3.0
G0 X6.8657 Y10.245
G0 Z-0.1
G1 F150.0 Z-0.9
G2 F250.0 X7.2717 Y10.4376 I7.8125 J8.7733
G2 X9.5242 Y8.4094 I7.8125 J8.7733
G2 X6.6415 Y7.4728 I7.8125 J8.7733
G2 X6.1351 Y8.2743 I7.8125 J8.7733
G3 X7.2407 Y7.8569 I13.092 J25.0288
G3 X7.2677 Y7.8483 I7.4826 J8.5669
G3 X8.5022 Y8.5239 I7.5511 J8.7961
G3 X8.5312 Y8.7278 I7.7812 J8.7303
G3 X7.7152 Y9.9152 I7.2654 J8.732
G3 X7.7007 Y9.9205 I7.4487 J9.2141
G2 X6.8657 Y10.245 I13.092 J25.0288
G0 Z3.0
G0 X0.3124 Y12.1528
G0 Z-0.1
G1 F150.0 Z-0.9
G2 F250.0 X-1.0446 Y12.5924 I0.1264 J13.8929
G2 X-0.4144 Y15.5573 I0.1264 J13.8929
G2 X1.8493 Y13.5864 I0.1264 J13.8929
G2 X0.9229 Y14.577 I13.092 J25.0288
G2 X0.6493 Y14.9043 I13.092 J25.0288
G3 X-0.6792 Y14.3621 I0.0676 J14.4309
G3 X-0.6177 Y13.7988 I16.0 J15.9
G3 X-0.5361 Y13.2317 I16.0 J15.9
G3 X-0.3515 Y12.8475 I0.2043 J13.3511
G3 X0.3124 Y12.1528 I13.092 J25.0288
G0 Z3.0
G0 X5.2863 Y16.694
G0 Z-0.1
G1 F150.0 Z-0.9
G2 F250.0 X5.7279 Y16.6112 I5.1872 J14.9469
G2 X6.3581 Y13.6464 I5.1872 J14.9469
G2 X3.4754 Y14.583 I5.1872 J14.9469
G2 X3.5369 Y15.5292 I5.1872 J14.9469
G3 X4.186 Y14.5416 I19.0132 J24.9946
G3 X4.2028 Y14.5188 I4.799 J14.9738
G3 X5.5987 Y14.3397 I4.9892 J15.1189
G3 X5.7419 Y14.4876 I5.1366 J14.9305
G3 X5.7797 Y15.9278 I4.7203 J15.235
G3 X5.7711 Y15.9407 I5.152 J15.5174
G2 X5.2863 Y16.694 I19.0132 J24.9946
G0 Z3.0
G0 X1.1059 Y22.0894
G0 Z-0.1
G1 F150.0 Z-0.9
G2 F250.0 X0.2665 Y23.2427 I1.9782 J23.6065
G2 X2.519 Y25.2709 I1.9782 J23.6065
G2 X3.192 Y22.3458 I1.9782 J23.6065
G2 X3.0248 Y23.6918 I19.0132 J24.9946
G2 X2.9958 Y24.1173 I19.0132 J24.9946
G3 X1.6022 Y24.4596 I2.2469 J24.0763
G3 X1.321 Y23.9677 I16.0 J15.9
G3 X1.0536 Y23.4609 I16.0 J15.9
G3 X0.9772 Y23.0416 I1.7228 J23.1224
G3 X1.1059 Y22.0894 I19.0132 J24.9946
G0 Z3.0
G0 X7.7992 Y22.8398
G0 Z-0.1
G1 F150.0 Z-0.9
G2 F250.0 X8.1078 Y22.5131 I6.692 J21.4845
G2 X6.8749 Y19.7441 I6.692 J21.4845
G2 X5.0933 Y22.1963 I6.692 J21.4845
G2 X5.6991 Y22.9256 I6.692 J21.4845
G3 X5.6438 Y21.7452 I23.7834 J21.4866
G3 X5.644 Y21.7168 I6.3938 J21.7345
G3 X6.668 Y20.7515 I6.633 J21.7401
G3 X6.8709 Y20.7869 I6.6414 J21.501
G3 X7.7479 Y21.9299 I6.4837 J21.9921
G3 X7.7485 Y21.9453 I6.9989 J21.9667
G2 X7.7992 Y22.8398 I23.7834 J21.4866
G0 Z3.0
G0 X7.5885 Y29.6619
G0 Z-0.1
G1 F150.0 Z-0.9
G2 F250.0 X7.5872 Y31.0883 I9.1859 J30.3765
G2 X10.6017 Y31.4051 I9.1859 J30.3765
G2 X9.4268 Y28.6431 I9.1859 J30.3765
G2 X10.0827 Y29.8303 I23.7834 J21.4866
G2 X10.3094 Y30.1917 I23.7834 J21.4866
G3 X9.3832 Y31.2877 I9.6794 J30.5987
G3 X8.8665 Y31.0551 I16.0 J15.9
G3 X8.3523 Y30.8022 I16.0 J15.9
G3 X8.0441 Y30.5079 I8.6947 J30.1349
G3 X7.5885 Y29.6619 I23.7834 J21.4866
G0 Z3.0
G0 X13.4445 Y26.3347
G0 Z-0.1
G1 F150.0 Z-0.9
G2 F250.0 X13.5022 Y25.8891 I11.7522 J25.8891
G2 X10.8772 Y24.3735 I11.7522 J25.8891
G2 Y27.4046 I11.7522 J25.8891
G2 X11.796 Y27.6385 I11.7522 J25.8891
G3 X11.0574 Y26.716 I25.5806 J15.8447
G3 X11.0408 Y26.693 I11.6578 J26.2666
G3 X11.3019 Y25.3101 I11.8546 J26.1306
G3 X11.4868 Y25.2196 I11.7209 J25.9321
G3 X12.8682 Y25.6287 I11.882 J26.4222
G3 X12.8778 Y25.6408 I12.2839 J26.0988
G2 X13.4445 Y26.3347 I25.5806 J15.8447
G0 Z3.0
G0 X17.284 Y31.9778
G0 Z-0.1
G1 F150.0 Z-0.9
G2 F250.0 X18.1214 Y33.1325 I18.9964 J31.6169
G2 X20.7464 Y31.6169 I18.9964 J31.6169
G2 X18.1724 Y30.073 I18.9964 J31.6169
G2 X19.4009 Y30.648 I25.5806 J15.8447
G2 X19.7966 Y30.807 I25.5806 J15.8447
G3 X19.6915 Y32.2382 I19.5262 J31.5066
G3 X19.1368 Y32.3537 I16.0 J15.9
G3 X18.5722 Y32.4513 I16.0 J15.9
G3 X18.1498 Y32.3944 I18.457 J31.7102
G3 X17.284 Y31.9778 I25.5806 J15.8447
G0 Z3.0
G0 X20.0659 Y25.844
G0 Z-0.4
G1 F150.0 Z-1.2
G2 F250.0 X19.8506 Y25.4495 I18.4349 J26.4782
G2 X16.8362 Y25.7664 I18.4349 J26.4782
G2 X18.6178 Y28.2186 I18.4349 J26.4782
G2 X19.4986 Y27.8677 I18.4349 J26.4782
G3 X18.3588 Y27.5556 I23.7184 J10.2239
G3 X18.3319 Y27.5467 I18.5804 J26.839
G3 X17.7303 Y26.2744 I18.6597 J26.6133
G3 X17.8267 Y26.0925 I18.4349 J26.5313
G3 X19.1847 Y25.6115 I18.8532 J26.8331
G3 X19.1996 Y25.6157 I18.9883 J26.3353
G2 X20.0659 Y25.844 I23.7184 J10.2239
G0 Z3.0
G0 X26.489 Y28.1525
G0 Z-0.4
G1 F150.0 Z-1.2
G2 F250.0 X27.8452 Y28.5945 I27.6623 J26.854
G2 X29.0781 Y25.8254 I27.6623 J26.854
G2 X26.0882 Y26.0893 I27.6623 J26.854
G2 X27.42 Y25.8324 I23.7184 J10.2239
G2 X27.8337 Y25.7284 I23.7184 J10.2239
G3 X28.5898 Y26.948 I28.0261 J26.4533
G3 X28.209 Y27.3675 I16.0 J15.9
G3 X27.8096 Y27.7784 I16.0 J15.9
G3 X27.4344 Y27.9806 I27.2808 J27.2465
G3 X26.489 Y28.1525 I23.7184 J10.2239
G0 Z3.0
G0 X25.1343 Y21.555
G0 Z-0.4
G1 F150.0 Z-1.2
G2 F250.0 X24.7283 Y21.3624 I24.1875 J23.0267
G2 X22.4758 Y23.3906 I24.1875 J23.0267
G2 X25.3585 Y24.3272 I24.1875 J23.0267
G2 X25.8649 Y23.5257 I24.1875 J23.0267
G3 X24.7593 Y23.9431 I18.908 J6.7712
G3 X24.7323 Y23.9517 I24.5174 J23.2331
G3 X23.4978 Y23.2761 I24.4489 J23.0039
G3 X23.4688 Y23.0722 I24.2188 J23.0697
G3 X24.2848 Y21.8848 I24.7346 J23.068
G3 X24.2993 Y21.8795 I24.5513 J22.5859
G2 X25.1343 Y21.555 I18.908 J6.7712
G0 Z3.0
G0 X31.6876 Y19.6472
G0 Z-0.4
G1 F150.0 Z-1.2
G2 F250.0 X33.0446 Y19.2076 I31.8736 J17.9071
G2 X32.4144 Y16.2427 I31.8736 J17.9071
G2 X30.1507 Y18.2136 I31.8736 J17.9071
G2 X31.0771 Y17.223 I18.908 J6.7712
G2 X31.3507 Y16.8957 I18.908 J6.7712
G3 X32.6792 Y17.4379 I31.9324 J17.3691
G3 X32.6177 Y18.0012 I16.0 J15.9
G3 X32.5361 Y18.5683 I16.0 J15.9
G3 X32.3515 Y18.9525 I31.7957 J18.4489
G3 X31.6876 Y19.6472 I18.908 J6.7712
G0 Z3.0
G0 X26.7137 Y15.106
G0 Z-0.4
G1 F150.0 Z-1.2
G2 F250.0 X26.2721 Y15.1888 I26.8128 J16.8531
G2 X25.6419 Y18.1536 I26.8128 J16.8531
G2 X28.5246 Y17.217 I26.8128 J16.8531
G2 X28.4631 Y16.2708 I26.8128 J16.8531
G3 X27.814 Y17.2584 I12.9868 J6.8054
G3 X27.7972 Y17.2812 I27.201 J16.8262
G3 X26.4013 Y17.4603 I27.0108 J16.6811
G3 X26.2581 Y17.3124 I26.8634 J16.8695
G3 X26.2203 Y15.8722 I27.2797 J16.565
G3 X26.2289 Y15.8593 I26.848 J16.2826
G2 X26.7137 Y15.106 I12.9868 J6.8054
G0 Z3.0
G0 X30.8941 Y9.7106
G0 Z-0.4
G1 F150.0 Z-1.2
G2 F250.0 X31.7335 Y8.5573 I30.0218 J8.1935
G2 X29.481 Y6.5291 I30.0218 J8.1935
G2 X28.808 Y9.4542 I30.0218 J8.1935
G2 X28.9752 Y8.1082 I12.9868 J6.8054
G2 X29.0042 Y7.6827 I12.9868 J6.8054
G3 X30.3978 Y7.3404 I29.7531 J7.7237
G3 X30.679 Y7.8323 I16.0 J15.9
G3 X30.9464 Y8.3391 I16.0 J15.9
G3 X31.0228 Y8.7584 I30.2772 J8.6776
G3 X30.8941 Y9.7106 I12.9868 J6.8054
G0 Z3.0
G0 X24.2008 Y8.9602
G0 Z-0.4
G1 F150.0 Z-1.2
G2 F250.0 X23.8922 Y9.2869 I25.308 J10.3155
G2 X25.1251 Y12.0559 I25.308 J10.3155
G2 X26.9067 Y9.6037 I25.308 J10.3155
G2 X26.3009 Y8.8744 I25.308 J10.3155
G3 X26.3562 Y10.0548 I8.2166 J10.3134
G3 X26.356 Y10.0832 I25.6062 J10.0655
G3 X25.332 Y11.0485 I25.367 J10.0599
G3 X25.1291 Y11.0131 I25.3586 J10.299
G3 X24.2521 Y9.8701 I25.5163 J9.8079
G3 X24.2515 Y9.8547 I25.0011 J9.8333
G2 X24.2008 Y8.9602 I8.2166 J10.3134
G0 Z3.0
G0 X24.4115 Y2.1381
G0 Z-0.4
G1 F150.0 Z-1.2
G2 F250.0 X24.4128 Y0.7117 I22.8141 J1.4235
G2 X21.3983 Y0.3949 I22.8141 J1.4235
G2 X22.5732 Y3.1569 I22.8141 J1.4235
G2 X21.9173 Y1.9697 I8.2166 J10.3134
G2 X21.6906 Y1.6083 I8.2166 J10.3134
G3 X22.6168 Y0.5123 I22.3206 J1.2013
G3 X23.1335 Y0.7449 I16.0 J15.9
G3 X23.6477 Y0.9978 I16.0 J15.9
G3 X23.9559 Y1.2921 I23.3053 J1.6651
G3 X24.4115 Y2.1381 I8.2166 J10.3134
G0 Z3.0
G0 X18.5555 Y5.4653
G0 Z-0.4
G1 F150.0 Z-1.2
G2 F250.0 X18.4978 Y5.9109 I20.2478 J5.9109
G2 X21.1228 Y7.4265 I20.2478 J5.9109
G2 Y4.3954 I20.2478 J5.9109
G2 X20.204 Y4.1615 I20.2478 J5.9109
G3 X20.9426 Y5.084 I6.4194 J15.9553
G3 X20.9592 Y5.107 I20.3422 J5.5334
G3 X20.6981 Y6.4899 I20.1454 J5.6694
G3 X20.5132 Y6.5804 I20.2791 J5.8679
G3 X19.1318 Y6.1713 I20.118 J5.3778
G3 X19.1222 Y6.1592 I19.7161 J5.7012
G2 X18.5555 Y5.4653 I6.4194 J15.9553
G0 Z3.0
G0 X14.716 Y-0.1778
G0 Z-0.4
G1 F150.0 Z-1.2
G2 F250.0 X13.8786 Y-1.3325 I13.0036 J0.1831
G2 X11.2536 Y0.1831 I13.0036 J0.1831
G2 X13.8276 Y1.727 I13.0036 J0.1831
G2 X12.5991 Y1.152 I6.4194 J15.9553
G2 X12.2034 Y0.993 I6.4194 J15.9553
G3 X12.3085 Y-0.4382 I12.4738 J0.2934
G3 X12.8632 Y-0.5537 I16.0 J15.9
G3 X13.4278 Y-0.6513 I16.0 J15.9
G3 X13.8502 Y-0.5944 I13.543 J0.0898
G3 X14.716 Y-0.1778 I6.4194 J15.9553
G0 Z3.0
G0 X11.9341 Y5.956
G0 Z-0.4
G1 F150.0 Z-1.2
G2 F250.0 X12.1494 Y6.3505 I13.5651 J5.3218
G2 X15.1638 Y6.0336 I13.5651 J5.3218
G2 X13.3822 Y3.5814 I13.5651 J5.3218
G2 X12.5014 Y3.9323 I13.5651 J5.3218
G3 X13.6412 Y4.2444 I8.2816 J21.5761
G3 X13.6681 Y4.2533 I13.4196 J4.961
G3 X14.2697 Y5.5256 I13.3403 J5.1867
G3 X14.1733 Y5.7075 I13.5651 J5.2687
G3 X12.8153 Y6.1885 I13.1468 J4.9669
G3 X12.8004 Y6.1843 I13.0117 J5.4647
G2 X11.9341 Y5.956 I8.2816 J21.5761
G0 Z3.0
G0 X5.511 Y3.6475
G0 Z-0.4
G1 F150.0 Z-1.2
G2 F250.0 X4.1548 Y3.2055 I4.3377 J4.946
G2 X2.9219 Y5.9746 I4.3377 J4.946
G2 X5.9118 Y5.7107 I4.3377 J4.946
G2 X4.58 Y5.9676 I8.2816 J21.5761
G2 X4.1663 Y6.0716 I8.2816 J21.5761
G3 X3.4102 Y4.852 I3.9739 J5.3467
G3 X3.791 Y4.4325 I16.0 J15.9
G3 X4.1904 Y4.0216 I16.0 J15.9
G3 X4.5656 Y3.8194 I4.7192 J4.5535
G3 X5.511 Y3.6475 I8.2816 J21.5761
G0 Z3.0
G0 X6.8657 Y10.245
G0 Z-0.4
G1 F150.0 Z-1.2
G2 F250.0 X7.2717 Y10.4376 I7.8125 J8.7733
G2 X9.5242 Y8.4094 I7.8125 J8.7733
G2 X6.6415 Y7.4728 I7.8125 J8.7733
G2 X6.1351 Y8.2743 I7.8125 J8.7733
G3 X7.2407 Y7.8569 I13.092 J25.0288
G3 X7.2677 Y7.8483 I7.4826 J8.5669
G3 X8.5022 Y8.5239 I7.5511 J8.7961
G3 X8.5312 Y8.7278 I7.7812 J8.7303
G3 X7.7152 Y9.9152 I7.2654 J8.732
G3 X7.7007 Y9.9205 I7.4487 J9.2141
G2 X6.8657 Y10.245 I13.092 J25.0288
G0 Z3.0
G0 X0.3124 Y12.1528
G0 Z-0.4
G1 F150.0 Z-1.2
G2 F250.0 X-1.0446 Y12.5924 I0.1264 J13.8929
G2 X-0.4144 Y15.5573 I0.1264 J13.8929
G2 X1.8493 Y13.5864 I0.1264 J13.8929
G2 X0.9229 Y14.577 I13.092 J25.0288
G2 X0.6493 Y14.9043 I13.092 J25.0288
G3 X-0.6792 Y14.3621 I0.0676 J14.4309
G3 X-0.6177 Y13.7988 I16.0 J15.9
G3 X-0.5361 Y13.2317 I16.0 J15.9
G3 X-0.3515 Y12.8475 I0.2043 J13.3511
G3 X0.3124 Y12.1528 I13.092 J25.0288
G0 Z3.0
G0 X5.2863 Y16.694
G0 Z-0.4
G1 F150.0 Z-1.2
G2 F250.0 X5.7279 Y16.6112 I5.1872 J14.9469
G2 X6.3581 Y13.6464 I5.1872 J14.9469
G2 X3.4754 Y14.583 I5.1872 J14.9469
G2 X3.5369 Y15.5292 I5.1872 J14.9469
G3 X4.186 Y14.5416 I19.0132 J24.9946
G3 X4.2028 Y14.5188 I4.799 J14.9738
G3 X5.5987 Y14.3397 I4.9892 J15.1189
G3 X5.7419 Y14.4876 I5.1366 J14.9305
G3 X5.7797 Y15.9278 I4.7203 J15.235
G3 X5.7711 Y15.9407 I5.152 J15.5174
G2 X5.2863 Y16.694 I19.0132 J24.9946
G0 Z3.0
G0 X1.1059 Y22.0894
G0 Z-0.4
G1 F150.0 Z-1.2
G2 F250.0 X0.2665 Y23.2427 I1.9782 J23.6065
G2 X2.519 Y25.2709 I1.9782 J23.6065
G2 X3.192 Y22.3458 I1.9782 J23.6065
G2 X3.0248 Y23.6918 I19.0132 J24.9946
G2 X2.9958 Y24.1173 I19.0132 J24.9946
G3 X1.6022 Y24.4596 I2.2469 J24.0763
G3 X1.321 Y23.9677 I16.0 J15.9
G3 X1.0536 Y23.4609 I16.0 J15.9
G3 X0.9772 Y23.0416 I1.7228 J23.1224
G3 X1.1059 Y22.0894 I19.0132 J24.9946
G0 Z3.0
G0 X7.7992 Y22.8398
G0 Z-0.4
G1 F150.0 Z-1.2
G2 F250.0 X8.1078 Y22.5131 I6.692 J21.4845
G2 X6.8749 Y19.7441 I6.692 J21.4845
G2 X5.0933 Y22.1963 I6.692 J21.4845
G2 X5.6991 Y22.9256 I6.692 J21.4845
G3 X5.6438 Y21.7452 I23.7834 J21.4866
G3 X5.644 Y21.7168 I6.3938 J21.7345
G3 X6.668 Y20.7515 I6.633 J21.7401
G3 X6.8709 Y20.7869 I6.6414 J21.501
G3 X7.7479 Y21.9299 I6.4837 J21.9921
G3 X7.7485 Y21.9453 I6.9989 J21.9667
G2 X7.7992 Y22.8398 I23.7834 J21.4866
G0 Z3.0
G0 X7.5885 Y29.6619
G0 Z-0.4
G1 F150.0 Z-1.2
G2 F250.0 X7.5872 Y31.0883 I9.1859 J30.3765
G2 X10.6017 Y31.4051 I9.1859 J30.3765
G2 X9.4268 Y28.6431 I9.1859 J30.3765
G2 X10.0827 Y29.8303 I23.7834 J21.4866
G2 X10.3094 Y30.1917 I23.7834 J21.4866
G3 X9.3832 Y31.2877 I9.6794 J30.5987
G3 X8.8665 Y31.0551 I16.0 J15.9
G3 X8.3523 Y30.8022 I16.0 J15.9
G3 X8.0441 Y30.5079 I8.6947 J30.1349
G3 X7.5885 Y29.6619 I23.7834 J21.4866
G0 Z3.0
G0 X13.4445 Y26.3347
G0 Z-0.4
G1 F150.0 Z-1.2
G2 F250.0 X13.5022 Y25.8891 I11.7522 J25.8891
G2 X10.8772 Y24.3735 I11.7522 J25.8891
G2 Y27.4046 I11.7522 J25.8891
G2 X11.796 Y27.6385 I11.7522 J25.8891
G3 X11.0574 Y26.716 I25.5806 J15.8447
G3 X11.0408 Y26.693 I11.6578 J26.2666
G3 X11.3019 Y25.3101 I11.8546 J26.1306
G3 X11.4868 Y25.2196 I11.7209 J25.9321
G3 X12.8682 Y25.6287 I11.882 J26.4222
G3 X12.8778 Y25.6408 I12.2839 J26.0988
G2 X13.4445 Y26.3347 I25.5806 J15.8447
G0 Z3.0
G0 X17.284 Y31.9778
G0 Z-0.4
G1 F150.0 Z-1.2
G2 F250.0 X18.1214 Y33.1325 I18.9964 J31.6169
G2 X20.7464 Y31.6169 I18.9964 J31.6169
G2 X18.1724 Y30.073 I18.9964 J31.6169
G2 X19.4009 Y30.648 I25.5806 J15.8447
G2 X19.7966 Y30.807 I25.5806 J15.8447
G3 X19.6915 Y32.2382 I19.5262 J31.5066
G3 X19.1368 Y32.3537 I16.0 J15.9
G3 X18.5722 Y32.4513 I16.0 J15.9
G3 X18.1498 Y32.3944 I18.457 J31.7102
G3 X17.284 Y31.9778 I25.5806 J15.8447
G0 Z3.0
G0 X20.0659 Y25.844
G0 Z-0.7
G1 F150.0 Z-1.5
G2 F250.0 X19.8506 Y25.4495 I18.4349 J26.4782
G2 X16.8362 Y25.7664 I18.4349 J26.4782
G2 X18.6178 Y28.2186 I18.4349 J26.4782
G2 X19.4986 Y27.8677 I18.4349 J26.4782
G3 X18.3588 Y27.5556 I23.7184 J10.2239
G3 X18.3319 Y27.5467 I18.5804 J26.839
G3 X17.7303 Y26.2744 I18.6597 J26.6133
G3 X17.8267 Y26.0925 I18.4349 J26.5313
G3 X19.1847 Y25.6115 I18.8532 J26.8331
G3 X19.1996 Y25.6157 I18.9883 J26.3353
G2 X20.0659 Y25.844 I23.7184 J10.2239
G0 Z3.0
G0 X26.489 Y28.1525
G0 Z-0.7
G1 F150.0 Z-1.5
G2 F250.0 X27.8452 Y28.5945 I27.6623 J26.854
G2 X29.0781 Y25.8254 I27.6623 J26.854
G2 X26.0882 Y26.0893 I27.6623 J26.854
G2 X27.42 Y25.8324 I23.7184 J10.2239
G2 X27.8337 Y25.7284 I23.7184 J10.2239
G3 X28.5898 Y26.948 I28.0261 J26.4533
G3 X28.209 Y27.3675 I16.0 J15.9
G3 X27.8096 Y27.7784 I16.0 J15.9
G3 X27.4344 Y27.9806 I27.2808 J27.2465
G3 X26.489 Y28.1525 I23.7184 J10.2239
G0 Z3.0
G0 X25.1343 Y21.555
G0 Z-0.7
G1 F150.0 Z-1.5
G2 F250.0 X24.7283 Y21.3624 I24.1875 J23.0267
G2 X22.4758 Y23.3906 I24.1875 J23.0267
G2 X25.3585 Y24.3272 I24.1875 J23.0267
G2 X25.8649 Y23.5257 I24.1875 J23.0267
G3 X24.7593 Y23.9431 I18.908 J6.7712
G3 X24.7323 Y23.9517 I24.5174 J23.2331
G3 X23.4978 Y23.2761 I24.4489 J23.0039
G3 X23.4688 Y23.0722 I24.2188 J23.0697
G3 X24.2848 Y21.8848 I24.7346 J23.068
G3 X24.2993 Y21.8795 I24.5513 J22.5859
G2 X25.1343 Y21.555 I18.908 J6.7712
G0 Z3.0
G0 X31.6876 Y19.6472
G0 Z-0.7
G1 F150.0 Z-1.5
G2 F250.0 X33.0446 Y19.2076 I31.8736 J17.9071
G2 X32.4144 Y16.2427 I31.8736 J17.9071
G2 X30.1507 Y18.2136 I31.8736 J17.9071
G2 X31.0771 Y17.223 I18.908 J6.7712
G2 X31.3507 Y16.8957 I18.908 J6.7712
G3 X32.6792 Y17.4379 I31.9324 J17.3691
G3 X32.6177 Y18.0012 I16.0 J15.9
G3 X32.5361 Y18.5683 I16.0 J15.9
G3 X32.3515 Y18.9525 I31.7957 J18.4489
G3 X31.6876 Y19.6472 I18.908 J6.7712
G0 Z3.0
G0 X26.7137 Y15.106
G0 Z-0.7
G1 F150.0 Z-1.5
G2 F250.0 X26.2721 Y15.1888 I26.8128 J16.8531
G2 X25.6419 Y18.1536 I26.8128 J16.8531
G2 X28.5246 Y17.217 I26.8128 J16.8531
G2 X28.4631 Y16.2708 I26.8128 J16.8531
G3 X27.814 Y17.2584 I12.9868 J6.8054
G3 X27.7972 Y17.2812 I27.201 J16.8262
G3 X26.4013 Y17.4603 I27.0108 J16.6811
G3 X26.2581 Y17.3124 I26.8634 J16.8695
G3 X26.2203 Y15.8722 I27.2797 J16.565
G3 X26.2289 Y15.8593 I26.848 J16.2826
G2 X26.7137 Y15.106 I12.9868 J6.8054
G0 Z3.0
G0 X30.8941 Y9.7106
G0 Z-0.7
G1 F150.0 Z-1.5
G2 F250.0 X31.7335 Y8.5573 I30.0218 J8.1935
G2 X29.481 Y6.5291 I30.0218 J8.1935
G2 X28.808 Y9.4542 I30.0218 J8.1935
G2 X28.9752 Y8.1082 I12.9868 J6.8054
G2 X29.0042 Y7.6827 I12.9868 J6.8054
G3 X30.3978 Y7.3404 I29.7531 J7.7237
G3 X30.679 Y7.8323 I16.0 J15.9
G3 X30.9464 Y8.3391 I16.0 J15.9
G3 X31.0228 Y8.7584 I30.2772 J8.6776
G3 X30.8941 Y9.7106 I12.9868 J6.8054
G0 Z3.0
G0 X24.2008 Y8.9602
G0 Z-0.7
G1 F150.0 Z-1.5
G2 F250.0 X23.8922 Y9.2869 I25.308 J10.3155
G2 X25.1251 Y12.0559 I25.308 J10.3155
G2 X26.9067 Y9.6037 I25.308 J10.3155
G2 X26.3009 Y8.8744 I25.308 J10.3155
G3 X26.3562 Y10.0548 I8.2166 J10.3134
G3 X26.356 Y10.0832 I25.6062 J10.0655
G3 X25.332 Y11.0485 I25.367 J10.0599
G3 X25.1291 Y11.0131 I25.3586 J10.299
G3 X24.2521 Y9.8701 I25.5163 J9.8079
G3 X24.2515 Y9.8547 I25.0011 J9.8333
G2 X24.2008 Y8.9602 I8.2166 J10.3134
G0 Z3.0
G0 X24.4115 Y2.1381
G0 Z-0.7
G1 F150.0 Z-1.5
G2 F250.0 X24.4128 Y0.7117 I22.8141 J1.4235
G2 X21.3983 Y0.3949 I22.8141 J1.4235
G2 X22.5732 Y3.1569 I22.8141 J1.4235
G2 X21.9173 Y1.9697 I8.2166 J10.3134
G2 X21.6906 Y1.6083 I8.2166 J10.3134
G3 X22.6168 Y0.5123 I22.3206 J1.2013
G3 X23.1335 Y0.7449 I16.0 J15.9
G3 X23.6477 Y0.9978 I16.0 J15.9
G3 X23.9559 Y1.2921 I23.3053 J1.6651
G3 X24.4115 Y2.1381 I8.2166 J10.3134
G0 Z3.0
G0 X18.5555 Y5.4653
G0 Z-0.7
G1 F150.0 Z-1.5
G2 F250.0 X18.4978 Y5.9109 I20.2478 J5.9109
G2 X21.1228 Y7.4265 I20.2478 J5.9109
G2 Y4.3954 I20.2478 J5.9109
G2 X20.204 Y4.1615 I20.2478 J5.9109
G3 X20.9426 Y5.084 I6.4194 J15.9553
G3 X20.9592 Y5.107 I20.3422 J5.5334
G3 X20.6981 Y6.4899 I20.1454 J5.6694
G3 X20.5132 Y6.5804 I20.2791 J5.8679
G3 X19.1318 Y6.1713 I20.118 J5.3778
G3 X19.1222 Y6.1592 I19.7161 J5.7012
G2 X18.5555 Y5.4653 I6.4194 J15.9553
G0 Z3.0
G0 X14.716 Y-0.1778
G0 Z-0.7
G1 F150.0 Z-1.5
G2 F250.0 X13.8786 Y-1.3325 I13.0036 J0.1831
G2 X11.2536 Y0.1831 I13.0036 J0.1831
G2 X13.8276 Y1.727 I13.0036 J0.1831
G2 X12.5991 Y1.152 I6.4194 J15.9553
G2 X12.2034 Y0.993 I6.4194 J15.9553
G3 X12.3085 Y-0.4382 I12.4738 J0.2934
G3 X12.8632 Y-0.5537 I16.0 J15.9
G3 X13.4278 Y-0.6513 I16.0 J15.9
G3 X13.8502 Y-0.5944 I13.543 J0.0898
G3 X14.716 Y-0.1778 I6.4194 J15.9553
G0 Z3.0
G0 X11.9341 Y5.956
G0 Z-0.7
G1 F150.0 Z-1.5
G2 F250.0 X12.1494 Y6.3505 I13.5651 J5.3218
G2 X15.1638 Y6.0336 I13.5651 J5.3218
G2 X13.3822 Y3.5814 I13.5651 J5.3218
G2 X12.5014 Y3.9323 I13.5651 J5.3218
G3 X13.6412 Y4.2444 I8.2816 J21.5761
G3 X13.6681 Y4.2533 I13.4196 J4.961
G3 X14.2697 Y5.5256 I13.3403 J5.1867
G3 X14.1733 Y5.7075 I13.5651 J5.2687
G3 X12.8153 Y6.1885 I13.1468 J4.9669
G3 X12.8004 Y6.1843 I13.0117 J5.4647
G2 X11.9341 Y5.956 I8.2816 J21.5761
G0 Z3.0
G0 X5.511 Y3.6475
G0 Z-0.7
G1 F150.0 Z-1.5
G2 F250.0 X4.1548 Y3.2055 I4.3377 J4.946
G2 X2.9219 Y5.9746 I4.3377 J4.946
G2 X5.9118 Y5.7107 I4.3377 J4.946
G2 X4.58 Y5.9676 I8.2816 J21.5761
G2 X4.1663 Y6.0716 I8.2816 J21.5761
G3 X3.4102 Y4.852 I3.9739 J5.3467
G3 X3.791 Y4.4325 I16.0 J15.9
G3 X4.1904 Y4.0216 I16.0 J15.9
G3 X4.5656 Y3.8194 I4.7192 J4.5535
G3 X5.511 Y3.6475 I8.2816 J21.5761
G0 Z3.0
G0 X6.8657 Y10.245
G0 Z-0.7
G1 F150.0 Z-1.5
G2 F250.0 X7.2717 Y10.4376 I7.8125 J8.7733
G2 X9.5242 Y8.4094 I7.8125 J8.7733
G2 X6.6415 Y7.4728 I7.8125 J8.7733
G2 X6.1351 Y8.2743 I7.8125 J8.7733
G3 X7.2407 Y7.8569 I13.092 J25.0288
G3 X7.2677 Y7.8483 I7.4826 J8.5669
G3 X8.5022 Y8.5239 I7.5511 J8.7961
G3 X8.5312 Y8.7278 I7.7812 J8.7303
G3 X7.7152 Y9.9152 I7.2654 J8.732
G3 X7.7007 Y9.9205 I7.4487 J9.2141
G2 X6.8657 Y10.245 I13.092 J25.0288
G0 Z3.0
G0 X0.3124 Y12.1528
G0 Z-0.7
G1 F150.0 Z-1.5
G2 F250.0 X-1.0446 Y12.5924 I0.1264 J13.8929
G2 X-0.4144 Y15.5573 I0.1264 J13.8929
G2 X1.8493 Y13.5864 I0.1264 J13.8929
G2 X0.9229 Y14.577 I13.092 J25.0288
G2 X0.6493 Y14.9043 I13.092 J25.0288
G3 X-0.6792 Y14.3621 I0.0676 J14.4309
G3 X-0.6177 Y13.7988 I16.0 J15.9
G3 X-0.5361 Y13.2317 I16.0 J15.9
G3 X-0.3515 Y12.8475 I0.2043 J13.3511
G3 X0.3124 Y12.1528 I13.092 J25.0288
G0 Z3.0
G0 X5.2863 Y16.694
G0 Z-0.7
G1 F150.0 Z-1.5
G2 F250.0 X5.7279 Y16.6112 I5.1872 J14.9469
G2 X6.3581 Y13.6464 I5.1872 J14.9469
G2 X3.4754 Y14.583 I5.1872 J14.9469
G2 X3.5369 Y15.5292 I5.1872 J14.9469
G3 X4.186 Y14.5416 I19.0132 J24.9946
G3 X4.2028 Y14.5188 I4.799 J14.9738
G3 X5.5987 Y14.3397 I4.9892 J15.1189
G3 X5.7419 Y14.4876 I5.1366 J14.9305
G3 X5.7797 Y15.9278 I4.7203 J15.235
G3 X5.7711 Y15.9407 I5.152 J15.5174
G2 X5.2863 Y16.694 I19.0132 J24.9946
G0 Z3.0
G0 X1.1059 Y22.0894
G0 Z-0.7
G1 F150.0 Z-1.5
G2 F250.0 X0.2665 Y23.2427 I1.9782 J23.6065
G2 X2.519 Y25.2709 I1.9782 J23.6065
G2 X3.192 Y22.3458 I1.9782 J23.6065
G2 X3.0248 Y23.6918 I19.0132 J24.9946
G2 X2.9958 Y24.1173 I19.0132 J24.9946
G3 X1.6022 Y24.4596 I2.2469 J24.0763
G3 X1.321 Y23.9677 I16.0 J15.9
G3 X1.0536 Y23.4609 I16.0 J15.9
G3 X0.9772 Y23.0416 I1.7228 J23.1224
G3 X1.1059 Y22.0894 I19.0132 J24.9946
G0 Z3.0
G0 X7.7992 Y22.8398
G0 Z-0.7
G1 F150.0 Z-1.5
G2 F250.0 X8.1078 Y22.5131 I6.692 J21.4845
G2 X6.8749 Y19.7441 I6.692 J21.4845
G2 X5.0933 Y22.1963 I6.692 J21.4845
G2 X5.6991 Y22.9256 I6.692 J21.4845
G3 X5.6438 Y21.7452 I23.7834 J21.4866
G3 X5.644 Y21.7168 I6.3938 J21.7345
G3 X6.668 Y20.7515 I6.633 J21.7401
G3 X6.8709 Y20.7869 I6.6414 J21.501
G3 X7.7479 Y21.9299 I6.4837 J21.9921
G3 X7.7485 Y21.9453 I6.9989 J21.9667
G2 X7.7992 Y22.8398 I23.7834 J21.4866
G0 Z3.0
G0 X7.5885 Y29.6619
G0 Z-0.7
G1 F150.0 Z-1.5
G2 F250.0 X7.5872 Y31.0883 I9.1859 J30.3765
G2 X10.6017 Y31.4051 I9.1859 J30.3765
G2 X9.4268 Y28.6431 I9.1859 J30.3765
G2 X10.0827 Y29.8303 I23.7834 J21.4866
G2 X10.3094 Y30.1917 I23.7834 J21.4866
G3 X9.3832 Y31.2877 I9.6794 J30.5987
G3 X8.8665 Y31.0551 I16.0 J15.9
G3 X8.3523 Y30.8022 I16.0 J15.9
G3 X8.0441 Y30.5079 I8.6947 J30.1349
G3 X7.5885 Y29.6619 I23.7834 J21.4866
G0 Z3.0
G0 X13.4445 Y26.3347
G0 Z-0.7
G1 F150.0 Z-1.5
G2 F250.0 X13.5022 Y25.8891 I11.7522 J25.8891
G2 X10.8772 Y24.3735 I11.7522 J25.8891
G2 Y27.4046 I11.7522 J25.8891
G2 X11.796 Y27.6385 I11.7522 J25.8891
G3 X11.0574 Y26.716 I25.5806 J15.8447
G3 X11.0408 Y26.693 I11.6578 J26.2666
G3 X11.3019 Y25.3101 I11.8546 J26.1306
G3 X11.4868 Y25.2196 I11.7209 J25.9321
G3 X12.8682 Y25.6287 I11.882 J26.4222
G3 X12.8778 Y25.6408 I12.2839 J26.0988
G2 X13.4445 Y26.3347 I25.5806 J15.8447
G0 Z3.0
G0 X17.284 Y31.9778
G0 Z-0.7
G1 F150.0 Z-1.5
G2 F250.0 X18.1214 Y33.1325 I18.9964 J31.6169
G2 X20.7464 Y31.6169 I18.9964 J31.6169
G2 X18.1724 Y30.073 I18.9964 J31.6169
G2 X19.4009 Y30.648 I25.5806 J15.8447
G2 X19.7966 Y30.807 I25.5806 J15.8447
G3 X19.6915 Y32.2382 I19.5262 J31.5066
G3 X19.1368 Y32.3537 I16.0 J15.9
G3 X18.5722 Y32.4513 I16.0 J15.9
G3 X18.1498 Y32.3944 I18.457 J31.7102
G3 X17.284 Y31.9778 I25.5806 J15.8447
G0 Z3.0
G0 X20.0659 Y25.844
G0 Z-1.0
G1 F150.0 Z-1.8
G2 F250.0 X19.8506 Y25.4495 I18.4349 J26.4782
G2 X16.8362 Y25.7664 I18.4349 J26.4782
G2 X18.6178 Y28.2186 I18.4349 J26.4782
G2 X19.4986 Y27.8677 I18.4349 J26.4782
G3 X18.3588 Y27.5556 I23.7184 J10.2239
G3 X18.3319 Y27.5467 I18.5804 J26.839
G3 X17.7303 Y26.2744 I18.6597 J26.6133
G3 X17.8267 Y26.0925 I18.4349 J26.5313
G3 X19.1847 Y25.6115 I18.8532 J26.8331
G3 X19.1996 Y25.6157 I18.9883 J26.3353
G2 X20.0659 Y25.844 I23.7184 J10.2239
G0 Z3.0
G0 X26.489 Y28.1525
G0 Z-1.0
G1 F150.0 Z-1.8
G2 F250.0 X27.8452 Y28.5945 I27.6623 J26.854
G2 X29.0781 Y25.8254 I27.6623 J26.854
G2 X26.0882 Y26.0893 I27.6623 J26.854
G2 X27.42 Y25.8324 I23.7184 J10.2239
G2 X27.8337 Y25.7284 I23.7184 J10.2239
G3 X28.5898 Y26.948 I28.0261 J26.4533
G3 X28.209 Y27.3675 I16.0 J15.9
G3 X27.8096 Y27.7784 I16.0 J15.9
G3 X27.4344 Y27.9806 I27.2808 J27.2465
G3 X26.489 Y28.1525 I23.7184 J10.2239
G0 Z3.0
G0 X25.1343 Y21.555
G0 Z-1.0
G1 F150.0 Z-1.8
G2 F250.0 X24.7283 Y21.3624 I24.1875 J23.0267
G2 X22.4758 Y23.3906 I24.1875 J23.0267
G2 X25.3585 Y24.3272 I24.1875 J23.0267
G2 X25.8649 Y23.5257 I24.1875 J23.0267
G3 X24.7593 Y23.9431 I18.908 J6.7712
G3 X24.7323 Y23.9517 I24.5174 J23.2331
G3 X23.4978 Y23.2761 I24.4489 J23.0039
G3 X23.4688 Y23.0722 I24.2188 J23.0697
G3 X24.2848 Y21.8848 I24.7346 J23.068
G3 X24.2993 Y21.8795 I24.5513 J22.5859
G2 X25.1343 Y21.555 I18.908 J6.7712
G0 Z3.0
G0 X31.6876 Y19.6472
G0 Z-1.0
G1 F150.0 Z-1.8
G2 F250.0 X33.0446 Y19.2076 I31.8736 J17.9071
G2 X32.4144 Y16.2427 I31.8736 J17.9071
G2 X30.1507 Y18.2136 I31.8736 J17.9071
G2 X31.0771 Y17.223 I18.908 J6.7712
G2 X31.3507 Y16.8957 I18.908 J6.7712
G3 X32.6792 Y17.4379 I31.9324 J17.3691
G3 X32.6177 Y18.0012 I16.0 J15.9
G3 X32.5361 Y18.5683 I16.0 J15.9
G3 X32.3515 Y18.9525 I31.7957 J18.4489
G3 X31.6876 Y19.6472 I18.908 J6.7712
G0 Z3.0
G0 X26.7137 Y15.106
G0 Z-1.0
G1 F150.0 Z-1.8
G2 F250.0 X26.2721 Y15.1888 I26.8128 J16.8531
G2 X25.6419 Y18.1536 I26.8128 J16.8531
G2 X28.5246 Y17.217 I26.8128 J16.8531
G2 X28.4631 Y16.2708 I26.8128 J16.8531
G3 X27.814 Y17.2584 I12.9868 J6.8054
G3 X27.7972 Y17.2812 I27.201 J16.8262
G3 X26.4013 Y17.4603 I27.0108 J16.6811
G3 X26.2581 Y17.3124 I26.8634 J16.8695
G3 X26.2203 Y15.8722 I27.2797 J16.565
G3 X26.2289 Y15.8593 I26.848 J16.2826
G2 X26.7137 Y15.106 I12.9868 J6.8054
G0 Z3.0
G0 X30.8941 Y9.7106
G0 Z-1.0
G1 F150.0 Z-1.8
G2 F250.0 X31.7335 Y8.5573 I30.0218 J8.1935
G2 X29.481 Y6.5291 I30.0218 J8.1935
G2 X28.808 Y9.4542 I30.0218 J8.1935
G2 X28.9752 Y8.1082 I12.9868 J6.8054
G2 X29.0042 Y7.6827 I12.9868 J6.8054
G3 X30.3978 Y7.3404 I29.7531 J7.7237
G3 X30.679 Y7.8323 I16.0 J15.9
G3 X30.9464 Y8.3391 I16.0 J15.9
G3 X31.0228 Y8.7584 I30.2772 J8.6776
G3 X30.8941 Y9.7106 I12.9868 J6.8054
G0 Z3.0
G0 X24.2008 Y8.9602
G0 Z-1.0
G1 F150.0 Z-1.8
G2 F250.0 X23.8922 Y9.2869 I25.308 J10.3155
G2 X25.1251 Y12.0559 I25.308 J10.3155
G2 X26.9067 Y9.6037 I25.308 J10.3155
G2 X26.3009 Y8.8744 I25.308 J10.3155
G3 X26.3562 Y10.0548 I8.2166 J10.3134
G3 X26.356 Y10.0832 I25.6062 J10.0655
G3 X25.332 Y11.0485 I25.367 J10.0599
G3 X25.1291 Y11.0131 I25.3586 J10.299
G3 X24.2521 Y9.8701 I25.5163 J9.8079
G3 X24.2515 Y9.8547 I25.0011 J9.8333
G2 X24.2008 Y8.9602 I8.2166 J10.3134
G0 Z3.0
G0 X24.4115 Y2.1381
G0 Z-1.0
G1 F150.0 Z-1.8
G2 F250.0 X24.4128 Y0.7117 I22.8141 J1.4235
G2 X21.3983 Y0.3949 I22.8141 J1.4235
G2 X22.5732 Y3.1569 I22.8141 J1.4235
G2 X21.9173 Y1.9697 I8.2166 J10.3134
G2 X21.6906 Y1.6083 I8.2166 J10.3134
G3 X22.6168 Y0.5123 I22.3206 J1.2013
G3 X23.1335 Y0.7449 I16.0 J15.9
G3 X23.6477 Y0.9978 I16.0 J15.9
G3 X23.9559 Y1.2921 I23.3053 J1.6651
G3 X24.4115 Y2.1381 I8.2166 J10.3134
G0 Z3.0
G0 X18.5555 Y5.4653
G0 Z-1.0
G1 F150.0 Z-1.8
G2 F250.0 X18.4978 Y5.9109 I20.2478 J5.9109
G2 X21.1228 Y7.4265 I20.2478 J5.9109
G2 Y4.3954 I20.2478 J5.9109
G2 X20.204 Y4.1615 I20.2478 J5.9109
G3 X20.9426 Y5.084 I6.4194 J15.9553
G3 X20.9592 Y5.107 I20.3422 J5.5334
G3 X20.6981 Y6.4899 I20.1454 J5.6694
G3 X20.5132 Y6.5804 I20.2791 J5.8679
G3 X19.1318 Y6.1713 I20.118 J5.3778
G3 X19.1222 Y6.1592 I19.7161 J5.7012
G2 X18.5555 Y5.4653 I6.4194 J15.9553
G0 Z3.0
G0 X14.716 Y-0.1778
G0 Z-1.0
G1 F150.0 Z-1.8
G2 F250.0 X13.8786 Y-1.3325 I13.0036 J0.1831
G2 X11.2536 Y0.1831 I13.0036 J0.1831
G2 X13.8276 Y1.727 I13.0036 J0.1831
G2 X12.5991 Y1.152 I6.4194 J15.9553
G2 X12.2034 Y0.993 I6.4194 J15.9553
G3 X12.3085 Y-0.4382 I12.4738 J0.2934
G3 X12.8632 Y-0.5537 I16.0 J15.9
G3 X13.4278 Y-0.6513 I16.0 J15.9
G3 X13.8502 Y-0.5944 I13.543 J0.0898
G3 X14.716 Y-0.1778 I6.4194 J15.9553
G0 Z3.0
G0 X11.9341 Y5.956
G0 Z-1.0
G1 F150.0 Z-1.8
G2 F250.0 X12.1494 Y6.3505 I13.5651 J5.3218
G2 X15.1638 Y6.0336 I13.5651 J5.3218
G2 X13.3822 Y3.5814 I13.5651 J5.3218
G2 X12.5014 Y3.9323 I13.5651 J5.3218
G3 X13.6412 Y4.2444 I8.2816 J21.5761
G3 X13.6681 Y4.2533 I13.4196 J4.961
G3 X14.2697 Y5.5256 I13.3403 J5.1867
G3 X14.1733 Y5.7075 I13.5651 J5.2687
G3 X12.8153 Y6.1885 I13.1468 J4.9669
G3 X12.8004 Y6.1843 I13.0117 J5.4647
G2 X11.9341 Y5.956 I8.2816 J21.5761
G0 Z3.0
G0 X5.511 Y3.6475
G0 Z-1.0
G1 F150.0 Z-1.8
G2 F250.0 X4.1548 Y3.2055 I4.3377 J4.946
G2 X2.9219 Y5.9746 I4.3377 J4.946
G2 X5.9118 Y5.7107 I4.3377 J4.946
G2 X4.58 Y5.9676 I8.2816 J21.5761
G2 X4.1663 Y6.0716 I8.2816 J21.5761
G3 X3.4102 Y4.852 I3.9739 J5.3467
G3 X3.791 Y4.4325 I16.0 J15.9
G3 X4.1904 Y4.0216 I16.0 J15.9
G3 X4.5656 Y3.8194 I4.7192 J4.5535
G3 X5.511 Y3.6475 I8.2816 J21.5761
G0 Z3.0
G0 X6.8657 Y10.245
G0 Z-1.0
G1 F150.0 Z-1.8
G2 F250.0 X7.2717 Y10.4376 I7.8125 J8.7733
G2 X9.5242 Y8.4094 I7.8125 J8.7733
G2 X6.6415 Y7.4728 I7.8125 J8.7733
G2 X6.1351 Y8.2743 I7.8125 J8.7733
G3 X7.2407 Y7.8569 I13.092 J25.0288
G3 X7.2677 Y7.8483 I7.4826 J8.5669
G3 X8.5022 Y8.5239 I7.5511 J8.7961
G3 X8.5312 Y8.7278 I7.7812 J8.7303
G3 X7.7152 Y9.9152 I7.2654 J8.732
G3 X7.7007 Y9.9205 I7.4487 J9.2141
G2 X6.8657 Y10.245 I13.092 J25.0288
G0 Z3.0
G0 X0.3124 Y12.1528
G0 Z-1.0
G1 F150.0 Z-1.8
G2 F250.0 X-1.0446 Y12.5924 I0.1264 J13.8929
G2 X-0.4144 Y15.5573 I0.1264 J13.8929
G2 X1.8493 Y13.5864 I0.1264 J13.8929
G2 X0.9229 Y14.577 I13.092 J25.0288
G2 X0.6493 Y14.9043 I13.092 J25.0288
G3 X-0.6792 Y14.3621 I0.0676 J14.4309
G3 X-0.6177 Y13.7988 I16.0 J15.9
G3 X-0.5361 Y13.2317 I16.0 J15.9
G3 X-0.3515 Y12.8475 I0.2043 J13.3511
G3 X0.3124 Y12.1528 I13.092 J25.0288
G0 Z3.0
G0 X5.2863 Y16.694
G0 Z-1.0
G1 F150.0 Z-1.8
G2 F250.0 X5.7279 Y16.6112 I5.1872 J14.9469
G2 X6.3581 Y13.6464 I5.1872 J14.9469
G2 X3.4754 Y14.583 I5.1872 J14.9469
G2 X3.5369 Y15.5292 I5.1872 J14.9469
G3 X4.186 Y14.5416 I19.0132 J24.9946
G3 X4.2028 Y14.5188 I4.799 J14.9738
G3 X5.5987 Y14.3397 I4.9892 J15.1189
G3 X5.7419 Y14.4876 I5.1366 J14.9305
G3 X5.7797 Y15.9278 I4.7203 J15.235
G3 X5.7711 Y15.9407 I5.152 J15.5174
G2 X5.2863 Y16.694 I19.0132 J24.9946
G0 Z3.0
G0 X1.1059 Y22.0894
G0 Z-1.0
G1 F150.0 Z-1.8
G2 F250.0 X0.2665 Y23.2427 I1.9782 J23.6065
G2 X2.519 Y25.2709 I1.9782 J23.6065
G2 X3.192 Y22.3458 I1.9782 J23.6065
G2 X3.0248 Y23.6918 I19.0132 J24.9946
G2 X2.9958 Y24.1173 I19.0132 J24.9946
G3 X1.6022 Y24.4596 I2.2469 J24.0763
G3 X1.321 Y23.9677 I16.0 J15.9
G3 X1.0536 Y23.4609 I16.0 J15.9
G3 X0.9772 Y23.0416 I1.7228 J23.1224
G3 X1.1059 Y22.0894 I19.0132 J24.9946
G0 Z3.0
G0 X7.7992 Y22.8398
G0 Z-1.0
G1 F150.0 Z-1.8
G2 F250.0 X8.1078 Y22.5131 I6.692 J21.4845
G2 X6.8749 Y19.7441 I6.692 J21.4845
G2 X5.0933 Y22.1963 I6.692 J21.4845
G2 X5.6991 Y22.9256 I6.692 J21.4845
G3 X5.6438 Y21.7452 I23.7834 J21.4866
G3 X5.644 Y21.7168 I6.3938 J21.7345
G3 X6.668 Y20.7515 I6.633 J21.7401
G3 X6.8709 Y20.7869 I6.6414 J21.501
G3 X7.7479 Y21.9299 I6.4837 J21.9921
G3 X7.7485 Y21.9453 I6.9989 J21.9667
G2 X7.7992 Y22.8398 I23.7834 J21.4866
G0 Z3.0
G0 X7.5885 Y29.6619
G0 Z-1.0
G1 F150.0 Z-1.8
G2 F250.0 X7.5872 Y31.0883 I9.1859 J30.3765
G2 X10.6017 Y31.4051 I9.1859 J30.3765
G2 X9.4268 Y28.6431 I9.1859 J30.3765
G2 X10.0827 Y29.8303 I23.7834 J21.4866
G2 X10.3094 Y30.1917 I23.7834 J21.4866
G3 X9.3832 Y31.2877 I9.6794 J30.5987
G3 X8.8665 Y31.0551 I16.0 J15.9
G3 X8.3523 Y30.8022 I16.0 J15.9
G3 X8.0441 Y30.5079 I8.6947 J30.1349
G3 X7.5885 Y29.6619 I23.7834 J21.4866
G0 Z3.0
G0 X13.4445 Y26.3347
G0 Z-1.0
G1 F150.0 Z-1.8
G2 F250.0 X13.5022 Y25.8891 I11.7522 J25.8891
G2 X10.8772 Y24.3735 I11.7522 J25.8891
G2 Y27.4046 I11.7522 J25.8891
G2 X11.796 Y27.6385 I11.7522 J25.8891
G3 X11.0574 Y26.716 I25.5806 J15.8447
G3 X11.0408 Y26.693 I11.6578 J26.2666
G3 X11.3019 Y25.3101 I11.8546 J26.1306
G3 X11.4868 Y25.2196 I11.7209 J25.9321
G3 X12.8682 Y25.6287 I11.882 J26.4222
G3 X12.8778 Y25.6408 I12.2839 J26.0988
G2 X13.4445 Y26.3347 I25.5806 J15.8447
G0 Z3.0
G0 X17.284 Y31.9778
G0 Z-1.0
G1 F150.0 Z-1.8
G2 F250.0 X18.1214 Y33.1325 I18.9964 J31.6169
G2 X20.7464 Y31.6169 I18.9964 J31.6169
G2 X18.1724 Y30.073 I18.9964 J31.6169
G2 X19.4009 Y30.648 I25.5806 J15.8447
G2 X19.7966 Y30.807 I25.5806 J15.8447
G3 X19.6915 Y32.2382 I19.5262 J31.5066
G3 X19.1368 Y32.3537 I16.0 J15.9
G3 X18.5722 Y32.4513 I16.0 J15.9
G3 X18.1498 Y32.3944 I18.457 J31.7102
G3 X17.284 Y31.9778 I25.5806 J15.8447
G0 Z3.0
G0 X20.0659 Y25.844
G0 Z-1.3
G1 F150.0 Z-2.1
G2 F250.0 X19.8506 Y25.4495 I18.4349 J26.4782
G2 X16.8362 Y25.7664 I18.4349 J26.4782
G2 X18.6178 Y28.2186 I18.4349 J26.4782
G2 X19.4986 Y27.8677 I18.4349 J26.4782
G3 X18.3588 Y27.5556 I23.7184 J10.2239
G3 X18.3319 Y27.5467 I18.5804 J26.839
G3 X17.7303 Y26.2744 I18.6597 J26.6133
G3 X17.8267 Y26.0925 I18.4349 J26.5313
G3 X19.1847 Y25.6115 I18.8532 J26.8331
G3 X19.1996 Y25.6157 I18.9883 J26.3353
G2 X20.0659 Y25.844 I23.7184 J10.2239
G0 Z3.0
G0 X26.489 Y28.1525
G0 Z-1.3
G1 F150.0 Z-2.1
G2 F250.0 X27.8452 Y28.5945 I27.6623 J26.854
G2 X29.0781 Y25.8254 I27.6623 J26.854
G2 X26.0882 Y26.0893 I27.6623 J26.854
G2 X27.42 Y25.8324 I23.7184 J10.2239
G2 X27.8337 Y25.7284 I23.7184 J10.2239
G3 X28.5898 Y26.948 I28.0261 J26.4533
G3 X28.209 Y27.3675 I16.0 J15.9
G3 X27.8096 Y27.7784 I16.0 J15.9
G3 X27.4344 Y27.9806 I27.2808 J27.2465
G3 X26.489 Y28.1525 I23.7184 J10.2239
G0 Z3.0
G0 X25.1343 Y21.555
G0 Z-1.3
G1 F150.0 Z-2.1
G2 F250.0 X24.7283 Y21.3624 I24.1875 J23.0267
G2 X22.4758 Y23.3906 I24.1875 J23.0267
G2 X25.3585 Y24.3272 I24.1875 J23.0267
G2 X25.8649 Y23.5257 I24.1875 J23.0267
G3 X24.7593 Y23.9431 I18.908 J6.7712
G3 X24.7323 Y23.9517 I24.5174 J23.2331
G3 X23.4978 Y23.2761 I24.4489 J23.0039
G3 X23.4688 Y23.0722 I24.2188 J23.0697
G3 X24.2848 Y21.8848 I24.7346 J23.068
G3 X24.2993 Y21.8795 I24.5513 J22.5859
G2 X25.1343 Y21.555 I18.908 J6.7712
G0 Z3.0
G0 X31.6876 Y19.6472
G0 Z-1.3
G1 F150.0 Z-2.1
G2 F250.0 X33.0446 Y19.2076 I31.8736 J17.9071
G2 X32.4144 Y16.2427 I31.8736 J17.9071
G2 X30.1507 Y18.2136 I31.8736 J17.9071
G2 X31.0771 Y17.223 I18.908 J6.7712
G2 X31.3507 Y16.8957 I18.908 J6.7712
G3 X32.6792 Y17.4379 I31.9324 J17.3691
G3 X32.6177 Y18.0012 I16.0 J15.9
G3 X32.5361 Y18.5683 I16.0 J15.9
G3 X32.3515 Y18.9525 I31.7957 J18.4489
G3 X31.6876 Y19.6472 I18.908 J6.7712
G0 Z3.0
G0 X26.7137 Y15.106
G0 Z-1.3
G1 F150.0 Z-2.1
G2 F250.0 X26.2721 Y15.1888 I26.8128 J16.8531
G2 X25.6419 Y18.1536 I26.8128 J16.8531
G2 X28.5246 Y17.217 I26.8128 J16.8531
G2 X28.4631 Y16.2708 I26.8128 J16.8531
G3 X27.814 Y17.2584 I12.9868 J6.8054
G3 X27.7972 Y17.2812 I27.201 J16.8262
G3 X26.4013 Y17.4603 I27.0108 J16.6811
G3 X26.2581 Y17.3124 I26.8634 J16.8695
G3 X26.2203 Y15.8722 I27.2797 J16.565
G3 X26.2289 Y15.8593 I26.848 J16.2826
G2 X26.7137 Y15.106 I12.9868 J6.8054
G0 Z3.0
G0 X30.8941 Y9.7106
G0 Z-1.3
G1 F150.0 Z-2.1
G2 F250.0 X31.7335 Y8.5573 I30.0218 J8.1935
G2 X29.481 Y6.5291 I30.0218 J8.1935
G2 X28.808 Y9.4542 I30.0218 J8.1935
G2 X28.9752 Y8.1082 I12.9868 J6.8054
G2 X29.0042 Y7.6827 I12.9868 J6.8054
G3 X30.3978 Y7.3404 I29.7531 J7.7237
G3 X30.679 Y7.8323 I16.0 J15.9
G3 X30.9464 Y8.3391 I16.0 J15.9
G3 X31.0228 Y8.7584 I30.2772 J8.6776
G3 X30.8941 Y9.7106 I12.9868 J6.8054
G0 Z3.0
G0 X24.2008 Y8.9602
G0 Z-1.3
G1 F150.0 Z-2.1
G2 F250.0 X23.8922 Y9.2869 I25.308 J10.3155
G2 X25.1251 Y12.0559 I25.308 J10.3155
G2 X26.9067 Y9.6037 I25.308 J10.3155
G2 X26.3009 Y8.8744 I25.308 J10.3155
G3 X26.3562 Y10.0548 I8.2166 J10.3134
G3 X26.356 Y10.0832 I25.6062 J10.0655
G3 X25.332 Y11.0485 I25.367 J10.0599
G3 X25.1291 Y11.0131 I25.3586 J10.299
G3 X24.2521 Y9.8701 I25.5163 J9.8079
G3 X24.2515 Y9.8547 I25.0011 J9.8333
G2 X24.2008 Y8.9602 I8.2166 J10.3134
G0 Z3.0
G0 X24.4115 Y2.1381
G0 Z-1.3
G1 F150.0 Z-2.1
G2 F250.0 X24.4128 Y0.7117 I22.8141 J1.4235
G2 X21.3983 Y0.3949 I22.8141 J1.4235
G2 X22.5732 Y3.1569 I22.8141 J1.4235
G2 X21.9173 Y1.9697 I8.2166 J10.3134
G2 X21.6906 Y1.6083 I8.2166 J10.3134
G3 X22.6168 Y0.5123 I22.3206 J1.2013
G3 X23.1335 Y0.7449 I16.0 J15.9
G3 X23.6477 Y0.9978 I16.0 J15.9
G3 X23.9559 Y1.2921 I23.3053 J1.6651
G3 X24.4115 Y2.1381 I8.2166 J10.3134
G0 Z3.0
G0 X18.5555 Y5.4653
G0 Z-1.3
G1 F150.0 Z-2.1
G2 F250.0 X18.4978 Y5.9109 I20.2478 J5.9109
G2 X21.1228 Y7.4265 I20.2478 J5.9109
G2 Y4.3954 I20.2478 J5.9109
G2 X20.204 Y4.1615 I20.2478 J5.9109
G3 X20.9426 Y5.084 I6.4194 J15.9553
G3 X20.9592 Y5.107 I20.3422 J5.5334
G3 X20.6981 Y6.4899 I20.1454 J5.6694
G3 X20.5132 Y6.5804 I20.2791 J5.8679
G3 X19.1318 Y6.1713 I20.118 J5.3778
G3 X19.1222 Y6.1592 I19.7161 J5.7012
G2 X18.5555 Y5.4653 I6.4194 J15.9553
G0 Z3.0
G0 X14.716 Y-0.1778
G0 Z-1.3
G1 F150.0 Z-2.1
G2 F250.0 X13.8786 Y-1.3325 I13.0036 J0.1831
G2 X11.2536 Y0.1831 I13.0036 J0.1831
G2 X13.8276 Y1.727 I13.0036 J0.1831
G2 X12.5991 Y1.152 I6.4194 J15.9553
G2 X12.2034 Y0.993 I6.4194 J15.9553
G3 X12.3085 Y-0.4382 I12.4738 J0.2934
G3 X12.8632 Y-0.5537 I16.0 J15.9
G3 X13.4278 Y-0.6513 I16.0 J15.9
G3 X13.8502 Y-0.5944 I13.543 J0.0898
G3 X14.716 Y-0.1778 I6.4194 J15.9553
G0 Z3.0
G0 X11.9341 Y5.956
G0 Z-1.3
G1 F150.0 Z-2.1
G2 F250.0 X12.1494 Y6.3505 I13.5651 J5.3218
G2 X15.1638 Y6.0336 I13.5651 J5.3218
G2 X13.3822 Y3.5814 I13.5651 J5.3218
G2 X12.5014 Y3.9323 I13.5651 J5.3218
G3 X13.6412 Y4.2444 I8.2816 J21.5761
G3 X13.6681 Y4.2533 I13.4196 J4.961
G3 X14.2697 Y5.5256 I13.3403 J5.1867
G3 X14.1733 Y5.7075 I13.5651 J5.2687
G3 X12.8153 Y6.1885 I13.1468 J4.9669
G3 X12.8004 Y6.1843 I13.0117 J5.4647
G2 X11.9341 Y5.956 I8.2816 J21.5761
G0 Z3.0
G0 X5.511 Y3.6475
G0 Z-1.3
G1 F150.0 Z-2.1
G2 F250.0 X4.1548 Y3.2055 I4.3377 J4.946
G2 X2.9219 Y5.9746 I4.3377 J4.946
G2 X5.9118 Y5.7107 I4.3377 J4.946
G2 X4.58 Y5.9676 I8.2816 J21.5761
G2 X4.1663 Y6.0716 I8.2816 J21.5761
G3 X3.4102 Y4.852 I3.9739 J5.3467
G3 X3.791 Y4.4325 I16.0 J15.9
G3 X4.1904 Y4.0216 I16.0 J15.9
G3 X4.5656 Y3.8194 I4.7192 J4.5535
G3 X5.511 Y3.6475 I8.2816 J21.5761
G0 Z3.0
G0 X6.8657 Y10.245
G0 Z-1.3
G1 F150.0 Z-2.1
G2 F250.0 X7.2717 Y10.4376 I7.8125 J8.7733
G2 X9.5242 Y8.4094 I7.8125 J8.7733
G2 X6.6415 Y7.4728 I7.8125 J8.7733
G2 X6.1351 Y8.2743 I7.8125 J8.7733
G3 X7.2407 Y7.8569 I13.092 J25.0288
G3 X7.2677 Y7.8483 I7.4826 J8.5669
G3 X8.5022 Y8.5239 I7.5511 J8.7961
G3 X8.5312 Y8.7278 I7.7812 J8.7303
G3 X7.7152 Y9.9152 I7.2654 J8.732
G3 X7.7007 Y9.9205 I7.4487 J9.2141
G2 X6.8657 Y10.245 I13.092 J25.0288
G0 Z3.0
G0 X0.3124 Y12.1528
G0 Z-1.3
G1 F150.0 Z-2.1
G2 F250.0 X-1.0446 Y12.5924 I0.1264 J13.8929
G2 X-0.4144 Y15.5573 I0.1264 J13.8929
G2 X1.8493 Y13.5864 I0.1264 J13.8929
G2 X0.9229 Y14.577 I13.092 J25.0288
G2 X0.6493 Y14.9043 I13.092 J25.0288
G3 X-0.6792 Y14.3621 I0.0676 J14.4309
G3 X-0.6177 Y13.7988 I16.0 J15.9
G3 X-0.5361 Y13.2317 I16.0 J15.9
G3 X-0.3515 Y12.8475 I0.2043 J13.3511
G3 X0.3124 Y12.1528 I13.092 J25.0288
G0 Z3.0
G0 X5.2863 Y16.694
G0 Z-1.3
G1 F150.0 Z-2.1
G2 F250.0 X5.7279 Y16.6112 I5.1872 J14.9469
G2 X6.3581 Y13.6464 I5.1872 J14.9469
G2 X3.4754 Y14.583 I5.1872 J14.9469
G2 X3.5369 Y15.5292 I5.1872 J14.9469
G3 X4.186 Y14.5416 I19.0132 J24.9946
G3 X4.2028 Y14.5188 I4.799 J14.9738
G3 X5.5987 Y14.3397 I4.9892 J15.1189
G3 X5.7419 Y14.4876 I5.1366 J14.9305
G3 X5.7797 Y15.9278 I4.7203 J15.235
G3 X5.7711 Y15.9407 I5.152 J15.5174
G2 X5.2863 Y16.694 I19.0132 J24.9946
G0 Z3.0
G0 X1.1059 Y22.0894
G0 Z-1.3
G1 F150.0 Z-2.1
G2 F250.0 X0.2665 Y23.2427 I1.9782 J23.6065
G2 X2.519 Y25.2709 I1.9782 J23.6065
G2 X3.192 Y22.3458 I1.9782 J23.6065
G2 X3.0248 Y23.6918 I19.0132 J24.9946
G2 X2.9958 Y24.1173 I19.0132 J24.9946
G3 X1.6022 Y24.4596 I2.2469 J24.0763
G3 X1.321 Y23.9677 I16.0 J15.9
G3 X1.0536 Y23.4609 I16.0 J15.9
G3 X0.9772 Y23.0416 I1.7228 J23.1224
G3 X1.1059 Y22.0894 I19.0132 J24.9946
G0 Z3.0
G0 X7.7992 Y22.8398
G0 Z-1.3
G1 F150.0 Z-2.1
G2 F250.0 X8.1078 Y22.5131 I6.692 J21.4845
G2 X6.8749 Y19.7441 I6.692 J21.4845
G2 X5.0933 Y22.1963 I6.692 J21.4845
G2 X5.6991 Y22.9256 I6.692 J21.4845
G3 X5.6438 Y21.7452 I23.7834 J21.4866
G3 X5.644 Y21.7168 I6.3938 J21.7345
G3 X6.668 Y20.7515 I6.633 J21.7401
G3 X6.8709 Y20.7869 I6.6414 J21.501
G3 X7.7479 Y21.9299 I6.4837 J21.9921
G3 X7.7485 Y21.9453 I6.9989 J21.9667
G2 X7.7992 Y22.8398 I23.7834 J21.4866
G0 Z3.0
G0 X7.5885 Y29.6619
G0 Z-1.3
G1 F150.0 Z-2.1
G2 F250.0 X7.5872 Y31.0883 I9.1859 J30.3765
G2 X10.6017 Y31.4051 I9.1859 J30.3765
G2 X9.4268 Y28.6431 I9.1859 J30.3765
G2 X10.0827 Y29.8303 I23.7834 J21.4866
G2 X10.3094 Y30.1917 I23.7834 J21.4866
G3 X9.3832 Y31.2877 I9.6794 J30.5987
G3 X8.8665 Y31.0551 I16.0 J15.9
G3 X8.3523 Y30.8022 I16.0 J15.9
G3 X8.0441 Y30.5079 I8.6947 J30.1349
G3 X7.5885 Y29.6619 I23.7834 J21.4866
G0 Z3.0
G0 X13.4445 Y26.3347
G0 Z-1.3
G1 F150.0 Z-2.1
G2 F250.0 X13.5022 Y25.8891 I11.7522 J25.8891
G2 X10.8772 Y24.3735 I11.7522 J25.8891
G2 Y27.4046 I11.7522 J25.8891
G2 X11.796 Y27.6385 I11.7522 J25.8891
G3 X11.0574 Y26.716 I25.5806 J15.8447
G3 X11.0408 Y26.693 I11.6578 J26.2666
G3 X11.3019 Y25.3101 I11.8546 J26.1306
G3 X11.4868 Y25.2196 I11.7209 J25.9321
G3 X12.8682 Y25.6287 I11.882 J26.4222
G3 X12.8778 Y25.6408 I12.2839 J26.0988
G2 X13.4445 Y26.3347 I25.5806 J15.8447
G0 Z3.0
G0 X17.284 Y31.9778
G0 Z-1.3
G1 F150.0 Z-2.1
G2 F250.0 X18.1214 Y33.1325 I18.9964 J31.6169
G2 X20.7464 Y31.6169 I18.9964 J31.6169
G2 X18.1724 Y30.073 I18.9964 J31.6169
G2 X19.4009 Y30.648 I25.5806 J15.8447
G2 X19.7966 Y30.807 I25.5806 J15.8447
G3 X19.6915 Y32.2382 I19.5262 J31.5066
G3 X19.1368 Y32.3537 I16.0 J15.9
G3 X18.5722 Y32.4513 I16.0 J15.9
G3 X18.1498 Y32.3944 I18.457 J31.7102
G3 X17.284 Y31.9778 I25.5806 J15.8447
G0 Z3.0
G0 X20.0659 Y25.844
G0 Z-1.6
G1 F150.0 Z-2.4
G2 F250.0 X19.8506 Y25.4495 I18.4349 J26.4782
G2 X16.8362 Y25.7664 I18.4349 J26.4782
G2 X18.6178 Y28.2186 I18.4349 J26.4782
G2 X19.4986 Y27.8677 I18.4349 J26.4782
G3 X18.3588 Y27.5556 I23.7184 J10.2239
G3 X18.3319 Y27.5467 I18.5804 J26.839
G3 X17.7303 Y26.2744 I18.6597 J26.6133
G3 X17.8267 Y26.0925 I18.4349 J26.5313
G3 X19.1847 Y25.6115 I18.8532 J26.8331
G3 X19.1996 Y25.6157 I18.9883 J26.3353
G2 X20.0659 Y25.844 I23.7184 J10.2239
G0 Z3.0
G0 X26.489 Y28.1525
G0 Z-1.6
G1 F150.0 Z-2.4
G2 F250.0 X27.8452 Y28.5945 I27.6623 J26.854
G2 X29.0781 Y25.8254 I27.6623 J26.854
G2 X26.0882 Y26.0893 I27.6623 J26.854
G2 X27.42 Y25.8324 I23.7184 J10.2239
G2 X27.8337 Y25.7284 I23.7184 J10.2239
G3 X28.5898 Y26.948 I28.0261 J26.4533
G3 X28.209 Y27.3675 I16.0 J15.9
G3 X27.8096 Y27.7784 I16.0 J15.9
G3 X27.4344 Y27.9806 I27.2808 J27.2465
G3 X26.489 Y28.1525 I23.7184 J10.2239
G0 Z3.0
G0 X25.1343 Y21.555
G0 Z-1.6
G1 F150.0 Z-2.4
G2 F250.0 X24.7283 Y21.3624 I24.1875 J23.0267
G2 X22.4758 Y23.3906 I24.1875 J23.0267
G2 X25.3585 Y24.3272 I24.1875 J23.0267
G2 X25.8649 Y23.5257 I24.1875 J23.0267
G3 X24.7593 Y23.9431 I18.908 J6.7712
G3 X24.7323 Y23.9517 I24.5174 J23.2331
G3 X23.4978 Y23.2761 I24.4489 J23.0039
G3 X23.4688 Y23.0722 I24.2188 J23.0697
G3 X24.2848 Y21.8848 I24.7346 J23.068
G3 X24.2993 Y21.8795 I24.5513 J22.5859
G2 X25.1343 Y21.555 I18.908 J6.7712
G0 Z3.0
G0 X31.6876 Y19.6472
G0 Z-1.6
G1 F150.0 Z-2.4
G2 F250.0 X33.0446 Y19.2076 I31.8736 J17.9071
G2 X32.4144 Y16.2427 I31.8736 J17.9071
G2 X30.1507 Y18.2136 I31.8736 J17.9071
G2 X31.0771 Y17.223 I18.908 J6.7712
G2 X31.3507 Y16.8957 I18.908 J6.7712
G3 X32.6792 Y17.4379 I31.9324 J17.3691
G3 X32.6177 Y18.0012 I16.0 J15.9
G3 X32.5361 Y18.5683 I16.0 J15.9
G3 X32.3515 Y18.9525 I31.7957 J18.4489
G3 X31.6876 Y19.6472 I18.908 J6.7712
G0 Z3.0
G0 X26.7137 Y15.106
G0 Z-1.6
G1 F150.0 Z-2.4
G2 F250.0 X26.2721 Y15.1888 I26.8128 J16.8531
G2 X25.6419 Y18.1536 I26.8128 J16.8531
G2 X28.5246 Y17.217 I26.8128 J16.8531
G2 X28.4631 Y16.2708 I26.8128 J16.8531
G3 X27.814 Y17.2584 I12.9868 J6.8054
G3 X27.7972 Y17.2812 I27.201 J16.8262
G3 X26.4013 Y17.4603 I27.0108 J16.6811
G3 X26.2581 Y17.3124 I26.8634 J16.8695
G3 X26.2203 Y15.8722 I27.2797 J16.565
G3 X26.2289 Y15.8593 I26.848 J16.2826
G2 X26.7137 Y15.106 I12.9868 J6.8054
G0 Z3.0
G0 X30.8941 Y9.7106
G0 Z-1.6
G1 F150.0 Z-2.4
G2 F250.0 X31.7335 Y8.5573 I30.0218 J8.1935
G2 X29.481 Y6.5291 I30.0218 J8.1935
G2 X28.808 Y9.4542 I30.0218 J8.1935
G2 X28.9752 Y8.1082 I12.9868 J6.8054
G2 X29.0042 Y7.6827 I12.9868 J6.8054
G3 X30.3978 Y7.3404 I29.7531 J7.7237
G3 X30.679 Y7.8323 I16.0 J15.9
G3 X30.9464 Y8.3391 I16.0 J15.9
G3 X31.0228 Y8.7584 I30.2772 J8.6776
G3 X30.8941 Y9.7106 I12.9868 J6.8054
G0 Z3.0
G0 X24.2008 Y8.9602
G0 Z-1.6
G1 F150.0 Z-2.4
G2 F250.0 X23.8922 Y9.2869 I25.308 J10.3155
G2 X25.1251 Y12.0559 I25.308 J10.3155
G2 X26.9067 Y9.6037 I25.308 J10.3155
G2 X26.3009 Y8.8744 I25.308 J10.3155
G3 X26.3562 Y10.0548 I8.2166 J10.3134
G3 X26.356 Y10.0832 I25.6062 J10.0655
G3 X25.332 Y11.0485 I25.367 J10.0599
G3 X25.1291 Y11.0131 I25.3586 J10.299
G3 X24.2521 Y9.8701 I25.5163 J9.8079
G3 X24.2515 Y9.8547 I25.0011 J9.8333
G2 X24.2008 Y8.9602 I8.2166 J10.3134
G0 Z3.0
G0 X24.4115 Y2.1381
G0 Z-1.6
G1 F150.0 Z-2.4
G2 F250.0 X24.4128 Y0.7117 I22.8141 J1.4235
G2 X21.3983 Y0.3949 I22.8141 J1.4235
G2 X22.5732 Y3.1569 I22.8141 J1.4235
G2 X21.9173 Y1.9697 I8.2166 J10.3134
G2 X21.6906 Y1.6083 I8.2166 J10.3134
G3 X22.6168 Y0.5123 I22.3206 J1.2013
G3 X23.1335 Y0.7449 I16.0 J15.9
G3 X23.6477 Y0.9978 I16.0 J15.9
G3 X23.9559 Y1.2921 I23.3053 J1.6651
G3 X24.4115 Y2.1381 I8.2166 J10.3134
G0 Z3.0
G0 X18.5555 Y5.4653
G0 Z-1.6
G1 F150.0 Z-2.4
G2 F250.0 X18.4978 Y5.9109 I20.2478 J5.9109
G2 X21.1228 Y7.4265 I20.2478 J5.9109
G2 Y4.3954 I20.2478 J5.9109
G2 X20.204 Y4.1615 I20.2478 J5.9109
G3 X20.9426 Y5.084 I6.4194 J15.9553
G3 X20.9592 Y5.107 I20.3422 J5.5334
G3 X20.6981 Y6.4899 I20.1454 J5.6694
G3 X20.5132 Y6.5804 I20.2791 J5.8679
G3 X19.1318 Y6.1713 I20.118 J5.3778
G3 X19.1222 Y6.1592 I19.7161 J5.7012
G2 X18.5555 Y5.4653 I6.4194 J15.9553
G0 Z3.0
G0 X14.716 Y-0.1778
G0 Z-1.6
G1 F150.0 Z-2.4
G2 F250.0 X13.8786 Y-1.3325 I13.0036 J0.1831
G2 X11.2536 Y0.1831 I13.0036 J0.1831
G2 X13.8276 Y1.727 I13.0036 J0.1831
G2 X12.5991 Y1.152 I6.4194 J15.9553
G2 X12.2034 Y0.993 I6.4194 J15.9553
G3 X12.3085 Y-0.4382 I12.4738 J0.2934
G3 X12.8632 Y-0.5537 I16.0 J15.9
G3 X13.4278 Y-0.6513 I16.0 J15.9
G3 X13.8502 Y-0.5944 I13.543 J0.0898
G3 X14.716 Y-0.1778 I6.4194 J15.9553
G0 Z3.0
G0 X11.9341 Y5.956
G0 Z-1.6
G1 F150.0 Z-2.4
G2 F250.0 X12.1494 Y6.3505 I13.5651 J5.3218
G2 X15.1638 Y6.0336 I13.5651 J5.3218
G2 X13.3822 Y3.5814 I13.5651 J5.3218
G2 X12.5014 Y3.9323 I13.5651 J5.3218
G3 X13.6412 Y4.2444 I8.2816 J21.5761
G3 X13.6681 Y4.2533 I13.4196 J4.961
G3 X14.2697 Y5.5256 I13.3403 J5.1867
G3 X14.1733 Y5.7075 I13.5651 J5.2687
G3 X12.8153 Y6.1885 I13.1468 J4.9669
G3 X12.8004 Y6.1843 I13.0117 J5.4647
G2 X11.9341 Y5.956 I8.2816 J21.5761
G0 Z3.0
G0 X5.511 Y3.6475
G0 Z-1.6
G1 F150.0 Z-2.4
G2 F250.0 X4.1548 Y3.2055 I4.3377 J4.946
G2 X2.9219 Y5.9746 I4.3377 J4.946
G2 X5.9118 Y5.7107 I4.3377 J4.946
G2 X4.58 Y5.9676 I8.2816 J21.5761
G2 X4.1663 Y6.0716 I8.2816 J21.5761
G3 X3.4102 Y4.852 I3.9739 J5.3467
G3 X3.791 Y4.4325 I16.0 J15.9
G3 X4.1904 Y4.0216 I16.0 J15.9
G3 X4.5656 Y3.8194 I4.7192 J4.5535
G3 X5.511 Y3.6475 I8.2816 J21.5761
G0 Z3.0
G0 X6.8657 Y10.245
G0 Z-1.6
G1 F150.0 Z-2.4
G2 F250.0 X7.2717 Y10.4376 I7.8125 J8.7733
G2 X9.5242 Y8.4094 I7.8125 J8.7733
G2 X6.6415 Y7.4728 I7.8125 J8.7733
G2 X6.1351 Y8.2743 I7.8125 J8.7733
G3 X7.2407 Y7.8569 I13.092 J25.0288
G3 X7.2677 Y7.8483 I7.4826 J8.5669
G3 X8.5022 Y8.5239 I7.5511 J8.7961
G3 X8.5312 Y8.7278 I7.7812 J8.7303
G3 X7.7152 Y9.9152 I7.2654 J8.732
G3 X7.7007 Y9.9205 I7.4487 J9.2141
G2 X6.8657 Y10.245 I13.092 J25.0288
G0 Z3.0
G0 X0.3124 Y12.1528
G0 Z-1.6
G1 F150.0 Z-2.4
G2 F250.0 X-1.0446 Y12.5924 I0.1264 J13.8929
G2 X-0.4144 Y15.5573 I0.1264 J13.8929
G2 X1.8493 Y13.5864 I0.1264 J13.8929
G2 X0.9229 Y14.577 I13.092 J25.0288
G2 X0.6493 Y14.9043 I13.092 J25.0288
G3 X-0.6792 Y14.3621 I0.0676 J14.4309
G3 X-0.6177 Y13.7988 I16.0 J15.9
G3 X-0.5361 Y13.2317 I16.0 J15.9
G3 X-0.3515 Y12.8475 I0.2043 J13.3511
G3 X0.3124 Y12.1528 I13.092 J25.0288
G0 Z3.0
G0 X5.2863 Y16.694
G0 Z-1.6
G1 F150.0 Z-2.4
G2 F250.0 X5.7279 Y16.6112 I5.1872 J14.9469
G2 X6.3581 Y13.6464 I5.1872 J14.9469
G2 X3.4754 Y14.583 I5.1872 J14.9469
G2 X3.5369 Y15.5292 I5.1872 J14.9469
G3 X4.186 Y14.5416 I19.0132 J24.9946
G3 X4.2028 Y14.5188 I4.799 J14.9738
G3 X5.5987 Y14.3397 I4.9892 J15.1189
G3 X5.7419 Y14.4876 I5.1366 J14.9305
G3 X5.7797 Y15.9278 I4.7203 J15.235
G3 X5.7711 Y15.9407 I5.152 J15.5174
G2 X5.2863 Y16.694 I19.0132 J24.9946
G0 Z3.0
G0 X1.1059 Y22.0894
G0 Z-1.6
G1 F150.0 Z-2.4
G2 F250.0 X0.2665 Y23.2427 I1.9782 J23.6065
G2 X2.519 Y25.2709 I1.9782 J23.6065
G2 X3.192 Y22.3458 I1.9782 J23.6065
G2 X3.0248 Y23.6918 I19.0132 J24.9946
G2 X2.9958 Y24.1173 I19.0132 J24.9946
G3 X1.6022 Y24.4596 I2.2469 J24.0763
G3 X1.321 Y23.9677 I16.0 J15.9
G3 X1.0536 Y23.4609 I16.0 J15.9
G3 X0.9772 Y23.0416 I1.7228 J23.1224
G3 X1.1059 Y22.0894 I19.0132 J24.9946
G0 Z3.0
G0 X7.7992 Y22.8398
G0 Z-1.6
G1 F150.0 Z-2.4
G2 F250.0 X8.1078 Y22.5131 I6.692 J21.4845
G2 X6.8749 Y19.7441 I6.692 J21.4845
G2 X5.0933 Y22.1963 I6.692 J21.4845
G2 X5.6991 Y22.9256 I6.692 J21.4845
G3 X5.6438 Y21.7452 I23.7834 J21.4866
G3 X5.644 Y21.7168 I6.3938 J21.7345
G3 X6.668 Y20.7515 I6.633 J21.7401
G3 X6.8709 Y20.7869 I6.6414 J21.501
G3 X7.7479 Y21.9299 I6.4837 J21.9921
G3 X7.7485 Y21.9453 I6.9989 J21.9667
G2 X7.7992 Y22.8398 I23.7834 J21.4866
G0 Z3.0
G0 X7.5885 Y29.6619
G0 Z-1.6
G1 F150.0 Z-2.4
G2 F250.0 X7.5872 Y31.0883 I9.1859 J30.3765
G2 X10.6017 Y31.4051 I9.1859 J30.3765
G2 X9.4268 Y28.6431 I9.1859 J30.3765
G2 X10.0827 Y29.8303 I23.7834 J21.4866
G2 X10.3094 Y30.1917 I23.7834 J21.4866
G3 X9.3832 Y31.2877 I9.6794 J30.5987
G3 X8.8665 Y31.0551 I16.0 J15.9
G3 X8.3523 Y30.8022 I16.0 J15.9
G3 X8.0441 Y30.5079 I8.6947 J30.1349
G3 X7.5885 Y29.6619 I23.7834 J21.4866
G0 Z3.0
G0 X13.4445 Y26.3347
G0 Z-1.6
G1 F150.0 Z-2.4
G2 F250.0 X13.5022 Y25.8891 I11.7522 J25.8891
G2 X10.8772 Y24.3735 I11.7522 J25.8891
G2 Y27.4046 I11.7522 J25.8891
G2 X11.796 Y27.6385 I11.7522 J25.8891
G3 X11.0574 Y26.716 I25.5806 J15.8447
G3 X11.0408 Y26.693 I11.6578 J26.2666
G3 X11.3019 Y25.3101 I11.8546 J26.1306
G3 X11.4868 Y25.2196 I11.7209 J25.9321
G3 X12.8682 Y25.6287 I11.882 J26.4222
G3 X12.8778 Y25.6408 I12.2839 J26.0988
G2 X13.4445 Y26.3347 I25.5806 J15.8447
G0 Z3.0
G0 X17.284 Y31.9778
G0 Z-1.6
G1 F150.0 Z-2.4
G2 F250.0 X18.1214 Y33.1325 I18.9964 J31.6169
G2 X20.7464 Y31.6169 I18.9964 J31.6169
G2 X18.1724 Y30.073 I18.9964 J31.6169
G2 X19.4009 Y30.648 I25.5806 J15.8447
G2 X19.7966 Y30.807 I25.5806 J15.8447
G3 X19.6915 Y32.2382 I19.5262 J31.5066
G3 X19.1368 Y32.3537 I16.0 J15.9
G3 X18.5722 Y32.4513 I16.0 J15.9
G3 X18.1498 Y32.3944 I18.457 J31.7102
G3 X17.284 Y31.9778 I25.5806 J15.8447
G0 Z3.0
G0 X20.0659 Y25.844
G0 Z-1.9
G1 F150.0 Z-2.7
G2 F250.0 X19.8506 Y25.4495 I18.4349 J26.4782
G2 X16.8362 Y25.7664 I18.4349 J26.4782
G2 X18.6178 Y28.2186 I18.4349 J26.4782
G2 X19.4986 Y27.8677 I18.4349 J26.4782
G3 X18.3588 Y27.5556 I23.7184 J10.2239
G3 X18.3319 Y27.5467 I18.5804 J26.839
G3 X17.7303 Y26.2744 I18.6597 J26.6133
G3 X17.8267 Y26.0925 I18.4349 J26.5313
G3 X19.1847 Y25.6115 I18.8532 J26.8331
G3 X19.1996 Y25.6157 I18.9883 J26.3353
G2 X20.0659 Y25.844 I23.7184 J10.2239
G0 Z3.0
G0 X26.489 Y28.1525
G0 Z-1.9
G1 F150.0 Z-2.7
G2 F250.0 X27.8452 Y28.5945 I27.6623 J26.854
G2 X29.0781 Y25.8254 I27.6623 J26.854
G2 X26.0882 Y26.0893 I27.6623 J26.854
G2 X27.42 Y25.8324 I23.7184 J10.2239
G2 X27.8337 Y25.7284 I23.7184 J10.2239
G3 X28.5898 Y26.948 I28.0261 J26.4533
G3 X28.209 Y27.3675 I16.0 J15.9
G3 X27.8096 Y27.7784 I16.0 J15.9
G3 X27.4344 Y27.9806 I27.2808 J27.2465
G3 X26.489 Y28.1525 I23.7184 J10.2239
G0 Z3.0
G0 X25.1343 Y21.555
G0 Z-1.9
G1 F150.0 Z-2.7
G2 F250.0 X24.7283 Y21.3624 I24.1875 J23.0267
G2 X22.4758 Y23.3906 I24.1875 J23.0267
G2 X25.3585 Y24.3272 I24.1875 J23.0267
G2 X25.8649 Y23.5257 I24.1875 J23.0267
G3 X24.7593 Y23.9431 I18.908 J6.7712
G3 X24.7323 Y23.9517 I24.5174 J23.2331
G3 X23.4978 Y23.2761 I24.4489 J23.0039
G3 X23.4688 Y23.0722 I24.2188 J23.0697
G3 X24.2848 Y21.8848 I24.7346 J23.068
G3 X24.2993 Y21.8795 I24.5513 J22.5859
G2 X25.1343 Y21.555 I18.908 J6.7712
G0 Z3.0
G0 X31.6876 Y19.6472
G0 Z-1.9
G1 F150.0 Z-2.7
G2 F250.0 X33.0446 Y19.2076 I31.8736 J17.9071
G2 X32.4144 Y16.2427 I31.8736 J17.9071
G2 X30.1507 Y18.2136 I31.8736 J17.9071
G2 X31.0771 Y17.223 I18.908 J6.7712
G2 X31.3507 Y16.8957 I18.908 J6.7712
G3 X32.6792 Y17.4379 I31.9324 J17.3691
G3 X32.6177 Y18.0012 I16.0 J15.9
G3 X32.5361 Y18.5683 I16.0 J15.9
G3 X32.3515 Y18.9525 I31.7957 J18.4489
G3 X31.6876 Y19.6472 I18.908 J6.7712
G0 Z3.0
G0 X26.7137 Y15.106
G0 Z-1.9
G1 F150.0 Z-2.7
G2 F250.0 X26.2721 Y15.1888 I26.8128 J16.8531
G2 X25.6419 Y18.1536 I26.8128 J16.8531
G2 X28.5246 Y17.217 I26.8128 J16.8531
G2 X28.4631 Y16.2708 I26.8128 J16.8531
G3 X27.814 Y17.2584 I12.9868 J6.8054
G3 X27.7972 Y17.2812 I27.201 J16.8262
G3 X26.4013 Y17.4603 I27.0108 J16.6811
G3 X26.2581 Y17.3124 I26.8634 J16.8695
G3 X26.2203 Y15.8722 I27.2797 J16.565
G3 X26.2289 Y15.8593 I26.848 J16.2826
G2 X26.7137 Y15.106 I12.9868 J6.8054
G0 Z3.0
G0 X30.8941 Y9.7106
G0 Z-1.9
G1 F150.0 Z-2.7
G2 F250.0 X31.7335 Y8.5573 I30.0218 J8.1935
G2 X29.481 Y6.5291 I30.0218 J8.1935
G2 X28.808 Y9.4542 I30.0218 J8.1935
G2 X28.9752 Y8.1082 I12.9868 J6.8054
G2 X29.0042 Y7.6827 I12.9868 J6.8054
G3 X30.3978 Y7.3404 I29.7531 J7.7237
G3 X30.679 Y7.8323 I16.0 J15.9
G3 X30.9464 Y8.3391 I16.0 J15.9
G3 X31.0228 Y8.7584 I30.2772 J8.6776
G3 X30.8941 Y9.7106 I12.9868 J6.8054
G0 Z3.0
G0 X24.2008 Y8.9602
G0 Z-1.9
G1 F150.0 Z-2.7
G2 F250.0 X23.8922 Y9.2869 I25.308 J10.3155
G2 X25.1251 Y12.0559 I25.308 J10.3155
G2 X26.9067 Y9.6037 I25.308 J10.3155
G2 X26.3009 Y8.8744 I25.308 J10.3155
G3 X26.3562 Y10.0548 I8.2166 J10.3134
G3 X26.356 Y10.0832 I25.6062 J10.0655
G3 X25.332 Y11.0485 I25.367 J10.0599
G3 X25.1291 Y11.0131 I25.3586 J10.299
G3 X24.2521 Y9.8701 I25.5163 J9.8079
G3 X24.2515 Y9.8547 I25.0011 J9.8333
G2 X24.2008 Y8.9602 I8.2166 J10.3134
G0 Z3.0
G0 X24.4115 Y2.1381
G0 Z-1.9
G1 F150.0 Z-2.7
G2 F250.0 X24.4128 Y0.7117 I22.8141 J1.4235
G2 X21.3983 Y0.3949 I22.8141 J1.4235
G2 X22.5732 Y3.1569 I22.8141 J1.4235
G2 X21.9173 Y1.9697 I8.2166 J10.3134
G2 X21.6906 Y1.6083 I8.2166 J10.3134
G3 X22.6168 Y0.5123 I22.3206 J1.2013
G3 X23.1335 Y0.7449 I16.0 J15.9
G3 X23.6477 Y0.9978 I16.0 J15.9
G3 X23.9559 Y1.2921 I23.3053 J1.6651
G3 X24.4115 Y2.1381 I8.2166 J10.3134
G0 Z3.0
G0 X18.5555 Y5.4653
G0 Z-1.9
G1 F150.0 Z-2.7
G2 F250.0 X18.4978 Y5.9109 I20.2478 J5.9109
G2 X21.1228 Y7.4265 I20.2478 J5.9109
G2 Y4.3954 I20.2478 J5.9109
G2 X20.204 Y4.1615 I20.2478 J5.9109
G3 X20.9426 Y5.084 I6.4194 J15.9553
G3 X20.9592 Y5.107 I20.3422 J5.5334
G3 X20.6981 Y6.4899 I20.1454 J5.6694
G3 X20.5132 Y6.5804 I20.2791 J5.8679
G3 X19.1318 Y6.1713 I20.118 J5.3778
G3 X19.1222 Y6.1592 I19.7161 J5.7012
G2 X18.5555 Y5.4653 I6.4194 J15.9553
G0 Z3.0
G0 X14.716 Y-0.1778
G0 Z-1.9
G1 F150.0 Z-2.7
G2 F250.0 X13.8786 Y-1.3325 I13.0036 J0.1831
G2 X11.2536 Y0.1831 I13.0036 J0.1831
G2 X13.8276 Y1.727 I13.0036 J0.1831
G2 X12.5991 Y1.152 I6.4194 J15.9553
G2 X12.2034 Y0.993 I6.4194 J15.9553
G3 X12.3085 Y-0.4382 I12.4738 J0.2934
G3 X12.8632 Y-0.5537 I16.0 J15.9
G3 X13.4278 Y-0.6513 I16.0 J15.9
G3 X13.8502 Y-0.5944 I13.543 J0.0898
G3 X14.716 Y-0.1778 I6.4194 J15.9553
G0 Z3.0
G0 X11.9341 Y5.956
G0 Z-1.9
G1 F150.0 Z-2.7
G2 F250.0 X12.1494 Y6.3505 I13.5651 J5.3218
G2 X15.1638 Y6.0336 I13.5651 J5.3218
G2 X13.3822 Y3.5814 I13.5651 J5.3218
G2 X12.5014 Y3.9323 I13.5651 J5.3218
G3 X13.6412 Y4.2444 I8.2816 J21.5761
G3 X13.6681 Y4.2533 I13.4196 J4.961
G3 X14.2697 Y5.5256 I13.3403 J5.1867
G3 X14.1733 Y5.7075 I13.5651 J5.2687
G3 X12.8153 Y6.1885 I13.1468 J4.9669
G3 X12.8004 Y6.1843 I13.0117 J5.4647
G2 X11.9341 Y5.956 I8.2816 J21.5761
G0 Z3.0
G0 X5.511 Y3.6475
G0 Z-1.9
G1 F150.0 Z-2.7
G2 F250.0 X4.1548 Y3.2055 I4.3377 J4.946
G2 X2.9219 Y5.9746 I4.3377 J4.946
G2 X5.9118 Y5.7107 I4.3377 J4.946
G2 X4.58 Y5.9676 I8.2816 J21.5761
G2 X4.1663 Y6.0716 I8.2816 J21.5761
G3 X3.4102 Y4.852 I3.9739 J5.3467
G3 X3.791 Y4.4325 I16.0 J15.9
G3 X4.1904 Y4.0216 I16.0 J15.9
G3 X4.5656 Y3.8194 I4.7192 J4.5535
G3 X5.511 Y3.6475 I8.2816 J21.5761
G0 Z3.0
G0 X6.8657 Y10.245
G0 Z-1.9
G1 F150.0 Z-2.7
G2 F250.0 X7.2717 Y10.4376 I7.8125 J8.7733
G2 X9.5242 Y8.4094 I7.8125 J8.7733
G2 X6.6415 Y7.4728 I7.8125 J8.7733
G2 X6.1351 Y8.2743 I7.8125 J8.7733
G3 X7.2407 Y7.8569 I13.092 J25.0288
G3 X7.2677 Y7.8483 I7.4826 J8.5669
G3 X8.5022 Y8.5239 I7.5511 J8.7961
G3 X8.5312 Y8.7278 I7.7812 J8.7303
G3 X7.7152 Y9.9152 I7.2654 J8.732
G3 X7.7007 Y9.9205 I7.4487 J9.2141
G2 X6.8657 Y10.245 I13.092 J25.0288
G0 Z3.0
G0 X0.3124 Y12.1528
G0 Z-1.9
G1 F150.0 Z-2.7
G2 F250.0 X-1.0446 Y12.5924 I0.1264 J13.8929
G2 X-0.4144 Y15.5573 I0.1264 J13.8929
G2 X1.8493 Y13.5864 I0.1264 J13.8929
G2 X0.9229 Y14.577 I13.092 J25.0288
G2 X0.6493 Y14.9043 I13.092 J25.0288
G3 X-0.6792 Y14.3621 I0.0676 J14.4309
G3 X-0.6177 Y13.7988 I16.0 J15.9
G3 X-0.5361 Y13.2317 I16.0 J15.9
G3 X-0.3515 Y12.8475 I0.2043 J13.3511
G3 X0.3124 Y12.1528 I13.092 J25.0288
G0 Z3.0
G0 X5.2863 Y16.694
G0 Z-1.9
G1 F150.0 Z-2.7
G2 F250.0 X5.7279 Y16.6112 I5.1872 J14.9469
G2 X6.3581 Y13.6464 I5.1872 J14.9469
G2 X3.4754 Y14.583 I5.1872 J14.9469
G2 X3.5369 Y15.5292 I5.1872 J14.9469
G3 X4.186 Y14.5416 I19.0132 J24.9946
G3 X4.2028 Y14.5188 I4.799 J14.9738
G3 X5.5987 Y14.3397 I4.9892 J15.1189
G3 X5.7419 Y14.4876 I5.1366 J14.9305
G3 X5.7797 Y15.9278 I4.7203 J15.235
G3 X5.7711 Y15.9407 I5.152 J15.5174
G2 X5.2863 Y16.694 I19.0132 J24.9946
G0 Z3.0
G0 X1.1059 Y22.0894
G0 Z-1.9
G1 F150.0 Z-2.7
G2 F250.0 X0.2665 Y23.2427 I1.9782 J23.6065
G2 X2.519 Y25.2709 I1.9782 J23.6065
G2 X3.192 Y22.3458 I1.9782 J23.6065
G2 X3.0248 Y23.6918 I19.0132 J24.9946
G2 X2.9958 Y24.1173 I19.0132 J24.9946
G3 X1.6022 Y24.4596 I2.2469 J24.0763
G3 X1.321 Y23.9677 I16.0 J15.9
G3 X1.0536 Y23.4609 I16.0 J15.9
G3 X0.9772 Y23.0416 I1.7228 J23.1224
G3 X1.1059 Y22.0894 I19.0132 J24.9946
G0 Z3.0
G0 X7.7992 Y22.8398
G0 Z-1.9
G1 F150.0 Z-2.7
G2 F250.0 X8.1078 Y22.5131 I6.692 J21.4845
G2 X6.8749 Y19.7441 I6.692 J21.4845
G2 X5.0933 Y22.1963 I6.692 J21.4845
G2 X5.6991 Y22.9256 I6.692 J21.4845
G3 X5.6438 Y21.7452 I23.7834 J21.4866
G3 X5.644 Y21.7168 I6.3938 J21.7345
G3 X6.668 Y20.7515 I6.633 J21.7401
G3 X6.8709 Y20.7869 I6.6414 J21.501
G3 X7.7479 Y21.9299 I6.4837 J21.9921
G3 X7.7485 Y21.9453 I6.9989 J21.9667
G2 X7.7992 Y22.8398 I23.7834 J21.4866
G0 Z3.0
G0 X7.5885 Y29.6619
G0 Z-1.9
G1 F150.0 Z-2.7
G2 F250.0 X7.5872 Y31.0883 I9.1859 J30.3765
G2 X10.6017 Y31.4051 I9.1859 J30.3765
G2 X9.4268 Y28.6431 I9.1859 J30.3765
G2 X10.0827 Y29.8303 I23.7834 J21.4866
G2 X10.3094 Y30.1917 I23.7834 J21.4866
G3 X9.3832 Y31.2877 I9.6794 J30.5987
G3 X8.8665 Y31.0551 I16.0 J15.9
G3 X8.3523 Y30.8022 I16.0 J15.9
G3 X8.0441 Y30.5079 I8.6947 J30.1349
G3 X7.5885 Y29.6619 I23.7834 J21.4866
G0 Z3.0
G0 X13.4445 Y26.3347
G0 Z-1.9
G1 F150.0 Z-2.7
G2 F250.0 X13.5022 Y25.8891 I11.7522 J25.8891
G2 X10.8772 Y24.3735 I11.7522 J25.8891
G2 Y27.4046 I11.7522 J25.8891
G2 X11.796 Y27.6385 I11.7522 J25.8891
G3 X11.0574 Y26.716 I25.5806 J15.8447
G3 X11.0408 Y26.693 I11.6578 J26.2666
G3 X11.3019 Y25.3101 I11.8546 J26.1306
G3 X11.4868 Y25.2196 I11.7209 J25.9321
G3 X12.8682 Y25.6287 I11.882 J26.4222
G3 X12.8778 Y25.6408 I12.2839 J26.0988
G2 X13.4445 Y26.3347 I25.5806 J15.8447
G0 Z3.0
G0 X17.284 Y31.9778
G0 Z-1.9
G1 F150.0 Z-2.7
G2 F250.0 X18.1214 Y33.1325 I18.9964 J31.6169
G2 X20.7464 Y31.6169 I18.9964 J31.6169
G2 X18.1724 Y30.073 I18.9964 J31.6169
G2 X19.4009 Y30.648 I25.5806 J15.8447
G2 X19.7966 Y30.807 I25.5806 J15.8447
G3 X19.6915 Y32.2382 I19.5262 J31.5066
G3 X19.1368 Y32.3537 I16.0 J15.9
G3 X18.5722 Y32.4513 I16.0 J15.9
G3 X18.1498 Y32.3944 I18.457 J31.7102
G3 X17.284 Y31.9778 I25.5806 J15.8447
G0 Z3.0
G0 X20.0659 Y25.844
G0 Z-2.2
G1 F150.0 Z-3.0
G2 F250.0 X19.8506 Y25.4495 I18.4349 J26.4782
G2 X16.8362 Y25.7664 I18.4349 J26.4782
G2 X18.6178 Y28.2186 I18.4349 J26.4782
G2 X19.4986 Y27.8677 I18.4349 J26.4782
G3 X18.3588 Y27.5556 I23.7184 J10.2239
G3 X18.3319 Y27.5467 I18.5804 J26.839
G3 X17.7303 Y26.2744 I18.6597 J26.6133
G3 X17.8267 Y26.0925 I18.4349 J26.5313
G3 X19.1847 Y25.6115 I18.8532 J26.8331
G3 X19.1996 Y25.6157 I18.9883 J26.3353
G2 X20.0659 Y25.844 I23.7184 J10.2239
G0 Z3.0
G0 X26.489 Y28.1525
G0 Z-2.2
G1 F150.0 Z-3.0
G2 F250.0 X27.8452 Y28.5945 I27.6623 J26.854
G2 X29.0781 Y25.8254 I27.6623 J26.854
G2 X26.0882 Y26.0893 I27.6623 J26.854
G2 X27.42 Y25.8324 I23.7184 J10.2239
G2 X27.8337 Y25.7284 I23.7184 J10.2239
G3 X28.5898 Y26.948 I28.0261 J26.4533
G3 X28.209 Y27.3675 I16.0 J15.9
G3 X27.8096 Y27.7784 I16.0 J15.9
G3 X27.4344 Y27.9806 I27.2808 J27.2465
G3 X26.489 Y28.1525 I23.7184 J10.2239
G0 Z3.0
G0 X25.1343 Y21.555
G0 Z-2.2
G1 F150.0 Z-3.0
G2 F250.0 X24.7283 Y21.3624 I24.1875 J23.0267
G2 X22.4758 Y23.3906 I24.1875 J23.0267
G2 X25.3585 Y24.3272 I24.1875 J23.0267
G2 X25.8649 Y23.5257 I24.1875 J23.0267
G3 X24.7593 Y23.9431 I18.908 J6.7712
G3 X24.7323 Y23.9517 I24.5174 J23.2331
G3 X23.4978 Y23.2761 I24.4489 J23.0039
G3 X23.4688 Y23.0722 I24.2188 J23.0697
G3 X24.2848 Y21.8848 I24.7346 J23.068
G3 X24.2993 Y21.8795 I24.5513 J22.5859
G2 X25.1343 Y21.555 I18.908 J6.7712
G0 Z3.0
G0 X31.6876 Y19.6472
G0 Z-2.2
G1 F150.0 Z-3.0
G2 F250.0 X33.0446 Y19.2076 I31.8736 J17.9071
G2 X32.4144 Y16.2427 I31.8736 J17.9071
G2 X30.1507 Y18.2136 I31.8736 J17.9071
G2 X31.0771 Y17.223 I18.908 J6.7712
G2 X31.3507 Y16.8957 I18.908 J6.7712
G3 X32.6792 Y17.4379 I31.9324 J17.3691
G3 X32.6177 Y18.0012 I16.0 J15.9
G3 X32.5361 Y18.5683 I16.0 J15.9
G3 X32.3515 Y18.9525 I31.7957 J18.4489
G3 X31.6876 Y19.6472 I18.908 J6.7712
G0 Z3.0
G0 X26.7137 Y15.106
G0 Z-2.2
G1 F150.0 Z-3.0
G2 F250.0 X26.2721 Y15.1888 I26.8128 J16.8531
G2 X25.6419 Y18.1536 I26.8128 J16.8531
G2 X28.5246 Y17.217 I26.8128 J16.8531
G2 X28.4631 Y16.2708 I26.8128 J16.8531
G3 X27.814 Y17.2584 I12.9868 J6.8054
G3 X27.7972 Y17.2812 I27.201 J16.8262
G3 X26.4013 Y17.4603 I27.0108 J16.6811
G3 X26.2581 Y17.3124 I26.8634 J16.8695
G3 X26.2203 Y15.8722 I27.2797 J16.565
G3 X26.2289 Y15.8593 I26.848 J16.2826
G2 X26.7137 Y15.106 I12.9868 J6.8054
G0 Z3.0
G0 X30.8941 Y9.7106
G0 Z-2.2
G1 F150.0 Z-3.0
G2 F250.0 X31.7335 Y8.5573 I30.0218 J8.1935
G2 X29.481 Y6.5291 I30.0218 J8.1935
G2 X28.808 Y9.4542 I30.0218 J8.1935
G2 X28.9752 Y8.1082 I12.9868 J6.8054
G2 X29.0042 Y7.6827 I12.9868 J6.8054
G3 X30.3978 Y7.3404 I29.7531 J7.7237
G3 X30.679 Y7.8323 I16.0 J15.9
G3 X30.9464 Y8.3391 I16.0 J15.9
G3 X31.0228 Y8.7584 I30.2772 J8.6776
G3 X30.8941 Y9.7106 I12.9868 J6.8054
G0 Z3.0
G0 X24.2008 Y8.9602
G0 Z-2.2
G1 F150.0 Z-3.0
G2 F250.0 X23.8922 Y9.2869 I25.308 J10.3155
G2 X25.1251 Y12.0559 I25.308 J10.3155
G2 X26.9067 Y9.6037 I25.308 J10.3155
G2 X26.3009 Y8.8744 I25.308 J10.3155
G3 X26.3562 Y10.0548 I8.2166 J10.3134
G3 X26.356 Y10.0832 I25.6062 J10.0655
G3 X25.332 Y11.0485 I25.367 J10.0599
G3 X25.1291 Y11.0131 I25.3586 J10.299
G3 X24.2521 Y9.8701 I25.5163 J9.8079
G3 X24.2515 Y9.8547 I25.0011 J9.8333
G2 X24.2008 Y8.9602 I8.2166 J10.3134
G0 Z3.0
G0 X24.4115 Y2.1381
G0 Z-2.2
G1 F150.0 Z-3.0
G2 F250.0 X24.4128 Y0.7117 I22.8141 J1.4235
G2 X21.3983 Y0.3949 I22.8141 J1.4235
G2 X22.5732 Y3.1569 I22.8141 J1.4235
G2 X21.9173 Y1.9697 I8.2166 J10.3134
G2 X21.6906 Y1.6083 I8.2166 J10.3134
G3 X22.6168 Y0.5123 I22.3206 J1.2013
G3 X23.1335 Y0.7449 I16.0 J15.9
G3 X23.6477 Y0.9978 I16.0 J15.9
G3 X23.9559 Y1.2921 I23.3053 J1.6651
G3 X24.4115 Y2.1381 I8.2166 J10.3134
G0 Z3.0
G0 X18.5555 Y5.4653
G0 Z-2.2
G1 F150.0 Z-3.0
G2 F250.0 X18.4978 Y5.9109 I20.2478 J5.9109
G2 X21.1228 Y7.4265 I20.2478 J5.9109
G2 Y4.3954 I20.2478 J5.9109
G2 X20.204 Y4.1615 I20.2478 J5.9109
G3 X20.9426 Y5.084 I6.4194 J15.9553
G3 X20.9592 Y5.107 I20.3422 J5.5334
G3 X20.6981 Y6.4899 I20.1454 J5.6694
G3 X20.5132 Y6.5804 I20.2791 J5.8679
G3 X19.1318 Y6.1713 I20.118 J5.3778
G3 X19.1222 Y6.1592 I19.7161 J5.7012
G2 X18.5555 Y5.4653 I6.4194 J15.9553
G0 Z3.0
G0 X14.716 Y-0.1778
G0 Z-2.2
G1 F150.0 Z-3.0
G2 F250.0 X13.8786 Y-1.3325 I13.0036 J0.1831
G2 X11.2536 Y0.1831 I13.0036 J0.1831
G2 X13.8276 Y1.727 I13.0036 J0.1831
G2 X12.5991 Y1.152 I6.4194 J15.9553
G2 X12.2034 Y0.993 I6.4194 J15.9553
G3 X12.3085 Y-0.4382 I12.4738 J0.2934
G3 X12.8632 Y-0.5537 I16.0 J15.9
G3 X13.4278 Y-0.6513 I16.0 J15.9
G3 X13.8502 Y-0.5944 I13.543 J0.0898
G3 X14.716 Y-0.1778 I6.4194 J15.9553
G0 Z3.0
G0 X11.9341 Y5.956
G0 Z-2.2
G1 F150.0 Z-3.0
G2 F250.0 X12.1494 Y6.3505 I13.5651 J5.3218
G2 X15.1638 Y6.0336 I13.5651 J5.3218
G2 X13.3822 Y3.5814 I13.5651 J5.3218
G2 X12.5014 Y3.9323 I13.5651 J5.3218
G3 X13.6412 Y4.2444 I8.2816 J21.5761
G3 X13.6681 Y4.2533 I13.4196 J4.961
G3 X14.2697 Y5.5256 I13.3403 J5.1867
G3 X14.1733 Y5.7075 I13.5651 J5.2687
G3 X12.8153 Y6.1885 I13.1468 J4.9669
G3 X12.8004 Y6.1843 I13.0117 J5.4647
G2 X11.9341 Y5.956 I8.2816 J21.5761
G0 Z3.0
G0 X5.511 Y3.6475
G0 Z-2.2
G1 F150.0 Z-3.0
G2 F250.0 X4.1548 Y3.2055 I4.3377 J4.946
G2 X2.9219 Y5.9746 I4.3377 J4.946
G2 X5.9118 Y5.7107 I4.3377 J4.946
G2 X4.58 Y5.9676 I8.2816 J21.5761
G2 X4.1663 Y6.0716 I8.2816 J21.5761
G3 X3.4102 Y4.852 I3.9739 J5.3467
G3 X3.791 Y4.4325 I16.0 J15.9
G3 X4.1904 Y4.0216 I16.0 J15.9
G3 X4.5656 Y3.8194 I4.7192 J4.5535
G3 X5.511 Y3.6475 I8.2816 J21.5761
G0 Z3.0
G0 X6.8657 Y10.245
G0 Z-2.2
G1 F150.0 Z-3.0
G2 F250.0 X7.2717 Y10.4376 I7.8125 J8.7733
G2 X9.5242 Y8.4094 I7.8125 J8.7733
G2 X6.6415 Y7.4728 I7.8125 J8.7733
G2 X6.1351 Y8.2743 I7.8125 J8.7733
G3 X7.2407 Y7.8569 I13.092 J25.0288
G3 X7.2677 Y7.8483 I7.4826 J8.5669
G3 X8.5022 Y8.5239 I7.5511 J8.7961
G3 X8.5312 Y8.7278 I7.7812 J8.7303
G3 X7.7152 Y9.9152 I7.2654 J8.732
G3 X7.7007 Y9.9205 I7.4487 J9.2141
G2 X6.8657 Y10.245 I13.092 J25.0288
G0 Z3.0
G0 X0.3124 Y12.1528
G0 Z-2.2
G1 F150.0 Z-3.0
G2 F250.0 X-1.0446 Y12.5924 I0.1264 J13.8929
G2 X-0.4144 Y15.5573 I0.1264 J13.8929
G2 X1.8493 Y13.5864 I0.1264 J13.8929
G2 X0.9229 Y14.577 I13.092 J25.0288
G2 X0.6493 Y14.9043 I13.092 J25.0288
G3 X-0.6792 Y14.3621 I0.0676 J14.4309
G3 X-0.6177 Y13.7988 I16.0 J15.9
G3 X-0.5361 Y13.2317 I16.0 J15.9
G3 X-0.3515 Y12.8475 I0.2043 J13.3511
G3 X0.3124 Y12.1528 I13.092 J25.0288
G0 Z3.0
G0 X5.2863 Y16.694
G0 Z-2.2
G1 F150.0 Z-3.0
G2 F250.0 X5.7279 Y16.6112 I5.1872 J14.9469
G2 X6.3581 Y13.6464 I5.1872 J14.9469
G2 X3.4754 Y14.583 I5.1872 J14.9469
G2 X3.5369 Y15.5292 I5.1872 J14.9469
G3 X4.186 Y14.5416 I19.0132 J24.9946
G3 X4.2028 Y14.5188 I4.799 J14.9738
G3 X5.5987 Y14.3397 I4.9892 J15.1189
G3 X5.7419 Y14.4876 I5.1366 J14.9305
G3 X5.7797 Y15.9278 I4.7203 J15.235
G3 X5.7711 Y15.9407 I5.152 J15.5174
G2 X5.2863 Y16.694 I19.0132 J24.9946
G0 Z3.0
G0 X1.1059 Y22.0894
G0 Z-2.2
G1 F150.0 Z-3.0
G2 F250.0 X0.2665 Y23.2427 I1.9782 J23.6065
G2 X2.519 Y25.2709 I1.9782 J23.6065
G2 X3.192 Y22.3458 I1.9782 J23.6065
G2 X3.0248 Y23.6918 I19.0132 J24.9946
G2 X2.9958 Y24.1173 I19.0132 J24.9946
G3 X1.6022 Y24.4596 I2.2469 J24.0763
G3 X1.321 Y23.9677 I16.0 J15.9
G3 X1.0536 Y23.4609 I16.0 J15.9
G3 X0.9772 Y23.0416 I1.7228 J23.1224
G3 X1.1059 Y22.0894 I19.0132 J24.9946
G0 Z3.0
G0 X7.7992 Y22.8398
G0 Z-2.2
G1 F150.0 Z-3.0
G2 F250.0 X8.1078 Y22.5131 I6.692 J21.4845
G2 X6.8749 Y19.7441 I6.692 J21.4845
G2 X5.0933 Y22.1963 I6.692 J21.4845
G2 X5.6991 Y22.9256 I6.692 J21.4845
G3 X5.6438 Y21.7452 I23.7834 J21.4866
G3 X5.644 Y21.7168 I6.3938 J21.7345
G3 X6.668 Y20.7515 I6.633 J21.7401
G3 X6.8709 Y20.7869 I6.6414 J21.501
G3 X7.7479 Y21.9299 I6.4837 J21.9921
G3 X7.7485 Y21.9453 I6.9989 J21.9667
G2 X7.7992 Y22.8398 I23.7834 J21.4866
G0 Z3.0
G0 X7.5885 Y29.6619
G0 Z-2.2
G1 F150.0 Z-3.0
G2 F250.0 X7.5872 Y31.0883 I9.1859 J30.3765
G2 X10.6017 Y31.4051 I9.1859 J30.3765
G2 X9.4268 Y28.6431 I9.1859 J30.3765
G2 X10.0827 Y29.8303 I23.7834 J21.4866
G2 X10.3094 Y30.1917 I23.7834 J21.4866
G3 X9.3832 Y31.2877 I9.6794 J30.5987
G3 X8.8665 Y31.0551 I16.0 J15.9
G3 X8.3523 Y30.8022 I16.0 J15.9
G3 X8.0441 Y30.5079 I8.6947 J30.1349
G3 X7.5885 Y29.6619 I23.7834 J21.4866
G0 Z3.0
G0 X13.4445 Y26.3347
G0 Z-2.2
G1 F150.0 Z-3.0
G2 F250.0 X13.5022 Y25.8891 I11.7522 J25.8891
G2 X10.8772 Y24.3735 I11.7522 J25.8891
G2 Y27.4046 I11.7522 J25.8891
G2 X11.796 Y27.6385 I11.7522 J25.8891
G3 X11.0574 Y26.716 I25.5806 J15.8447
G3 X11.0408 Y26.693 I11.6578 J26.2666
G3 X11.3019 Y25.3101 I11.8546 J26.1306
G3 X11.4868 Y25.2196 I11.7209 J25.9321
G3 X12.8682 Y25.6287 I11.882 J26.4222
G3 X12.8778 Y25.6408 I12.2839 J26.0988
G2 X13.4445 Y26.3347 I25.5806 J15.8447
G0 Z3.0
G0 X17.284 Y31.9778
G0 Z-2.2
G1 F150.0 Z-3.0
G2 F250.0 X18.1214 Y33.1325 I18.9964 J31.6169
G2 X20.7464 Y31.6169 I18.9964 J31.6169
G2 X18.1724 Y30.073 I18.9964 J31.6169
G2 X19.4009 Y30.648 I25.5806 J15.8447
G2 X19.7966 Y30.807 I25.5806 J15.8447
G3 X19.6915 Y32.2382 I19.5262 J31.5066
G3 X19.1368 Y32.3537 I16.0 J15.9
G3 X18.5722 Y32.4513 I16.0 J15.9
G3 X18.1498 Y32.3944 I18.457 J31.7102
G3 X17.284 Y31.9778 I25.5806 J15.8447
G0 Z3.0
G0 X20.0659 Y25.844
G0 Z-2.5
G1 F150.0 Z-3.3
G2 F250.0 X19.8506 Y25.4495 I18.4349 J26.4782
G2 X16.8362 Y25.7664 I18.4349 J26.4782
G2 X18.6178 Y28.2186 I18.4349 J26.4782
G2 X19.4986 Y27.8677 I18.4349 J26.4782
G3 X18.3588 Y27.5556 I23.7184 J10.2239
G3 X18.3319 Y27.5467 I18.5804 J26.839
G3 X17.7303 Y26.2744 I18.6597 J26.6133
G3 X17.8267 Y26.0925 I18.4349 J26.5313
G3 X19.1847 Y25.6115 I18.8532 J26.8331
G3 X19.1996 Y25.6157 I18.9883 J26.3353
G2 X20.0659 Y25.844 I23.7184 J10.2239
G0 Z3.0
G0 X26.489 Y28.1525
G0 Z-2.5
G1 F150.0 Z-3.3
G2 F250.0 X27.8452 Y28.5945 I27.6623 J26.854
G2 X29.0781 Y25.8254 I27.6623 J26.854
G2 X26.0882 Y26.0893 I27.6623 J26.854
G2 X27.42 Y25.8324 I23.7184 J10.2239
G2 X27.8337 Y25.7284 I23.7184 J10.2239
G3 X28.5898 Y26.948 I28.0261 J26.4533
G3 X28.209 Y27.3675 I16.0 J15.9
G3 X27.8096 Y27.7784 I16.0 J15.9
G3 X27.4344 Y27.9806 I27.2808 J27.2465
G3 X26.489 Y28.1525 I23.7184 J10.2239
G0 Z3.0
G0 X25.1343 Y21.555
G0 Z-2.5
G1 F150.0 Z-3.3
G2 F250.0 X24.7283 Y21.3624 I24.1875 J23.0267
G2 X22.4758 Y23.3906 I24.1875 J23.0267
G2 X25.3585 Y24.3272 I24.1875 J23.0267
G2 X25.8649 Y23.5257 I24.1875 J23.0267
G3 X24.7593 Y23.9431 I18.908 J6.7712
G3 X24.7323 Y23.9517 I24.5174 J23.2331
G3 X23.4978 Y23.2761 I24.4489 J23.0039
G3 X23.4688 Y23.0722 I24.2188 J23.0697
G3 X24.2848 Y21.8848 I24.7346 J23.068
G3 X24.2993 Y21.8795 I24.5513 J22.5859
G2 X25.1343 Y21.555 I18.908 J6.7712
G0 Z3.0
G0 X31.6876 Y19.6472
G0 Z-2.5
G1 F150.0 Z-3.3
G2 F250.0 X33.0446 Y19.2076 I31.8736 J17.9071
G2 X32.4144 Y16.2427 I31.8736 J17.9071
G2 X30.1507 Y18.2136 I31.8736 J17.9071
G2 X31.0771 Y17.223 I18.908 J6.7712
G2 X31.3507 Y16.8957 I18.908 J6.7712
G3 X32.6792 Y17.4379 I31.9324 J17.3691
G3 X32.6177 Y18.0012 I16.0 J15.9
G3 X32.5361 Y18.5683 I16.0 J15.9
G3 X32.3515 Y18.9525 I31.7957 J18.4489
G3 X31.6876 Y19.6472 I18.908 J6.7712
G0 Z3.0
G0 X26.7137 Y15.106
G0 Z-2.5
G1 F150.0 Z-3.3
G2 F250.0 X26.2721 Y15.1888 I26.8128 J16.8531
G2 X25.6419 Y18.1536 I26.8128 J16.8531
G2 X28.5246 Y17.217 I26.8128 J16.8531
G2 X28.4631 Y16.2708 I26.8128 J16.8531
G3 X27.814 Y17.2584 I12.9868 J6.8054
