( Made using CamBam - http://www.cambam.co.uk )
( 1mm 12/16/2016 2:43:37 PM )
( T1 : 1.0 )
G21 G90 G64 G40
G0 Z3.0
( T1 : 1.0 )
T1 M6
( Contour1 )
G17
M3
G0 X137.015 Y57.05
G0 Z0.5
G1 F300.0 Z-2.0
G2 F600.0 X136.9775 Y57.0283 I136.99 J57.05
G2 Y57.0717 I136.99 J57.05
G2 X137.015 Y57.05 I136.99 J57.05
G0 Z3.0
G0 X139.505
G0 Z0.5
G1 F300.0 Z-2.0
G2 F600.0 X139.5175 Y57.0717 I139.53 J57.05
G2 X139.555 Y57.05 I139.53 J57.05
G2 X139.5175 Y57.0283 I139.53 J57.05
G2 X139.505 Y57.05 I139.53 J57.05
G0 Z3.0
G0 X140.5405 Y54.5331
G0 Z0.5
G1 F300.0 Z-2.0
G2 F600.0 X140.575 Y54.51 I140.55 J54.51
G2 X140.5375 Y54.4883 I140.55 J54.51
G2 Y54.5317 I140.55 J54.51
G2 X140.5405 Y54.5331 I140.55 J54.51
G0 Z3.0
G0 Y52.5
G0 Z0.5
G1 F300.0 Z-2.0
G1 F600.0 X142.0
G2 X142.5 Y52.0 I142.0 J52.0
G1 Y49.0
G2 X142.0 Y48.5 I142.0 J49.0
G1 X133.0
G2 X132.5 Y49.0 I133.0 J49.0
G1 Y52.0
G2 X133.0 Y52.5 I133.0 J52.0
G1 X140.5405
G0 Z3.0
G0 X138.0296 Y54.4945
G0 Z0.5
G1 F300.0 Z-2.0
G2 F600.0 X137.9975 Y54.4883 I138.01 J54.51
G2 Y54.5317 I138.01 J54.51
G2 X138.035 Y54.51 I138.01 J54.51
G2 X138.0296 Y54.4945 I138.01 J54.51
G0 Z3.0
G0 X135.495 Y54.5098
G0 Z0.5
G1 F300.0 Z-2.0
G2 F600.0 X135.4575 Y54.4883 I135.47 J54.51
G2 Y54.5317 I135.47 J54.51
G2 X135.495 Y54.51 I135.47 J54.51
G1 Y54.5098
G0 Z3.0
G0 X134.4595 Y57.0269
G0 Z0.5
G1 F300.0 Z-2.0
G2 F600.0 X134.4375 Y57.0283 I134.45 J57.05
G2 Y57.0717 I134.45 J57.05
G2 X134.475 Y57.05 I134.45 J57.05
G2 X134.4595 Y57.0269 I134.45 J57.05
G0 Z3.0
G0 X143.8538 Y44.6466
G0 Z0.5
G1 F300.0 Z-2.0
G2 F600.0 X143.8564 Y44.6464 I143.855 J44.645
G3 X144.21 Y44.5 I144.21 J45.0
G1 X144.29
G3 X144.6436 Y44.6464 I144.29 J45.0
G2 X144.6464 Y44.6436 I144.645 J44.645
G3 X144.5 Y44.29 I145.0 J44.29
G1 Y42.71
G3 X144.6464 Y42.3564 I145.0 J42.71
G2 X144.6436 Y42.3536 I144.645 J42.355
G3 X144.29 Y42.5 I144.29 J42.0
G1 X144.21
G3 X143.8564 Y42.3536 I144.21 J42.0
G2 X143.8536 Y42.3564 I143.855 J42.355
G3 X144.0 Y42.71 I143.5 J42.71
G1 Y44.29
G3 X143.8536 Y44.6436 I143.5 J44.29
G2 X143.8538 Y44.6466 I143.855 J44.645
G0 Z3.0
G0 X158.6726 Y43.1321
G0 Z0.5
G1 F300.0 Z-2.0
G2 F600.0 X158.685 Y43.1512 I158.6975 J43.1295
G2 X158.7225 Y43.1295 I158.6975 J43.1295
G2 X158.685 Y43.1079 I158.6975 J43.1295
G2 X158.6726 Y43.1321 I158.6975 J43.1295
G0 Z3.0
G0 X159.9496 Y41.877
G0 Z0.5
G1 F300.0 Z-2.0
G2 F600.0 X159.955 Y41.8812 I159.9675 J41.8595
G2 X159.9925 Y41.8595 I159.9675 J41.8595
G2 X159.955 Y41.8379 I159.9675 J41.8595
G2 X159.9496 Y41.877 I159.9675 J41.8595
G0 Z3.0
G0 X158.7149 Y40.6074
G0 Z0.5
G1 F300.0 Z-2.0
G2 F600.0 X158.7225 Y40.5895 I158.6975 J40.5895
G2 X158.685 Y40.5679 I158.6975 J40.5895
G2 Y40.6112 I158.6975 J40.5895
G2 X158.7149 Y40.6074 I158.6975 J40.5895
G0 Z3.0
G0 X159.3937 Y37.4886
G0 Z0.5
G1 F300.0 Z-2.0
G2 F600.0 X160.0 Y37.0 I159.5 J37.0
G1 Y33.0
G2 X159.0 I159.5 J33.0
G1 Y37.0
G2 X159.3937 Y37.4886 I159.5 J37.0
G0 Z3.0
G0 X160.8611 Y21.0554
G0 Z0.5
G1 F300.0 Z-2.0
G2 F600.0 X162.5616 Y19.5 I161.0 J19.5
G2 X160.2192 Y18.1477 I161.0 J19.5
G2 Y20.8523 I161.0 J19.5
G2 X160.8611 Y21.0554 I161.0 J19.5
G0 Z3.0
G0 X144.6468 Y12.6459
G0 Z0.5
G1 F300.0 Z-2.0
G2 F600.0 X144.6464 Y12.6436 I144.645 J12.645
G3 X144.5 Y12.29 I145.0 J12.29
G1 Y10.71
G3 X144.6464 Y10.3564 I145.0 J10.71
G2 X144.6436 Y10.3536 I144.645 J10.355
G3 X144.29 Y10.5 I144.29 J10.0
G1 X144.21
G3 X143.8564 Y10.3536 I144.21 J10.0
G2 X143.8536 Y10.3564 I143.855 J10.355
G3 X144.0 Y10.71 I143.5 J10.71
G1 Y12.29
G3 X143.8536 Y12.6436 I143.5 J12.29
G2 X143.8564 Y12.6464 I143.855 J12.645
G3 X144.21 Y12.5 I144.21 J13.0
G1 X144.29
G3 X144.6436 Y12.6464 I144.29 J13.0
G2 X144.6468 Y12.6459 I144.645 J12.645
G0 Z3.0
G0 X137.0
G0 Z0.5
G1 F300.0 Z-2.0
G1 F600.0 Y10.0
G1 X111.0
G1 Y29.0
G1 X118.0
G3 X118.5 Y29.5 I118.0 J29.5
G1 Y31.0
G1 X129.5
G1 Y29.5
G3 X130.0 Y29.0 I130.0 J29.5
G1 X137.0
G1 Y12.6459
G0 Z3.0
G0 X112.5646 Y8.0047
G0 Z0.5
G1 F300.0 Z-2.0
G2 F600.0 X112.565 Y8.0 I112.54 J8.0
G2 X112.5275 Y7.9783 I112.54 J8.0
G2 Y8.0217 I112.54 J8.0
G2 X112.5646 Y8.0047 I112.54 J8.0
G0 Z3.0
G0 X110.025 Y8.0
G0 Z0.5
G1 F300.0 Z-2.0
G2 F600.0 X109.9875 Y7.9783 I110.0 J8.0
G2 Y8.0217 I110.0 J8.0
G2 X110.025 Y8.0 I110.0 J8.0
G0 Z3.0
G0 X107.485
G0 Z0.5
G1 F300.0 Z-2.0
G2 F600.0 X107.4475 Y7.9783 I107.46 J8.0
G2 Y8.0217 I107.46 J8.0
G2 X107.485 Y8.0 I107.46 J8.0
G0 Z3.0
G0 X104.1467 Y10.3538
G0 Z0.5
G1 F300.0 Z-2.0
G2 F600.0 X104.1436 Y10.3536 I104.145 J10.355
G3 X103.79 Y10.5 I103.79 J10.0
G1 X103.71
G3 X103.3564 Y10.3536 I103.71 J10.0
G2 X103.3536 Y10.3564 I103.355 J10.355
G3 X103.5 Y10.71 I103.0 J10.71
G1 Y12.29
G3 X103.3536 Y12.6436 I103.0 J12.29
G2 X103.3564 Y12.6464 I103.355 J12.645
G3 X103.71 Y12.5 I103.71 J13.0
G1 X103.79
G3 X104.1436 Y12.6464 I103.79 J13.0
G2 X104.1464 Y12.6436 I104.145 J12.645
G3 X104.0 Y12.29 I104.5 J12.29
G1 Y10.71
G3 X104.1464 Y10.3564 I104.5 J10.71
G2 X104.1467 Y10.3538 I104.145 J10.355
G0 Z3.0
G0 X92.3382 Y5.8849
G0 Z0.5
G1 F300.0 Z-2.0
G2 F600.0 X92.5 Y5.0 I90.0 J5.0
G2 X88.75 Y2.8349 I90.0 J5.0
G2 Y7.1651 I90.0 J5.0
G2 X92.3382 Y5.8849 I90.0 J5.0
G0 Z3.0
G0 X84.5858 Y10.7071
G0 Z0.5
G1 F300.0 Z-2.0
G1 F600.0 X86.7071 Y8.5858
G0 Z3.0
G0 X81.295 Y8.2714
G0 Z0.5
G1 F300.0 Z-2.0
G2 F600.0 Y8.27 I81.27 J8.27
G2 X81.2575 Y8.2483 I81.27 J8.27
G2 Y8.2917 I81.27 J8.27
G2 X81.295 Y8.2714 I81.27 J8.27
G0 Z3.0
G0 X81.2702 Y5.755
G0 Z0.5
G1 F300.0 Z-2.0
G2 F600.0 X81.295 Y5.73 I81.27 J5.73
G2 X81.2575 Y5.7083 I81.27 J5.73
G2 Y5.7517 I81.27 J5.73
G2 X81.2702 Y5.755 I81.27 J5.73
G0 Z3.0
G0 X78.755 Y5.7302
G0 Z0.5
G1 F300.0 Z-2.0
G1 F600.0 Y5.73
G2 X78.7175 Y5.7083 I78.73 J5.73
G2 Y5.7517 I78.73 J5.73
G2 X78.755 Y5.7302 I78.73 J5.73
G0 Z3.0
G0 X78.7302 Y8.245
G0 Z0.5
G1 F300.0 Z-2.0
G2 F600.0 X78.7175 Y8.2483 I78.73 J8.27
G2 Y8.2917 I78.73 J8.27
G2 X78.755 Y8.27 I78.73 J8.27
G2 X78.7302 Y8.245 I78.73 J8.27
G0 Z3.0
G0 X75.4142 Y10.7071
G0 Z0.5
G1 F300.0 Z-2.0
G1 F600.0 X73.2929 Y8.5858
G0 Z3.0
G0 X71.691 Y6.8414
G0 Z0.5
G1 F300.0 Z-2.0
G2 F600.0 X72.5 Y5.0 I70.0 J5.0
G2 X68.75 Y2.8349 I70.0 J5.0
G2 Y7.1651 I70.0 J5.0
G2 X71.691 Y6.8414 I70.0 J5.0
G0 Z3.0
G0 X55.647 Y10.3546
G0 Z0.5
G1 F300.0 Z-2.0
G2 F600.0 X55.6436 Y10.3536 I55.645 J10.355
G3 X55.29 Y10.5 I55.29 J10.0
G1 X55.21
G3 X54.8564 Y10.3536 I55.21 J10.0
G2 X54.8536 Y10.3564 I54.855 J10.355
G3 X55.0 Y10.71 I54.5 J10.71
G1 Y12.29
G3 X54.8536 Y12.6436 I54.5 J12.29
G2 X54.8564 Y12.6464 I54.855 J12.645
G3 X55.21 Y12.5 I55.21 J13.0
G1 X55.29
G3 X55.6436 Y12.6464 I55.29 J13.0
G2 X55.6464 Y12.6436 I55.645 J12.645
G3 X55.5 Y12.29 I56.0 J12.29
G1 Y10.71
G3 X55.6464 Y10.3564 I56.0 J10.71
G2 X55.647 Y10.3546 I55.645 J10.355
G0 Z3.0
G0 X44.5348 Y14.7384
G0 Z0.5
G1 F300.0 Z-2.0
G2 F600.0 X29.875 Y27.3768 I35.0 J18.5
G2 X45.25 Y18.5226 I35.0 J18.5
G2 Y18.5 I35.0 J18.5
G2 X44.5348 Y14.7384 I35.0 J18.5
G0 Z3.0
G0 X54.854 Y34.3532
G0 Z0.5
G1 F300.0 Z-2.0
G2 F600.0 X54.8536 Y34.3564 I54.855 J34.355
G3 X55.0 Y34.71 I54.5 J34.71
G1 Y36.29
G3 X54.8536 Y36.6436 I54.5 J36.29
G2 X54.8564 Y36.6464 I54.855 J36.645
G3 X55.21 Y36.5 I55.21 J37.0
G1 X55.29
G3 X55.6436 Y36.6464 I55.29 J37.0
G2 X55.6464 Y36.6436 I55.645 J36.645
G3 X55.5 Y36.29 I56.0 J36.29
G1 Y34.71
G3 X55.6464 Y34.3564 I56.0 J34.71
G2 X55.6436 Y34.3536 I55.645 J34.355
G3 X55.29 Y34.5 I55.29 J34.0
G1 X55.21
G3 X54.8564 Y34.3536 I55.21 J34.0
G2 X54.854 Y34.3532 I54.855 J34.355
G0 Z3.0
G0 X53.9 Y40.0
G0 Z0.5
G1 F300.0 Z-2.0
G1 F600.0 X40.2434
G1 X39.8667 Y40.9795
G3 X39.4 Y41.3 I39.4 J40.8
G1 X37.9
G1 Y45.7
G1 X39.4
G3 X39.8667 Y46.0205 I39.4 J46.2
G1 X40.2434 Y47.0
G1 X53.9
G1 Y40.0
G0 Z3.0
G0 X54.8548 Y50.353
G0 Z0.5
G1 F300.0 Z-2.0
G2 F600.0 X54.8536 Y50.3564 I54.855 J50.355
G3 X55.0 Y50.71 I54.5 J50.71
G1 Y52.29
G3 X54.8536 Y52.6436 I54.5 J52.29
G2 X54.8564 Y52.6464 I54.855 J52.645
G3 X55.21 Y52.5 I55.21 J53.0
G1 X55.29
G3 X55.6436 Y52.6464 I55.29 J53.0
G2 X55.6464 Y52.6436 I55.645 J52.645
G3 X55.5 Y52.29 I56.0 J52.29
G1 Y50.71
G3 X55.6464 Y50.3564 I56.0 J50.71
G2 X55.6436 Y50.3536 I55.645 J50.355
G3 X55.29 Y50.5 I55.29 J50.0
G1 X55.21
G3 X54.8564 Y50.3536 I55.21 J50.0
G2 X54.8548 Y50.353 I54.855 J50.355
G0 Z3.0
G0 X69.5229 Y47.761
G0 Z0.5
G1 F300.0 Z-2.0
G2 F600.0 X71.0 Y49.0 I71.0 J47.5
G1 X76.0
G2 X76.5 Y48.5 I76.0 J48.5
G1 Y47.0
G2 X75.0 Y45.5 I75.0 J47.0
G1 X70.0
G2 X69.5 Y46.0 I70.0 J46.0
G1 Y47.5
G2 X69.5229 Y47.761 I71.0 J47.5
G0 Z3.0
G0 X72.4535 Y53.5672
G0 Z0.5
G1 F300.0 Z-2.0
G2 F600.0 X72.4523 Y53.5679 I72.4648 J53.5895
G2 Y53.6112 I72.4648 J53.5895
G2 X72.4898 Y53.5895 I72.4648 J53.5895
G2 X72.4535 Y53.5672 I72.4648 J53.5895
G0 Z3.0
G0 X73.7172 Y54.8418
G0 Z0.5
G1 F300.0 Z-2.0
G2 F600.0 X73.7223 Y54.8812 I73.7348 J54.8595
G2 X73.7598 Y54.8595 I73.7348 J54.8595
G2 X73.7223 Y54.8379 I73.7348 J54.8595
G2 X73.7172 Y54.8418 I73.7348 J54.8595
G0 Z3.0
G0 X72.4822 Y56.1116
G0 Z0.5
G1 F300.0 Z-2.0
G2 F600.0 X72.4523 Y56.1079 I72.4648 J56.1295
G2 Y56.1512 I72.4648 J56.1295
G2 X72.4898 Y56.1295 I72.4648 J56.1295
G2 X72.4822 Y56.1116 I72.4648 J56.1295
G0 Z3.0
G0 X76.975 Y56.1498
G0 Z0.5
G1 F300.0 Z-2.0
G2 F600.0 X76.9875 Y56.1717 I77.0 J56.15
G2 X77.025 Y56.15 I77.0 J56.15
G2 X76.9875 Y56.1284 I77.0 J56.15
G2 X76.975 Y56.1498 I77.0 J56.15
G0 Z3.0
G0 X78.2521 Y54.8975
G0 Z0.5
G1 F300.0 Z-2.0
G2 F600.0 X78.2575 Y54.9017 I78.27 J54.88
G2 X78.295 Y54.88 I78.27 J54.88
G2 X78.2575 Y54.8584 I78.27 J54.88
G2 X78.2521 Y54.8975 I78.27 J54.88
G0 Z3.0
G0 X77.0174 Y53.6279
G0 Z0.5
G1 F300.0 Z-2.0
G2 F600.0 X77.025 Y53.61 I77.0 J53.61
G2 X76.9875 Y53.5884 I77.0 J53.61
G2 Y53.6317 I77.0 J53.61
G2 X77.0174 Y53.6279 I77.0 J53.61
G0 Z3.0
G0 X85.8748 Y53.61
G0 Z0.5
G1 F300.0 Z-2.0
G2 F600.0 X85.8873 Y53.6316 I85.8998 J53.61
G2 X85.9248 Y53.61 I85.8998 J53.61
G2 X85.8873 Y53.5883 I85.8998 J53.61
G2 X85.8748 Y53.61 I85.8998 J53.61
G0 Z3.0
G0 X87.152 Y54.8625
G0 Z0.5
G1 F300.0 Z-2.0
G2 F600.0 X87.1573 Y54.9016 I87.1698 J54.88
G2 X87.1948 Y54.88 I87.1698 J54.88
G2 X87.1573 Y54.8583 I87.1698 J54.88
G2 X87.152 Y54.8625 I87.1698 J54.88
G0 Z3.0
G0 X85.9173 Y56.1321
G0 Z0.5
G1 F300.0 Z-2.0
G2 F600.0 X85.8873 Y56.1283 I85.8998 J56.15
G2 Y56.1716 I85.8998 J56.15
G2 X85.9248 Y56.15 I85.8998 J56.15
G2 X85.9173 Y56.1321 I85.8998 J56.15
G0 Z3.0
G0 X92.0961 Y72.1665
G0 Z0.5
G1 F300.0 Z-2.0
G1 F600.0 X99.0577 Y72.8982
G0 Z3.0
G0 X103.353 Y71.8555
G0 Z0.5
G1 F300.0 Z-2.0
G2 F600.0 X103.3536 Y71.8564 I103.355 J71.855
G3 X103.5 Y72.21 I103.0 J72.21
G1 Y73.79
G3 X103.3536 Y74.1436 I103.0 J73.79
G2 X103.3564 Y74.1464 I103.355 J74.145
G3 X103.71 Y74.0 I103.71 J74.5
G1 X103.79
G3 X104.1436 Y74.1464 I103.79 J74.5
G2 X104.1464 Y74.1436 I104.145 J74.145
G3 X104.0 Y73.79 I104.5 J73.79
G1 Y72.21
G3 X104.1464 Y71.8564 I104.5 J72.21
G2 X104.1436 Y71.8536 I104.145 J71.855
G3 X103.79 Y72.0 I103.79 J71.5
G1 X103.71
G3 X103.3564 Y71.8536 I103.71 J71.5
G2 X103.353 Y71.8555 I103.355 J71.855
G0 Z3.0
G0 X107.4002 Y74.9847
G0 Z0.5
G1 F300.0 Z-2.0
G2 F600.0 X107.4075 Y75.0217 I107.42 J75.0
G2 X107.445 Y75.0 I107.42 J75.0
G2 X107.4075 Y74.9783 I107.42 J75.0
G2 X107.4002 Y74.9847 I107.42 J75.0
G0 Z3.0
G0 X109.935 Y74.9999
G0 Z0.5
G1 F300.0 Z-2.0
G2 F600.0 X109.9475 Y75.0217 I109.96 J75.0
G2 X109.985 Y75.0 I109.96 J75.0
G2 X109.9475 Y74.9783 I109.96 J75.0
G2 X109.935 Y74.9999 I109.96 J75.0
G0 Z3.0
G0 X112.475 Y75.0
G0 Z0.5
G1 F300.0 Z-2.0
G2 F600.0 X112.4875 Y75.0217 I112.5 J75.0
G2 X112.525 Y75.0 I112.5 J75.0
G2 X112.4875 Y74.9783 I112.5 J75.0
G2 X112.475 Y75.0 I112.5 J75.0
G0 Z3.0
G0 X104.565 Y78.8579
G0 Z0.5
G1 F300.0 Z-2.0
G1 F600.0 X109.5147 Y83.8076
G0 Z3.0
G0 X115.1716 Y89.4645
G0 Z0.5
G1 F300.0 Z-2.0
G1 F600.0 X118.0 Y92.2929
G1 X115.1716 Y89.4645
G0 Z3.0
G0 X130.0 Y92.2929
G0 Z0.5
G1 F300.0 Z-2.0
G1 F600.0 X132.8284 Y89.4645
G1 X130.0 Y92.2929
G0 Z3.0
G0 X143.435 Y78.8579
G0 Z0.5
G1 F300.0 Z-2.0
G1 F600.0 X138.4853 Y83.8076
G0 Z3.0
G0 X143.854 Y74.1468
G0 Z0.5
G1 F300.0 Z-2.0
G2 F600.0 X143.8564 Y74.1464 I143.855 J74.145
G3 X144.21 Y74.0 I144.21 J74.5
G1 X144.29
G3 X144.6436 Y74.1464 I144.29 J74.5
G2 X144.6464 Y74.1436 I144.645 J74.145
G3 X144.5 Y73.79 I145.0 J73.79
G1 Y72.21
G3 X144.6464 Y71.8564 I145.0 J72.21
G2 X144.6436 Y71.8536 I144.645 J71.855
G3 X144.29 Y72.0 I144.29 J71.5
G1 X144.21
G3 X143.8564 Y71.8536 I144.21 J71.5
G2 X143.8536 Y71.8564 I143.855 J71.855
G3 X144.0 Y72.21 I143.5 J72.21
G1 Y73.79
G3 X143.8536 Y74.1436 I143.5 J73.79
G2 X143.854 Y74.1468 I143.855 J74.145
G0 Z3.0
G0 X155.9039 Y72.1665
G0 Z0.5
G1 F300.0 Z-2.0
G1 F600.0 X148.9423 Y72.8982
G0 Z3.0
G0 X159.9113 Y61.6194
G0 Z0.5
G1 F300.0 Z-2.0
G2 F600.0 X160.2192 Y61.8523 I161.0 J60.5
G2 X162.5616 Y60.5 I161.0 J60.5
G2 X160.2192 Y59.1477 I161.0 J60.5
G2 X159.9113 Y61.6194 I161.0 J60.5
G0 Z3.0
G0 X115.4889 Y52.1047
G0 Z0.5
G1 F300.0 Z-2.0
G2 F600.0 X115.5 Y52.0 I115.0 J52.0
G1 Y49.0
G2 X115.0 Y48.5 I115.0 J49.0
G1 X106.0
G2 X105.5 Y49.0 I106.0 J49.0
G1 Y52.0
G2 X106.0 Y52.5 I106.0 J52.0
G1 X115.0
G2 X115.4889 Y52.1047 I115.0 J52.0
G0 Z3.0
G0 X113.5657 Y54.4905
G0 Z0.5
G1 F300.0 Z-2.0
G2 F600.0 X113.5375 Y54.4883 I113.55 J54.51
G2 Y54.5317 I113.55 J54.51
G2 X113.575 Y54.51 I113.55 J54.51
G2 X113.5657 Y54.4905 I113.55 J54.51
G0 Z3.0
G0 X111.035 Y54.5098
G0 Z0.5
G1 F300.0 Z-2.0
G2 F600.0 X110.9975 Y54.4883 I111.01 J54.51
G2 Y54.5317 I111.01 J54.51
G2 X111.035 Y54.51 I111.01 J54.51
G1 Y54.5098
G0 Z3.0
G0 X108.495 Y54.51
G0 Z0.5
G1 F300.0 Z-2.0
G2 F600.0 X108.4575 Y54.4883 I108.47 J54.51
G2 Y54.5317 I108.47 J54.51
G2 X108.495 Y54.51 I108.47 J54.51
G0 Z3.0
G0 X107.4595 Y57.0269
G0 Z0.5
G1 F300.0 Z-2.0
G2 F600.0 X107.4375 Y57.0283 I107.45 J57.05
G2 Y57.0717 I107.45 J57.05
G2 X107.475 Y57.05 I107.45 J57.05
G2 X107.4595 Y57.0269 I107.45 J57.05
G0 Z3.0
G0 X109.965 Y57.0498
G0 Z0.5
G1 F300.0 Z-2.0
G2 F600.0 X109.9775 Y57.0717 I109.99 J57.05
G2 X110.015 Y57.05 I109.99 J57.05
G2 X109.9775 Y57.0283 I109.99 J57.05
G2 X109.965 Y57.0498 I109.99 J57.05
G0 Z3.0
G0 X112.505 Y57.05
G0 Z0.5
G1 F300.0 Z-2.0
G2 F600.0 X112.5175 Y57.0717 I112.53 J57.05
G2 X112.555 Y57.05 I112.53 J57.05
G2 X112.5175 Y57.0283 I112.53 J57.05
G2 X112.505 Y57.05 I112.53 J57.05
G0 Z3.0
G0 X104.1461 Y44.6467
G0 Z0.5
G1 F300.0 Z-2.0
G2 F600.0 X104.1464 Y44.6436 I104.145 J44.645
G3 X104.0 Y44.29 I104.5 J44.29
G1 Y42.71
G3 X104.1464 Y42.3564 I104.5 J42.71
G2 X104.1436 Y42.3536 I104.145 J42.355
G3 X103.79 Y42.5 I103.79 J42.0
G1 X103.71
G3 X103.3564 Y42.3536 I103.71 J42.0
G2 X103.3536 Y42.3564 I103.355 J42.355
G3 X103.5 Y42.71 I103.0 J42.71
G1 Y44.29
G3 X103.3536 Y44.6436 I103.0 J44.29
G2 X103.3564 Y44.6464 I103.355 J44.645
G3 X103.71 Y44.5 I103.71 J45.0
G1 X103.79
G3 X104.1436 Y44.6464 I103.79 J45.0
G2 X104.1461 Y44.6467 I104.145 J44.645
G0 Z3.0
G0 X89.4342 Y36.2479
G0 Z0.5
G1 F300.0 Z-2.0
G2 F600.0 X89.5 Y36.0 I89.0 J36.0
G1 Y34.5
G2 X88.0 Y33.0 I88.0 J34.5
G1 X83.0
G2 X82.5 Y33.5 I83.0 J33.5
G1 Y35.0
G2 X84.0 Y36.5 I84.0 J35.0
G1 X89.0
G2 X89.4342 Y36.2479 I89.0 J36.0
G0 Z3.0
G0 X86.5439 Y28.4339
G0 Z0.5
G1 F300.0 Z-2.0
G2 F600.0 X86.5602 Y28.4105 I86.5352 J28.4105
G2 X86.5227 Y28.3888 I86.5352 J28.4105
G2 Y28.4321 I86.5352 J28.4105
G2 X86.5439 Y28.4339 I86.5352 J28.4105
G0 Z3.0
G0 X85.2828 Y27.1583
G0 Z0.5
G1 F300.0 Z-2.0
G2 F600.0 X85.2902 Y27.1405 I85.2652 J27.1405
G2 X85.2527 Y27.1188 I85.2652 J27.1405
G2 Y27.1621 I85.2652 J27.1405
G2 X85.2828 Y27.1583 I85.2652 J27.1405
G0 Z3.0
G0 X86.5178 Y25.8884
G0 Z0.5
G1 F300.0 Z-2.0
G2 F600.0 X86.5227 Y25.8921 I86.5352 J25.8705
G2 X86.5602 Y25.8705 I86.5352 J25.8705
G2 X86.5227 Y25.8488 I86.5352 J25.8705
G2 X86.5178 Y25.8884 I86.5352 J25.8705
G0 Z3.0
G0 X82.025 Y25.8502
G0 Z0.5
G1 F300.0 Z-2.0
G1 F600.0 Y25.85
G2 X81.9875 Y25.8283 I82.0 J25.85
G2 Y25.8716 I82.0 J25.85
G2 X82.025 Y25.8502 I82.0 J25.85
G0 Z3.0
G0 X80.7479 Y27.1025
G0 Z0.5
G1 F300.0 Z-2.0
G2 F600.0 X80.7175 Y27.0983 I80.73 J27.12
G2 Y27.1416 I80.73 J27.12
G2 X80.755 Y27.12 I80.73 J27.12
G2 X80.7479 Y27.1025 I80.73 J27.12
G0 Z3.0
G0 X81.9826 Y28.3721
G0 Z0.5
G1 F300.0 Z-2.0
G2 F600.0 X81.9875 Y28.4116 I82.0 J28.39
G2 X82.025 Y28.39 I82.0 J28.39
G2 X81.9875 Y28.3683 I82.0 J28.39
G2 X81.9826 Y28.3721 I82.0 J28.39
G0 Z3.0
G0 X73.1252 Y28.39
G0 Z0.5
G1 F300.0 Z-2.0
G2 F600.0 X73.0877 Y28.3684 I73.1002 J28.39
G2 Y28.4117 I73.1002 J28.39
G2 X73.1252 Y28.39 I73.1002 J28.39
G0 Z3.0
G0 X71.848 Y27.1375
G0 Z0.5
G1 F300.0 Z-2.0
G2 F600.0 X71.8552 Y27.12 I71.8302 J27.12
G2 X71.8177 Y27.0984 I71.8302 J27.12
G2 Y27.1417 I71.8302 J27.12
G2 X71.848 Y27.1375 I71.8302 J27.12
G0 Z3.0
G0 X73.0827 Y25.8679
G0 Z0.5
G1 F300.0 Z-2.0
G2 F600.0 X73.0877 Y25.8717 I73.1002 J25.85
G2 X73.1252 Y25.85 I73.1002 J25.85
G2 X73.0877 Y25.8284 I73.1002 J25.85
G2 X73.0827 Y25.8679 I73.1002 J25.85
G0 Z3.0
G0 X32.1 Y41.3
G0 Z0.5
G1 F300.0 Z-2.0
G1 F600.0 X30.6
G3 X30.1333 Y40.9795 I30.6 J40.8
G1 X29.7566 Y40.0
G1 X16.1
G1 Y47.0
G1 X29.7566
G1 X30.1333 Y46.0205
G3 X30.6 Y45.7 I30.6 J46.2
G1 X32.1
G1 Y41.3
G0 Z3.0
G0 X33.9133 Y58.3078
G0 Z0.5
G1 F300.0 Z-2.0
G2 F600.0 X29.875 Y77.3768 I35.0 J68.5
G2 X45.25 Y68.5226 I35.0 J68.5
G2 Y68.5 I35.0 J68.5
G2 X33.9133 Y58.3078 I35.0 J68.5
G0 Z3.0
G0 X15.147 Y52.6456
G0 Z0.5
G1 F300.0 Z-2.0
G2 F600.0 X15.1464 Y52.6436 I15.145 J52.645
G3 X15.0 Y52.29 I15.5 J52.29
G1 Y50.71
G3 X15.1464 Y50.3564 I15.5 J50.71
G2 X15.1436 Y50.3536 I15.145 J50.355
G3 X14.79 Y50.5 I14.79 J50.0
G1 X14.71
G3 X14.3564 Y50.3536 I14.71 J50.0
G2 X14.3536 Y50.3564 I14.355 J50.355
G3 X14.5 Y50.71 I14.0 J50.71
G1 Y52.29
G3 X14.3536 Y52.6436 I14.0 J52.29
G2 X14.3564 Y52.6464 I14.355 J52.645
G3 X14.71 Y52.5 I14.71 J53.0
G1 X14.79
G3 X15.1436 Y52.6464 I14.79 J53.0
G2 X15.147 Y52.6456 I15.145 J52.645
G0 Z3.0
G0 X15.145 Y36.647
G0 Z0.5
G1 F300.0 Z-2.0
G2 F600.0 X15.1464 Y36.6436 I15.145 J36.645
G3 X15.0 Y36.29 I15.5 J36.29
G1 Y34.71
G3 X15.1464 Y34.3564 I15.5 J34.71
G2 X15.1436 Y34.3536 I15.145 J34.355
G3 X14.79 Y34.5 I14.79 J34.0
G1 X14.71
G3 X14.3564 Y34.3536 I14.71 J34.0
G2 X14.3536 Y34.3564 I14.355 J34.355
G3 X14.5 Y34.71 I14.0 J34.71
G1 Y36.29
G3 X14.3536 Y36.6436 I14.0 J36.29
G2 X14.3564 Y36.6464 I14.355 J36.645
G3 X14.71 Y36.5 I14.71 J37.0
G1 X14.79
G3 X15.1436 Y36.6464 I14.79 J37.0
G2 X15.145 Y36.647 I15.145 J36.645
G0 Z3.0
G0 Y12.647
G0 Z0.5
G1 F300.0 Z-2.0
G2 F600.0 X15.1464 Y12.6436 I15.145 J12.645
G3 X15.0 Y12.29 I15.5 J12.29
G1 Y10.71
G3 X15.1464 Y10.3564 I15.5 J10.71
G2 X15.1436 Y10.3536 I15.145 J10.355
G3 X14.79 Y10.5 I14.79 J10.0
G1 X14.71
G3 X14.3564 Y10.3536 I14.71 J10.0
G2 X14.3536 Y10.3564 I14.355 J10.355
G3 X14.5 Y10.71 I14.0 J10.71
G1 Y12.29
G3 X14.3536 Y12.6436 I14.0 J12.29
G2 X14.3564 Y12.6464 I14.355 J12.645
G3 X14.71 Y12.5 I14.71 J13.0
G1 X14.79
G3 X15.1436 Y12.6464 I14.79 J13.0
G2 X15.145 Y12.647 I15.145 J12.645
G0 Z3.0
G0 X3.5934 Y72.2188
G0 Z0.5
G1 F300.0 Z-2.0
G1 F600.0 X6.5769 Y72.5324
G0 Z3.0
G0 X14.3539 Y84.8533
G0 Z0.5
G1 F300.0 Z-2.0
G2 F600.0 X14.3536 Y84.8564 I14.355 J84.855
G3 X14.5 Y85.21 I14.0 J85.21
G1 Y86.79
G3 X14.3536 Y87.1436 I14.0 J86.79
G2 X14.3564 Y87.1464 I14.355 J87.145
G3 X14.71 Y87.0 I14.71 J87.5
G1 X14.79
G3 X15.1436 Y87.1464 I14.79 J87.5
G2 X15.1464 Y87.1436 I15.145 J87.145
G3 X15.0 Y86.79 I15.5 J86.79
G1 Y85.21
G3 X15.1464 Y84.8564 I15.5 J85.21
G2 X15.1436 Y84.8536 I15.145 J84.855
G3 X14.79 Y85.0 I14.79 J84.5
G1 X14.71
G3 X14.3564 Y84.8536 I14.71 J84.5
G2 X14.3539 Y84.8533 I14.355 J84.855
G0 Z3.0
G0 X21.6386 Y87.0065
G0 Z0.5
G1 F300.0 Z-2.0
G2 F600.0 X21.5972 Y88.8407 I25.0 J88.0
G2 X22.6364 Y90.5883 I25.0 J88.0
G1 X26.0387 Y93.6953
G2 X26.675 Y94.161 I28.5 J91.0
G2 X28.5 Y94.65 I28.5 J91.0
G1 X35.0
G1 X41.5
G2 X43.325 Y94.161 I41.5 J91.0
G2 X43.9613 Y93.6953 I41.5 J91.0
G1 X47.3636 Y90.5883
G2 X48.4028 Y88.8407 I45.0 J88.0
G2 X46.7526 Y84.9645 I45.0 J88.0
G2 X43.6345 Y84.7718 I45.0 J88.0
G1 X42.1485 Y85.4004
G3 X35.0 Y86.85 I35.0 J68.5
G3 X27.8515 Y85.4004 I35.0 J68.5
G1 X26.3655 Y84.7718
G2 X23.2474 Y84.9645 I25.0 J88.0
G2 X21.6386 Y87.0065 I25.0 J88.0
G0 Z3.0
G0 X54.853 Y87.145
G0 Z0.5
G1 F300.0 Z-2.0
G2 F600.0 X54.8564 Y87.1464 I54.855 J87.145
G3 X55.21 Y87.0 I55.21 J87.5
G1 X55.29
G3 X55.6436 Y87.1464 I55.29 J87.5
G2 X55.6464 Y87.1436 I55.645 J87.145
G3 X55.5 Y86.79 I56.0 J86.79
G1 Y85.21
G3 X55.6464 Y84.8564 I56.0 J85.21
G2 X55.6436 Y84.8536 I55.645 J84.855
G3 X55.29 Y85.0 I55.29 J84.5
G1 X55.21
G3 X54.8564 Y84.8536 I55.21 J84.5
G2 X54.8536 Y84.8564 I54.855 J84.855
G3 X55.0 Y85.21 I54.5 J85.21
G1 Y86.79
G3 X54.8536 Y87.1436 I54.5 J86.79
G2 X54.853 Y87.145 I54.855 J87.145
G0 Z3.0
G0 X66.4066 Y72.2188
G0 Z0.5
G1 F300.0 Z-2.0
G1 F600.0 X63.4231 Y72.5324
G0 Z3.0
G0 X79.5106 Y75.8976
G0 Z0.5
G1 F300.0 Z-2.0
G2 F600.0 X79.5 Y76.0 I80.0 J76.0
G1 Y80.0
G2 X80.5 I80.0 J80.0
G1 Y76.0
G2 X79.5106 Y75.8976 I80.0 J76.0
G0 Z3.0
G0 X79.1985 Y83.5645
G0 Z0.5
G1 F300.0 Z-2.0
G2 F600.0 X79.185 Y83.5679 I79.1975 J83.5895
G2 Y83.6112 I79.1975 J83.5895
G2 X79.2225 Y83.5895 I79.1975 J83.5895
G2 X79.1985 Y83.5645 I79.1975 J83.5895
G0 Z3.0
G0 X80.45 Y84.8417
G0 Z0.5
G1 F300.0 Z-2.0
G2 F600.0 X80.455 Y84.8812 I80.4675 J84.8595
G2 X80.4925 Y84.8595 I80.4675 J84.8595
G2 X80.455 Y84.8379 I80.4675 J84.8595
G2 X80.45 Y84.8417 I80.4675 J84.8595
G0 Z3.0
G0 X79.2149 Y86.1116
G0 Z0.5
G1 F300.0 Z-2.0
G2 F600.0 X79.185 Y86.1079 I79.1975 J86.1295
G2 Y86.1512 I79.1975 J86.1295
G2 X79.2225 Y86.1295 I79.1975 J86.1295
G2 X79.2149 Y86.1116 I79.1975 J86.1295
( Contour3 )
G0 Z3.0
G0 X137.015 Y57.05
G0 Z-1.5
G1 F300.0 Z-2.0
G2 F600.0 X136.9775 Y57.0283 I136.99 J57.05
G2 Y57.0717 I136.99 J57.05
G2 X137.015 Y57.05 I136.99 J57.05
G0 Z3.0
G0 X139.505
G0 Z-1.5
G1 F300.0 Z-2.0
G2 F600.0 X139.5175 Y57.0717 I139.53 J57.05
G2 X139.555 Y57.05 I139.53 J57.05
G2 X139.5175 Y57.0283 I139.53 J57.05
G2 X139.505 Y57.05 I139.53 J57.05
G0 Z3.0
G0 X140.5405 Y54.5331
G0 Z-1.5
G1 F300.0 Z-2.0
G2 F600.0 X140.575 Y54.51 I140.55 J54.51
G2 X140.5375 Y54.4883 I140.55 J54.51
G2 Y54.5317 I140.55 J54.51
G2 X140.5405 Y54.5331 I140.55 J54.51
G0 Z3.0
G0 Y52.5
G0 Z-1.5
G1 F300.0 Z-2.0
G1 F600.0 X142.0
G2 X142.5 Y52.0 I142.0 J52.0
G1 Y49.0
G2 X142.0 Y48.5 I142.0 J49.0
G1 X133.0
G2 X132.5 Y49.0 I133.0 J49.0
G1 Y52.0
G2 X133.0 Y52.5 I133.0 J52.0
G1 X140.5405
G0 Z3.0
G0 X138.0296 Y54.4945
G0 Z-1.5
G1 F300.0 Z-2.0
G2 F600.0 X137.9975 Y54.4883 I138.01 J54.51
G2 Y54.5317 I138.01 J54.51
G2 X138.035 Y54.51 I138.01 J54.51
G2 X138.0296 Y54.4945 I138.01 J54.51
G0 Z3.0
G0 X135.495 Y54.5098
G0 Z-1.5
G1 F300.0 Z-2.0
G2 F600.0 X135.4575 Y54.4883 I135.47 J54.51
G2 Y54.5317 I135.47 J54.51
G2 X135.495 Y54.51 I135.47 J54.51
G1 Y54.5098
G0 Z3.0
G0 X134.4595 Y57.0269
G0 Z-1.5
G1 F300.0 Z-2.0
G2 F600.0 X134.4375 Y57.0283 I134.45 J57.05
G2 Y57.0717 I134.45 J57.05
G2 X134.475 Y57.05 I134.45 J57.05
G2 X134.4595 Y57.0269 I134.45 J57.05
G0 Z3.0
G0 X143.8538 Y44.6466
G0 Z-1.5
G1 F300.0 Z-2.0
G2 F600.0 X143.8564 Y44.6464 I143.855 J44.645
G3 X144.21 Y44.5 I144.21 J45.0
G1 X144.29
G3 X144.6436 Y44.6464 I144.29 J45.0
G2 X144.6464 Y44.6436 I144.645 J44.645
G3 X144.5 Y44.29 I145.0 J44.29
G1 Y42.71
G3 X144.6464 Y42.3564 I145.0 J42.71
G2 X144.6436 Y42.3536 I144.645 J42.355
G3 X144.29 Y42.5 I144.29 J42.0
G1 X144.21
G3 X143.8564 Y42.3536 I144.21 J42.0
G2 X143.8536 Y42.3564 I143.855 J42.355
G3 X144.0 Y42.71 I143.5 J42.71
G1 Y44.29
G3 X143.8536 Y44.6436 I143.5 J44.29
G2 X143.8538 Y44.6466 I143.855 J44.645
G0 Z3.0
G0 X158.6726 Y43.1321
G0 Z-1.5
G1 F300.0 Z-2.0
G2 F600.0 X158.685 Y43.1512 I158.6975 J43.1295
G2 X158.7225 Y43.1295 I158.6975 J43.1295
G2 X158.685 Y43.1079 I158.6975 J43.1295
G2 X158.6726 Y43.1321 I158.6975 J43.1295
G0 Z3.0
G0 X159.9496 Y41.877
G0 Z-1.5
G1 F300.0 Z-2.0
G2 F600.0 X159.955 Y41.8812 I159.9675 J41.8595
G2 X159.9925 Y41.8595 I159.9675 J41.8595
G2 X159.955 Y41.8379 I159.9675 J41.8595
G2 X159.9496 Y41.877 I159.9675 J41.8595
G0 Z3.0
G0 X158.7149 Y40.6074
G0 Z-1.5
G1 F300.0 Z-2.0
G2 F600.0 X158.7225 Y40.5895 I158.6975 J40.5895
G2 X158.685 Y40.5679 I158.6975 J40.5895
G2 Y40.6112 I158.6975 J40.5895
G2 X158.7149 Y40.6074 I158.6975 J40.5895
G0 Z3.0
G0 X159.3937 Y37.4886
G0 Z-1.5
G1 F300.0 Z-2.0
G2 F600.0 X160.0 Y37.0 I159.5 J37.0
G1 Y33.0
G2 X159.0 I159.5 J33.0
G1 Y37.0
G2 X159.3937 Y37.4886 I159.5 J37.0
G0 Z3.0
G0 X160.8611 Y21.0554
G0 Z-1.5
G1 F300.0 Z-2.0
G2 F600.0 X162.5616 Y19.5 I161.0 J19.5
G2 X160.2192 Y18.1477 I161.0 J19.5
G2 Y20.8523 I161.0 J19.5
G2 X160.8611 Y21.0554 I161.0 J19.5
G0 Z3.0
G0 X144.6468 Y12.6459
G0 Z-1.5
G1 F300.0 Z-2.0
G2 F600.0 X144.6464 Y12.6436 I144.645 J12.645
G3 X144.5 Y12.29 I145.0 J12.29
G1 Y10.71
G3 X144.6464 Y10.3564 I145.0 J10.71
G2 X144.6436 Y10.3536 I144.645 J10.355
G3 X144.29 Y10.5 I144.29 J10.0
G1 X144.21
G3 X143.8564 Y10.3536 I144.21 J10.0
G2 X143.8536 Y10.3564 I143.855 J10.355
G3 X144.0 Y10.71 I143.5 J10.71
G1 Y12.29
G3 X143.8536 Y12.6436 I143.5 J12.29
G2 X143.8564 Y12.6464 I143.855 J12.645
G3 X144.21 Y12.5 I144.21 J13.0
G1 X144.29
G3 X144.6436 Y12.6464 I144.29 J13.0
G2 X144.6468 Y12.6459 I144.645 J12.645
G0 Z3.0
G0 X137.0
G0 Z-1.5
G1 F300.0 Z-2.0
G1 F600.0 Y10.0
G1 X111.0
G1 Y29.0
G1 X118.0
G3 X118.5 Y29.5 I118.0 J29.5
G1 Y31.0
G1 X129.5
G1 Y29.5
G3 X130.0 Y29.0 I130.0 J29.5
G1 X137.0
G1 Y12.6459
G0 Z3.0
G0 X112.5646 Y8.0047
G0 Z-1.5
G1 F300.0 Z-2.0
G2 F600.0 X112.565 Y8.0 I112.54 J8.0
G2 X112.5275 Y7.9783 I112.54 J8.0
G2 Y8.0217 I112.54 J8.0
G2 X112.5646 Y8.0047 I112.54 J8.0
G0 Z3.0
G0 X110.025 Y8.0
G0 Z-1.5
G1 F300.0 Z-2.0
G2 F600.0 X109.9875 Y7.9783 I110.0 J8.0
G2 Y8.0217 I110.0 J8.0
G2 X110.025 Y8.0 I110.0 J8.0
G0 Z3.0
G0 X107.485
G0 Z-1.5
G1 F300.0 Z-2.0
G2 F600.0 X107.4475 Y7.9783 I107.46 J8.0
G2 Y8.0217 I107.46 J8.0
G2 X107.485 Y8.0 I107.46 J8.0
G0 Z3.0
G0 X104.1467 Y10.3538
G0 Z-1.5
G1 F300.0 Z-2.0
G2 F600.0 X104.1436 Y10.3536 I104.145 J10.355
G3 X103.79 Y10.5 I103.79 J10.0
G1 X103.71
G3 X103.3564 Y10.3536 I103.71 J10.0
G2 X103.3536 Y10.3564 I103.355 J10.355
G3 X103.5 Y10.71 I103.0 J10.71
G1 Y12.29
G3 X103.3536 Y12.6436 I103.0 J12.29
G2 X103.3564 Y12.6464 I103.355 J12.645
G3 X103.71 Y12.5 I103.71 J13.0
G1 X103.79
G3 X104.1436 Y12.6464 I103.79 J13.0
G2 X104.1464 Y12.6436 I104.145 J12.645
G3 X104.0 Y12.29 I104.5 J12.29
G1 Y10.71
G3 X104.1464 Y10.3564 I104.5 J10.71
G2 X104.1467 Y10.3538 I104.145 J10.355
G0 Z3.0
G0 X92.3382 Y5.8849
G0 Z-1.5
G1 F300.0 Z-2.0
G2 F600.0 X92.5 Y5.0 I90.0 J5.0
G2 X88.75 Y2.8349 I90.0 J5.0
G2 Y7.1651 I90.0 J5.0
G2 X92.3382 Y5.8849 I90.0 J5.0
G0 Z3.0
G0 X84.5858 Y10.7071
G0 Z-1.5
G1 F300.0 Z-2.0
G1 F600.0 X86.7071 Y8.5858
G0 Z3.0
G0 X81.295 Y8.2714
G0 Z-1.5
G1 F300.0 Z-2.0
G2 F600.0 Y8.27 I81.27 J8.27
G2 X81.2575 Y8.2483 I81.27 J8.27
G2 Y8.2917 I81.27 J8.27
G2 X81.295 Y8.2714 I81.27 J8.27
G0 Z3.0
G0 X81.2702 Y5.755
G0 Z-1.5
G1 F300.0 Z-2.0
G2 F600.0 X81.295 Y5.73 I81.27 J5.73
G2 X81.2575 Y5.7083 I81.27 J5.73
G2 Y5.7517 I81.27 J5.73
G2 X81.2702 Y5.755 I81.27 J5.73
G0 Z3.0
G0 X78.755 Y5.7302
G0 Z-1.5
G1 F300.0 Z-2.0
G1 F600.0 Y5.73
G2 X78.7175 Y5.7083 I78.73 J5.73
G2 Y5.7517 I78.73 J5.73
G2 X78.755 Y5.7302 I78.73 J5.73
G0 Z3.0
G0 X78.7302 Y8.245
G0 Z-1.5
G1 F300.0 Z-2.0
G2 F600.0 X78.7175 Y8.2483 I78.73 J8.27
G2 Y8.2917 I78.73 J8.27
G2 X78.755 Y8.27 I78.73 J8.27
G2 X78.7302 Y8.245 I78.73 J8.27
G0 Z3.0
G0 X75.4142 Y10.7071
G0 Z-1.5
G1 F300.0 Z-2.0
G1 F600.0 X73.2929 Y8.5858
G0 Z3.0
G0 X71.691 Y6.8414
G0 Z-1.5
G1 F300.0 Z-2.0
G2 F600.0 X72.5 Y5.0 I70.0 J5.0
G2 X68.75 Y2.8349 I70.0 J5.0
G2 Y7.1651 I70.0 J5.0
G2 X71.691 Y6.8414 I70.0 J5.0
G0 Z3.0
G0 X55.647 Y10.3546
G0 Z-1.5
G1 F300.0 Z-2.0
G2 F600.0 X55.6436 Y10.3536 I55.645 J10.355
G3 X55.29 Y10.5 I55.29 J10.0
G1 X55.21
G3 X54.8564 Y10.3536 I55.21 J10.0
G2 X54.8536 Y10.3564 I54.855 J10.355
G3 X55.0 Y10.71 I54.5 J10.71
G1 Y12.29
G3 X54.8536 Y12.6436 I54.5 J12.29
G2 X54.8564 Y12.6464 I54.855 J12.645
G3 X55.21 Y12.5 I55.21 J13.0
G1 X55.29
G3 X55.6436 Y12.6464 I55.29 J13.0
G2 X55.6464 Y12.6436 I55.645 J12.645
G3 X55.5 Y12.29 I56.0 J12.29
G1 Y10.71
G3 X55.6464 Y10.3564 I56.0 J10.71
G2 X55.647 Y10.3546 I55.645 J10.355
G0 Z3.0
G0 X44.5348 Y14.7384
G0 Z-1.5
G1 F300.0 Z-2.0
G2 F600.0 X29.875 Y27.3768 I35.0 J18.5
G2 X45.25 Y18.5226 I35.0 J18.5
G2 Y18.5 I35.0 J18.5
G2 X44.5348 Y14.7384 I35.0 J18.5
G0 Z3.0
G0 X54.854 Y34.3532
G0 Z-1.5
G1 F300.0 Z-2.0
G2 F600.0 X54.8536 Y34.3564 I54.855 J34.355
G3 X55.0 Y34.71 I54.5 J34.71
G1 Y36.29
G3 X54.8536 Y36.6436 I54.5 J36.29
G2 X54.8564 Y36.6464 I54.855 J36.645
G3 X55.21 Y36.5 I55.21 J37.0
G1 X55.29
G3 X55.6436 Y36.6464 I55.29 J37.0
G2 X55.6464 Y36.6436 I55.645 J36.645
G3 X55.5 Y36.29 I56.0 J36.29
G1 Y34.71
G3 X55.6464 Y34.3564 I56.0 J34.71
G2 X55.6436 Y34.3536 I55.645 J34.355
G3 X55.29 Y34.5 I55.29 J34.0
G1 X55.21
G3 X54.8564 Y34.3536 I55.21 J34.0
G2 X54.854 Y34.3532 I54.855 J34.355
G0 Z3.0
G0 X53.9 Y40.0
G0 Z-1.5
G1 F300.0 Z-2.0
G1 F600.0 X40.2434
G1 X39.8667 Y40.9795
G3 X39.4 Y41.3 I39.4 J40.8
G1 X37.9
G1 Y45.7
G1 X39.4
G3 X39.8667 Y46.0205 I39.4 J46.2
G1 X40.2434 Y47.0
G1 X53.9
G1 Y40.0
G0 Z3.0
G0 X54.8548 Y50.353
G0 Z-1.5
G1 F300.0 Z-2.0
G2 F600.0 X54.8536 Y50.3564 I54.855 J50.355
G3 X55.0 Y50.71 I54.5 J50.71
G1 Y52.29
G3 X54.8536 Y52.6436 I54.5 J52.29
G2 X54.8564 Y52.6464 I54.855 J52.645
G3 X55.21 Y52.5 I55.21 J53.0
G1 X55.29
G3 X55.6436 Y52.6464 I55.29 J53.0
G2 X55.6464 Y52.6436 I55.645 J52.645
G3 X55.5 Y52.29 I56.0 J52.29
G1 Y50.71
G3 X55.6464 Y50.3564 I56.0 J50.71
G2 X55.6436 Y50.3536 I55.645 J50.355
G3 X55.29 Y50.5 I55.29 J50.0
G1 X55.21
G3 X54.8564 Y50.3536 I55.21 J50.0
G2 X54.8548 Y50.353 I54.855 J50.355
G0 Z3.0
G0 X69.5229 Y47.761
G0 Z-1.5
G1 F300.0 Z-2.0
G2 F600.0 X71.0 Y49.0 I71.0 J47.5
G1 X76.0
G2 X76.5 Y48.5 I76.0 J48.5
G1 Y47.0
G2 X75.0 Y45.5 I75.0 J47.0
G1 X70.0
G2 X69.5 Y46.0 I70.0 J46.0
G1 Y47.5
G2 X69.5229 Y47.761 I71.0 J47.5
G0 Z3.0
G0 X72.4535 Y53.5672
G0 Z-1.5
G1 F300.0 Z-2.0
G2 F600.0 X72.4523 Y53.5679 I72.4648 J53.5895
G2 Y53.6112 I72.4648 J53.5895
G2 X72.4898 Y53.5895 I72.4648 J53.5895
G2 X72.4535 Y53.5672 I72.4648 J53.5895
G0 Z3.0
G0 X73.7172 Y54.8418
G0 Z-1.5
G1 F300.0 Z-2.0
G2 F600.0 X73.7223 Y54.8812 I73.7348 J54.8595
G2 X73.7598 Y54.8595 I73.7348 J54.8595
G2 X73.7223 Y54.8379 I73.7348 J54.8595
G2 X73.7172 Y54.8418 I73.7348 J54.8595
G0 Z3.0
G0 X72.4822 Y56.1116
G0 Z-1.5
G1 F300.0 Z-2.0
G2 F600.0 X72.4523 Y56.1079 I72.4648 J56.1295
G2 Y56.1512 I72.4648 J56.1295
G2 X72.4898 Y56.1295 I72.4648 J56.1295
G2 X72.4822 Y56.1116 I72.4648 J56.1295
G0 Z3.0
G0 X76.975 Y56.1498
G0 Z-1.5
G1 F300.0 Z-2.0
G2 F600.0 X76.9875 Y56.1717 I77.0 J56.15
G2 X77.025 Y56.15 I77.0 J56.15
G2 X76.9875 Y56.1284 I77.0 J56.15
G2 X76.975 Y56.1498 I77.0 J56.15
G0 Z3.0
G0 X78.2521 Y54.8975
G0 Z-1.5
G1 F300.0 Z-2.0
G2 F600.0 X78.2575 Y54.9017 I78.27 J54.88
G2 X78.295 Y54.88 I78.27 J54.88
G2 X78.2575 Y54.8584 I78.27 J54.88
G2 X78.2521 Y54.8975 I78.27 J54.88
G0 Z3.0
G0 X77.0174 Y53.6279
G0 Z-1.5
G1 F300.0 Z-2.0
G2 F600.0 X77.025 Y53.61 I77.0 J53.61
G2 X76.9875 Y53.5884 I77.0 J53.61
G2 Y53.6317 I77.0 J53.61
G2 X77.0174 Y53.6279 I77.0 J53.61
G0 Z3.0
G0 X85.8748 Y53.61
G0 Z-1.5
G1 F300.0 Z-2.0
G2 F600.0 X85.8873 Y53.6316 I85.8998 J53.61
G2 X85.9248 Y53.61 I85.8998 J53.61
G2 X85.8873 Y53.5883 I85.8998 J53.61
G2 X85.8748 Y53.61 I85.8998 J53.61
G0 Z3.0
G0 X87.152 Y54.8625
G0 Z-1.5
G1 F300.0 Z-2.0
G2 F600.0 X87.1573 Y54.9016 I87.1698 J54.88
G2 X87.1948 Y54.88 I87.1698 J54.88
G2 X87.1573 Y54.8583 I87.1698 J54.88
G2 X87.152 Y54.8625 I87.1698 J54.88
G0 Z3.0
G0 X85.9173 Y56.1321
G0 Z-1.5
G1 F300.0 Z-2.0
G2 F600.0 X85.8873 Y56.1283 I85.8998 J56.15
G2 Y56.1716 I85.8998 J56.15
G2 X85.9248 Y56.15 I85.8998 J56.15
G2 X85.9173 Y56.1321 I85.8998 J56.15
G0 Z3.0
G0 X92.0961 Y72.1665
G0 Z-1.5
G1 F300.0 Z-2.0
G1 F600.0 X99.0577 Y72.8982
G0 Z3.0
G0 X103.353 Y71.8555
G0 Z-1.5
G1 F300.0 Z-2.0
G2 F600.0 X103.3536 Y71.8564 I103.355 J71.855
G3 X103.5 Y72.21 I103.0 J72.21
G1 Y73.79
G3 X103.3536 Y74.1436 I103.0 J73.79
G2 X103.3564 Y74.1464 I103.355 J74.145
G3 X103.71 Y74.0 I103.71 J74.5
G1 X103.79
G3 X104.1436 Y74.1464 I103.79 J74.5
G2 X104.1464 Y74.1436 I104.145 J74.145
G3 X104.0 Y73.79 I104.5 J73.79
G1 Y72.21
G3 X104.1464 Y71.8564 I104.5 J72.21
G2 X104.1436 Y71.8536 I104.145 J71.855
G3 X103.79 Y72.0 I103.79 J71.5
G1 X103.71
G3 X103.3564 Y71.8536 I103.71 J71.5
G2 X103.353 Y71.8555 I103.355 J71.855
G0 Z3.0
G0 X107.4002 Y74.9847
G0 Z-1.5
G1 F300.0 Z-2.0
G2 F600.0 X107.4075 Y75.0217 I107.42 J75.0
G2 X107.445 Y75.0 I107.42 J75.0
G2 X107.4075 Y74.9783 I107.42 J75.0
G2 X107.4002 Y74.9847 I107.42 J75.0
G0 Z3.0
G0 X109.935 Y74.9999
G0 Z-1.5
G1 F300.0 Z-2.0
G2 F600.0 X109.9475 Y75.0217 I109.96 J75.0
G2 X109.985 Y75.0 I109.96 J75.0
G2 X109.9475 Y74.9783 I109.96 J75.0
G2 X109.935 Y74.9999 I109.96 J75.0
G0 Z3.0
G0 X112.475 Y75.0
G0 Z-1.5
G1 F300.0 Z-2.0
G2 F600.0 X112.4875 Y75.0217 I112.5 J75.0
G2 X112.525 Y75.0 I112.5 J75.0
G2 X112.4875 Y74.9783 I112.5 J75.0
G2 X112.475 Y75.0 I112.5 J75.0
G0 Z3.0
G0 X104.565 Y78.8579
G0 Z-1.5
G1 F300.0 Z-2.0
G1 F600.0 X109.5147 Y83.8076
G0 Z3.0
G0 X115.1716 Y89.4645
G0 Z-1.5
G1 F300.0 Z-2.0
G1 F600.0 X118.0 Y92.2929
G1 X115.1716 Y89.4645
G0 Z3.0
G0 X130.0 Y92.2929
G0 Z-1.5
G1 F300.0 Z-2.0
G1 F600.0 X132.8284 Y89.4645
G1 X130.0 Y92.2929
G0 Z3.0
G0 X143.435 Y78.8579
G0 Z-1.5
G1 F300.0 Z-2.0
G1 F600.0 X138.4853 Y83.8076
G0 Z3.0
G0 X143.854 Y74.1468
G0 Z-1.5
G1 F300.0 Z-2.0
G2 F600.0 X143.8564 Y74.1464 I143.855 J74.145
G3 X144.21 Y74.0 I144.21 J74.5
G1 X144.29
G3 X144.6436 Y74.1464 I144.29 J74.5
G2 X144.6464 Y74.1436 I144.645 J74.145
G3 X144.5 Y73.79 I145.0 J73.79
G1 Y72.21
G3 X144.6464 Y71.8564 I145.0 J72.21
G2 X144.6436 Y71.8536 I144.645 J71.855
G3 X144.29 Y72.0 I144.29 J71.5
G1 X144.21
G3 X143.8564 Y71.8536 I144.21 J71.5
G2 X143.8536 Y71.8564 I143.855 J71.855
G3 X144.0 Y72.21 I143.5 J72.21
G1 Y73.79
G3 X143.8536 Y74.1436 I143.5 J73.79
G2 X143.854 Y74.1468 I143.855 J74.145
G0 Z3.0
G0 X155.9039 Y72.1665
G0 Z-1.5
G1 F300.0 Z-2.0
G1 F600.0 X148.9423 Y72.8982
G0 Z3.0
G0 X159.9113 Y61.6194
G0 Z-1.5
G1 F300.0 Z-2.0
G2 F600.0 X160.2192 Y61.8523 I161.0 J60.5
G2 X162.5616 Y60.5 I161.0 J60.5
G2 X160.2192 Y59.1477 I161.0 J60.5
G2 X159.9113 Y61.6194 I161.0 J60.5
G0 Z3.0
G0 X115.4889 Y52.1047
G0 Z-1.5
G1 F300.0 Z-2.0
G2 F600.0 X115.5 Y52.0 I115.0 J52.0
G1 Y49.0
G2 X115.0 Y48.5 I115.0 J49.0
G1 X106.0
G2 X105.5 Y49.0 I106.0 J49.0
G1 Y52.0
G2 X106.0 Y52.5 I106.0 J52.0
G1 X115.0
G2 X115.4889 Y52.1047 I115.0 J52.0
G0 Z3.0
G0 X113.5657 Y54.4905
G0 Z-1.5
G1 F300.0 Z-2.0
G2 F600.0 X113.5375 Y54.4883 I113.55 J54.51
G2 Y54.5317 I113.55 J54.51
G2 X113.575 Y54.51 I113.55 J54.51
G2 X113.5657 Y54.4905 I113.55 J54.51
G0 Z3.0
G0 X111.035 Y54.5098
G0 Z-1.5
G1 F300.0 Z-2.0
G2 F600.0 X110.9975 Y54.4883 I111.01 J54.51
G2 Y54.5317 I111.01 J54.51
G2 X111.035 Y54.51 I111.01 J54.51
G1 Y54.5098
G0 Z3.0
G0 X108.495 Y54.51
G0 Z-1.5
G1 F300.0 Z-2.0
G2 F600.0 X108.4575 Y54.4883 I108.47 J54.51
G2 Y54.5317 I108.47 J54.51
G2 X108.495 Y54.51 I108.47 J54.51
G0 Z3.0
G0 X107.4595 Y57.0269
G0 Z-1.5
G1 F300.0 Z-2.0
G2 F600.0 X107.4375 Y57.0283 I107.45 J57.05
G2 Y57.0717 I107.45 J57.05
G2 X107.475 Y57.05 I107.45 J57.05
G2 X107.4595 Y57.0269 I107.45 J57.05
G0 Z3.0
G0 X109.965 Y57.0498
G0 Z-1.5
G1 F300.0 Z-2.0
G2 F600.0 X109.9775 Y57.0717 I109.99 J57.05
G2 X110.015 Y57.05 I109.99 J57.05
G2 X109.9775 Y57.0283 I109.99 J57.05
G2 X109.965 Y57.0498 I109.99 J57.05
G0 Z3.0
G0 X112.505 Y57.05
G0 Z-1.5
G1 F300.0 Z-2.0
G2 F600.0 X112.5175 Y57.0717 I112.53 J57.05
G2 X112.555 Y57.05 I112.53 J57.05
G2 X112.5175 Y57.0283 I112.53 J57.05
G2 X112.505 Y57.05 I112.53 J57.05
G0 Z3.0
G0 X104.1461 Y44.6467
G0 Z-1.5
G1 F300.0 Z-2.0
G2 F600.0 X104.1464 Y44.6436 I104.145 J44.645
G3 X104.0 Y44.29 I104.5 J44.29
G1 Y42.71
G3 X104.1464 Y42.3564 I104.5 J42.71
G2 X104.1436 Y42.3536 I104.145 J42.355
G3 X103.79 Y42.5 I103.79 J42.0
G1 X103.71
G3 X103.3564 Y42.3536 I103.71 J42.0
G2 X103.3536 Y42.3564 I103.355 J42.355
G3 X103.5 Y42.71 I103.0 J42.71
G1 Y44.29
G3 X103.3536 Y44.6436 I103.0 J44.29
G2 X103.3564 Y44.6464 I103.355 J44.645
G3 X103.71 Y44.5 I103.71 J45.0
G1 X103.79
G3 X104.1436 Y44.6464 I103.79 J45.0
G2 X104.1461 Y44.6467 I104.145 J44.645
G0 Z3.0
G0 X89.4342 Y36.2479
G0 Z-1.5
G1 F300.0 Z-2.0
G2 F600.0 X89.5 Y36.0 I89.0 J36.0
G1 Y34.5
G2 X88.0 Y33.0 I88.0 J34.5
G1 X83.0
G2 X82.5 Y33.5 I83.0 J33.5
G1 Y35.0
G2 X84.0 Y36.5 I84.0 J35.0
G1 X89.0
G2 X89.4342 Y36.2479 I89.0 J36.0
G0 Z3.0
G0 X86.5439 Y28.4339
G0 Z-1.5
G1 F300.0 Z-2.0
G2 F600.0 X86.5602 Y28.4105 I86.5352 J28.4105
G2 X86.5227 Y28.3888 I86.5352 J28.4105
G2 Y28.4321 I86.5352 J28.4105
G2 X86.5439 Y28.4339 I86.5352 J28.4105
G0 Z3.0
G0 X85.2828 Y27.1583
G0 Z-1.5
G1 F300.0 Z-2.0
G2 F600.0 X85.2902 Y27.1405 I85.2652 J27.1405
G2 X85.2527 Y27.1188 I85.2652 J27.1405
G2 Y27.1621 I85.2652 J27.1405
G2 X85.2828 Y27.1583 I85.2652 J27.1405
G0 Z3.0
G0 X86.5178 Y25.8884
G0 Z-1.5
G1 F300.0 Z-2.0
G2 F600.0 X86.5227 Y25.8921 I86.5352 J25.8705
G2 X86.5602 Y25.8705 I86.5352 J25.8705
G2 X86.5227 Y25.8488 I86.5352 J25.8705
G2 X86.5178 Y25.8884 I86.5352 J25.8705
G0 Z3.0
G0 X82.025 Y25.8502
G0 Z-1.5
G1 F300.0 Z-2.0
G1 F600.0 Y25.85
G2 X81.9875 Y25.8283 I82.0 J25.85
G2 Y25.8716 I82.0 J25.85
G2 X82.025 Y25.8502 I82.0 J25.85
G0 Z3.0
G0 X80.7479 Y27.1025
G0 Z-1.5
G1 F300.0 Z-2.0
G2 F600.0 X80.7175 Y27.0983 I80.73 J27.12
G2 Y27.1416 I80.73 J27.12
G2 X80.755 Y27.12 I80.73 J27.12
G2 X80.7479 Y27.1025 I80.73 J27.12
G0 Z3.0
G0 X81.9826 Y28.3721
G0 Z-1.5
G1 F300.0 Z-2.0
G2 F600.0 X81.9875 Y28.4116 I82.0 J28.39
G2 X82.025 Y28.39 I82.0 J28.39
G2 X81.9875 Y28.3683 I82.0 J28.39
G2 X81.9826 Y28.3721 I82.0 J28.39
G0 Z3.0
G0 X73.1252 Y28.39
G0 Z-1.5
G1 F300.0 Z-2.0
G2 F600.0 X73.0877 Y28.3684 I73.1002 J28.39
G2 Y28.4117 I73.1002 J28.39
G2 X73.1252 Y28.39 I73.1002 J28.39
G0 Z3.0
G0 X71.848 Y27.1375
G0 Z-1.5
G1 F300.0 Z-2.0
G2 F600.0 X71.8552 Y27.12 I71.8302 J27.12
G2 X71.8177 Y27.0984 I71.8302 J27.12
G2 Y27.1417 I71.8302 J27.12
G2 X71.848 Y27.1375 I71.8302 J27.12
G0 Z3.0
G0 X73.0827 Y25.8679
G0 Z-1.5
G1 F300.0 Z-2.0
G2 F600.0 X73.0877 Y25.8717 I73.1002 J25.85
G2 X73.1252 Y25.85 I73.1002 J25.85
G2 X73.0877 Y25.8284 I73.1002 J25.85
G2 X73.0827 Y25.8679 I73.1002 J25.85
G0 Z3.0
G0 X32.1 Y41.3
G0 Z-1.5
G1 F300.0 Z-2.0
G1 F600.0 X30.6
G3 X30.1333 Y40.9795 I30.6 J40.8
G1 X29.7566 Y40.0
G1 X16.1
G1 Y47.0
G1 X29.7566
G1 X30.1333 Y46.0205
G3 X30.6 Y45.7 I30.6 J46.2
G1 X32.1
G1 Y41.3
G0 Z3.0
G0 X33.9133 Y58.3078
G0 Z-1.5
G1 F300.0 Z-2.0
G2 F600.0 X29.875 Y77.3768 I35.0 J68.5
G2 X45.25 Y68.5226 I35.0 J68.5
G2 Y68.5 I35.0 J68.5
G2 X33.9133 Y58.3078 I35.0 J68.5
G0 Z3.0
G0 X15.147 Y52.6456
G0 Z-1.5
G1 F300.0 Z-2.0
G2 F600.0 X15.1464 Y52.6436 I15.145 J52.645
G3 X15.0 Y52.29 I15.5 J52.29
G1 Y50.71
G3 X15.1464 Y50.3564 I15.5 J50.71
G2 X15.1436 Y50.3536 I15.145 J50.355
G3 X14.79 Y50.5 I14.79 J50.0
G1 X14.71
G3 X14.3564 Y50.3536 I14.71 J50.0
G2 X14.3536 Y50.3564 I14.355 J50.355
G3 X14.5 Y50.71 I14.0 J50.71
G1 Y52.29
G3 X14.3536 Y52.6436 I14.0 J52.29
G2 X14.3564 Y52.6464 I14.355 J52.645
G3 X14.71 Y52.5 I14.71 J53.0
G1 X14.79
G3 X15.1436 Y52.6464 I14.79 J53.0
G2 X15.147 Y52.6456 I15.145 J52.645
G0 Z3.0
G0 X15.145 Y36.647
G0 Z-1.5
G1 F300.0 Z-2.0
G2 F600.0 X15.1464 Y36.6436 I15.145 J36.645
G3 X15.0 Y36.29 I15.5 J36.29
G1 Y34.71
G3 X15.1464 Y34.3564 I15.5 J34.71
G2 X15.1436 Y34.3536 I15.145 J34.355
G3 X14.79 Y34.5 I14.79 J34.0
G1 X14.71
G3 X14.3564 Y34.3536 I14.71 J34.0
G2 X14.3536 Y34.3564 I14.355 J34.355
G3 X14.5 Y34.71 I14.0 J34.71
G1 Y36.29
G3 X14.3536 Y36.6436 I14.0 J36.29
G2 X14.3564 Y36.6464 I14.355 J36.645
G3 X14.71 Y36.5 I14.71 J37.0
G1 X14.79
G3 X15.1436 Y36.6464 I14.79 J37.0
G2 X15.145 Y36.647 I15.145 J36.645
G0 Z3.0
G0 Y12.647
G0 Z-1.5
G1 F300.0 Z-2.0
G2 F600.0 X15.1464 Y12.6436 I15.145 J12.645
G3 X15.0 Y12.29 I15.5 J12.29
G1 Y10.71
G3 X15.1464 Y10.3564 I15.5 J10.71
G2 X15.1436 Y10.3536 I15.145 J10.355
G3 X14.79 Y10.5 I14.79 J10.0
G1 X14.71
G3 X14.3564 Y10.3536 I14.71 J10.0
G2 X14.3536 Y10.3564 I14.355 J10.355
G3 X14.5 Y10.71 I14.0 J10.71
G1 Y12.29
G3 X14.3536 Y12.6436 I14.0 J12.29
G2 X14.3564 Y12.6464 I14.355 J12.645
G3 X14.71 Y12.5 I14.71 J13.0
G1 X14.79
G3 X15.1436 Y12.6464 I14.79 J13.0
G2 X15.145 Y12.647 I15.145 J12.645
G0 Z3.0
G0 X3.5934 Y72.2188
G0 Z-1.5
G1 F300.0 Z-2.0
G1 F600.0 X6.5769 Y72.5324
G0 Z3.0
G0 X14.3539 Y84.8533
G0 Z-1.5
G1 F300.0 Z-2.0
G2 F600.0 X14.3536 Y84.8564 I14.355 J84.855
G3 X14.5 Y85.21 I14.0 J85.21
G1 Y86.79
G3 X14.3536 Y87.1436 I14.0 J86.79
G2 X14.3564 Y87.1464 I14.355 J87.145
G3 X14.71 Y87.0 I14.71 J87.5
G1 X14.79
G3 X15.1436 Y87.1464 I14.79 J87.5
G2 X15.1464 Y87.1436 I15.145 J87.145
G3 X15.0 Y86.79 I15.5 J86.79
G1 Y85.21
G3 X15.1464 Y84.8564 I15.5 J85.21
G2 X15.1436 Y84.8536 I15.145 J84.855
G3 X14.79 Y85.0 I14.79 J84.5
G1 X14.71
G3 X14.3564 Y84.8536 I14.71 J84.5
G2 X14.3539 Y84.8533 I14.355 J84.855
G0 Z3.0
G0 X21.6386 Y87.0065
G0 Z-1.5
G1 F300.0 Z-2.0
G2 F600.0 X21.5972 Y88.8407 I25.0 J88.0
G2 X22.6364 Y90.5883 I25.0 J88.0
G1 X26.0387 Y93.6953
G2 X26.675 Y94.161 I28.5 J91.0
G2 X28.5 Y94.65 I28.5 J91.0
G1 X35.0
G1 X41.5
G2 X43.325 Y94.161 I41.5 J91.0
G2 X43.9613 Y93.6953 I41.5 J91.0
G1 X47.3636 Y90.5883
G2 X48.4028 Y88.8407 I45.0 J88.0
G2 X46.7526 Y84.9645 I45.0 J88.0
G2 X43.6345 Y84.7718 I45.0 J88.0
G1 X42.1485 Y85.4004
G3 X35.0 Y86.85 I35.0 J68.5
G3 X27.8515 Y85.4004 I35.0 J68.5
G1 X26.3655 Y84.7718
G2 X23.2474 Y84.9645 I25.0 J88.0
G2 X21.6386 Y87.0065 I25.0 J88.0
G0 Z3.0
G0 X54.853 Y87.145
G0 Z-1.5
G1 F300.0 Z-2.0
G2 F600.0 X54.8564 Y87.1464 I54.855 J87.145
G3 X55.21 Y87.0 I55.21 J87.5
G1 X55.29
G3 X55.6436 Y87.1464 I55.29 J87.5
G2 X55.6464 Y87.1436 I55.645 J87.145
G3 X55.5 Y86.79 I56.0 J86.79
G1 Y85.21
G3 X55.6464 Y84.8564 I56.0 J85.21
G2 X55.6436 Y84.8536 I55.645 J84.855
G3 X55.29 Y85.0 I55.29 J84.5
G1 X55.21
G3 X54.8564 Y84.8536 I55.21 J84.5
G2 X54.8536 Y84.8564 I54.855 J84.855
G3 X55.0 Y85.21 I54.5 J85.21
G1 Y86.79
G3 X54.8536 Y87.1436 I54.5 J86.79
G2 X54.853 Y87.145 I54.855 J87.145
G0 Z3.0
G0 X66.4066 Y72.2188
G0 Z-1.5
G1 F300.0 Z-2.0
G1 F600.0 X63.4231 Y72.5324
G0 Z3.0
G0 X79.5106 Y75.8976
G0 Z-1.5
G1 F300.0 Z-2.0
G2 F600.0 X79.5 Y76.0 I80.0 J76.0
G1 Y80.0
G2 X80.5 I80.0 J80.0
G1 Y76.0
G2 X79.5106 Y75.8976 I80.0 J76.0
G0 Z3.0
G0 X79.1985 Y83.5645
G0 Z-1.5
G1 F300.0 Z-2.0
G2 F600.0 X79.185 Y83.5679 I79.1975 J83.5895
G2 Y83.6112 I79.1975 J83.5895
G2 X79.2225 Y83.5895 I79.1975 J83.5895
G2 X79.1985 Y83.5645 I79.1975 J83.5895
G0 Z3.0
G0 X80.45 Y84.8417
G0 Z-1.5
G1 F300.0 Z-2.0
G2 F600.0 X80.455 Y84.8812 I80.4675 J84.8595
G2 X80.4925 Y84.8595 I80.4675 J84.8595
G2 X80.455 Y84.8379 I80.4675 J84.8595
G2 X80.45 Y84.8417 I80.4675 J84.8595
G0 Z3.0
G0 X79.2149 Y86.1116
G0 Z-1.5
G1 F300.0 Z-2.0
G2 F600.0 X79.185 Y86.1079 I79.1975 J86.1295
G2 Y86.1512 I79.1975 J86.1295
G2 X79.2225 Y86.1295 I79.1975 J86.1295
G2 X79.2149 Y86.1116 I79.1975 J86.1295
( Contour2 )
G0 Z3.0
G0 X11.5 Y63.5
G0 Z0.5
G1 F300.0 Z-2.0
G1 F600.0 Y23.5
G2 X9.1351 Y20.1892 I8.0 J23.5
G3 X6.5 Y16.5 I10.4 J16.5
G1 Y15.5
G3 X11.1372 Y7.9284 I15.0 J15.5
G1 X25.5006 Y0.6007
G3 X28.0 Y0.0 I28.0 J5.5
G1 X42.0
G3 X44.4994 Y0.6007 I42.0 J5.5
G1 X58.8628 Y7.9284
G3 X63.5 Y15.5 I55.0 J15.5
G1 Y16.5
G3 X60.8649 Y20.1892 I59.6 J16.5
G2 X58.5 Y23.5 I62.0 J23.5
G1 Y63.5
G2 X61.0 Y66.0 I61.0 J63.5
G3 X67.5962 Y68.7322 I61.0 J75.3284
G1 X69.182 Y70.318
G3 X70.5 Y73.5 I66.0 J73.5
G1 Y75.0
G3 X69.1924 Y78.1569 I66.0355 J75.0
G1 X52.4246 Y94.9246
G3 X45.0 Y98.0 I45.0 J87.5
G1 X25.0
G3 X17.5754 Y94.9246 I25.0 J87.5
G1 X0.8076 Y78.1569
G3 X-0.5 Y75.0 I3.9645 J75.0
G1 Y73.5
G3 X0.818 Y70.318 I4.0 J73.5
G1 X2.4038 Y68.7322
G3 X9.0 Y66.0 I9.0 J75.3284
G2 X11.5 Y63.5 I9.0 J63.5
G0 Z3.0
G0 X65.5117 Y51.6075
G0 Z0.5
G1 F300.0 Z-2.0
G3 F600.0 X65.5 Y51.5 I66.0 J51.5
G1 Y51.0
G3 X65.6464 Y50.6464 I66.0 J51.0
G1 X66.5 Y49.7929
G1 Y47.2071
G1 X63.6464 Y44.3536
G3 X63.5 Y44.0 I64.0 J44.0
G1 Y43.5
G3 X64.0 Y43.0 I64.0 J43.5
G1 X65.0
G1 X66.2929
G3 X66.6464 Y43.1464 I66.2929 J43.5
G3 X66.5 Y42.7929 I67.0 J42.7929
G1 Y42.0
G3 X67.0 Y41.5 I67.0 J42.0
G1 X71.0
G3 X71.5 Y42.0 I71.0 J42.0
G1 Y42.7929
G3 X71.3536 Y43.1464 I71.0 J42.7929
G3 X71.7071 Y43.0 I71.7071 J43.5
G1 X80.0
G3 X80.5 Y43.5 I80.0 J43.5
G1 Y44.0
G3 X80.3536 Y44.3536 I80.0 J44.0
G1 X79.5 Y45.2071
G1 Y47.5
G1 Y50.2929
G1 X80.2071 Y51.0
G1 X83.0
G1 X89.0
G3 X89.5 Y51.5 I89.0 J51.5
G1 Y60.2929
G1 X90.3536 Y61.1464
G3 X90.5 Y61.5 I90.0 J61.5
G1 Y62.5
G3 X90.0 Y63.0 I90.0 J62.5
G1 X89.7071
G3 X89.3536 Y62.8536 I89.7071 J62.5
G3 X89.5 Y63.2071 I89.0 J63.2071
G1 Y64.5
G3 X89.0 Y65.0 I89.0 J64.5
G1 X81.0
G3 X80.5 Y64.5 I81.0 J64.5
G1 Y63.2071
G3 X80.6464 Y62.8536 I81.0 J63.2071
G3 X80.2929 Y63.0 I80.2929 J62.5
G1 X74.7071
G3 X74.3536 Y62.8536 I74.7071 J62.5
G3 X74.5 Y63.2071 I74.0 J63.2071
G1 Y64.5
G3 X74.0 Y65.0 I74.0 J64.5
G1 X69.0
G3 X68.5 Y64.5 I69.0 J64.5
G1 Y63.2071
G3 X68.6464 Y62.8536 I69.0 J63.2071
G3 X68.2929 Y63.0 I68.2929 J62.5
G1 X68.0
G3 X67.5 Y62.5 I68.0 J62.5
G1 Y61.5
G3 X67.6464 Y61.1464 I68.0 J61.5
G1 X68.5 Y60.2929
G1 Y52.2071
G3 X68.6464 Y51.8536 I69.0 J52.2071
G3 X68.2929 Y52.0 I68.2929 J51.5
G1 X66.0
G3 X65.5117 Y51.6075 I66.0 J51.5
G0 Z3.0
G0 X78.6414 Y38.8485
G0 Z0.5
G1 F300.0 Z-2.0
G3 F600.0 X78.5 Y38.5 I79.0 J38.5
G1 Y38.0
G3 X78.6464 Y37.6464 I79.0 J38.0
G1 X79.5 Y36.7929
G1 Y34.5
G1 Y31.7071
G1 X78.7929 Y31.0
G1 X76.0
G1 X70.0
G3 X69.5 Y30.5 I70.0 J30.5
G1 Y21.7071
G1 X68.6464 Y20.8536
G3 X68.5 Y20.5 I69.0 J20.5
G1 Y19.5
G3 X69.0 Y19.0 I69.0 J19.5
G1 X69.2929
G3 X69.6464 Y19.1464 I69.2929 J19.5
G3 X69.5 Y18.7929 I70.0 J18.7929
G1 Y17.5
G3 X70.0 Y17.0 I70.0 J17.5
G1 X78.0
G3 X78.5 Y17.5 I78.0 J17.5
G1 Y18.7929
G3 X78.3536 Y19.1464 I78.0 J18.7929
G3 X78.7071 Y19.0 I78.7071 J19.5
G1 X84.2929
G3 X84.6464 Y19.1464 I84.2929 J19.5
G3 X84.5 Y18.7929 I85.0 J18.7929
G1 Y17.5
G3 X85.0 Y17.0 I85.0 J17.5
G1 X90.0
G3 X90.5 Y17.5 I90.0 J17.5
G1 Y18.7929
G3 X90.3536 Y19.1464 I90.0 J18.7929
G3 X90.7071 Y19.0 I90.7071 J19.5
G1 X91.0
G3 X91.5 Y19.5 I91.0 J19.5
G1 Y20.5
G3 X91.3536 Y20.8536 I91.0 J20.5
G1 X90.5 Y21.7071
G1 Y29.7929
G3 X90.3536 Y30.1464 I90.0 J29.7929
G3 X90.7071 Y30.0 I90.7071 J30.5
G1 X93.0
G3 X93.5 Y30.5 I93.0 J30.5
G1 Y31.0
G3 X93.3536 Y31.3536 I93.0 J31.0
G1 X92.5 Y32.2071
G1 Y34.7929
G1 X95.3536 Y37.6464
G3 X95.5 Y38.0 I95.0 J38.0
G1 Y38.5
G3 X95.0 Y39.0 I95.0 J38.5
G1 X94.0
G1 X92.7071
G3 X92.3536 Y38.8536 I92.7071 J38.5
G3 X92.5 Y39.2071 I92.0 J39.2071
G1 Y40.0
G3 X92.0 Y40.5 I92.0 J40.0
G1 X88.0
G3 X87.5 Y40.0 I88.0 J40.0
G1 Y39.2071
G3 X87.6464 Y38.8536 I88.0 J39.2071
G3 X87.2929 Y39.0 I87.2929 J38.5
G1 X79.0
G3 X78.6414 Y38.8485 I79.0 J38.5
G0 Z3.0
G0 X100.5
G0 Z0.5
G1 F300.0 Z-2.0
G1 F600.0 Y23.5
G2 X98.1351 Y20.1892 I97.0 J23.5
G3 X95.5 Y16.5 I99.4 J16.5
G1 Y15.5
G3 X100.1372 Y7.9284 I104.0 J15.5
G1 X114.5006 Y0.6007
G3 X117.0 Y0.0 I117.0 J5.5
G1 X124.0
G1 X131.0
G3 X133.4994 Y0.6007 I131.0 J5.5
G1 X147.8628 Y7.9284
G3 X152.5 Y15.5 I144.0 J15.5
G1 Y16.5
G3 X149.8649 Y20.1892 I148.6 J16.5
G2 X147.5 Y23.5 I151.0 J23.5
G1 Y63.5
G2 X150.0 Y66.0 I150.0 J63.5
G3 X156.5962 Y68.7322 I150.0 J75.3284
G1 X158.182 Y70.318
G3 X159.5 Y73.5 I155.0 J73.5
G1 Y75.0
G3 X158.1924 Y78.1569 I155.0355 J75.0
G1 X141.4246 Y94.9246
G3 X134.0 Y98.0 I134.0 J87.5
G1 X124.0
G1 X114.0
G3 X106.5754 Y94.9246 I114.0 J87.5
G1 X89.8076 Y78.1569
G3 X88.5 Y75.0 I92.9645 J75.0
G1 Y73.5
G3 X89.818 Y70.318 I93.0 J73.5
G1 X91.4038 Y68.7322
G3 X98.0 Y66.0 I98.0 J75.3284
G2 X100.5 Y63.5 I98.0 J63.5
G1 Y38.8485
G0 Z3.0
G0 X88.3804 Y12.1433
G0 Z0.5
G1 F300.0 Z-2.0
G3 F600.0 X86.5 Y12.55 I86.5 J8.0
G1 X80.0
G1 X73.5
G3 X71.225 Y11.9404 I73.5 J8.0
G3 X70.4318 Y11.3599 I73.5 J8.0
G1 X67.0295 Y8.2529
G3 X65.7235 Y6.0566 I70.0 J5.0
G3 X67.7974 Y1.185 I70.0 J5.0
G3 X71.7161 Y0.9429 I70.0 J5.0
G1 X73.2021 Y1.5715
G2 X80.0 Y2.95 I80.0 J-14.5
G2 X86.7979 Y1.5715 I80.0 J-14.5
G1 X88.2839 Y0.9429
G3 X92.2026 Y1.1851 I90.0 J5.0
G3 X94.2765 Y6.0566 I90.0 J5.0
G3 X92.9705 Y8.2529 I90.0 J5.0
G1 X89.5682 Y11.3599
G3 X88.775 Y11.9404 I86.5 J8.0
G3 X88.3804 Y12.1433 I86.5 J8.0
G0 Z3.0
G0 X81.0612 Y71.5038
G0 Z0.5
G1 F300.0 Z-2.0
G3 F600.0 X81.5 Y72.0 I81.0 J72.0
G1 Y72.7929
G3 X81.3536 Y73.1464 I81.0 J72.7929
G3 X81.7071 Y73.0 I81.7071 J73.5
G1 X84.0
G3 X84.5 Y73.5 I84.0 J73.5
G1 Y74.0
G3 X84.3536 Y74.3536 I84.0 J74.0
G1 X83.0 Y75.7071
G1 Y79.7929
G1 X83.3536 Y80.1464
G1 X84.3536 Y81.1464
G3 X84.5 Y81.5 I84.0 J81.5
G1 Y92.5
G3 X84.0 Y93.0 I84.0 J92.5
G1 X82.7071
G3 X82.3536 Y92.8536 I82.7071 J92.5
G3 X82.5 Y93.2071 I82.0 J93.2071
G1 Y94.5
G3 X82.0 Y95.0 I82.0 J94.5
G1 X74.0
G3 X73.5 Y94.5 I74.0 J94.5
G1 Y93.2071
G3 X73.6464 Y92.8536 I74.0 J93.2071
G3 X73.2929 Y93.0 I73.2929 J92.5
G1 X73.0
G3 X72.5 Y92.5 I73.0 J92.5
G1 Y91.5
G3 X72.6464 Y91.1464 I73.0 J91.5
G1 X73.5 Y90.2929
G1 Y81.5
G3 X74.0 Y81.0 I74.0 J81.5
G1 X76.2929
G1 X77.0 Y80.2929
G1 Y75.2071
G1 X76.1464 Y74.3536
G3 X76.0 Y74.0 I76.5 J74.0
G1 Y73.5
G3 X76.5 Y73.0 I76.5 J73.5
G1 X77.2929
G3 X77.6464 Y73.1464 I77.2929 J73.5
G3 X77.5 Y72.7929 I78.0 J72.7929
G1 Y72.0
G3 X78.0 Y71.5 I78.0 J72.0
G1 X81.0
G3 X81.0612 Y71.5038 I81.0 J72.0
G0 Z3.0
G0 X154.5607 Y61.3864
G0 Z0.5
G1 F300.0 Z-2.0
G3 F600.0 X157.75 Y54.8708 I161.0 J60.5
G3 X167.5 Y60.5 I161.0 J60.5
G3 X157.75 Y66.1292 I161.0 J60.5
G3 X154.5607 Y61.3864 I161.0 J60.5
G0 Z3.0
G0 Y52.0
G0 Z0.5
G1 F300.0 Z-2.0
G1 F600.0 X153.5
G3 X153.0 Y51.5 I153.5 J51.5
G1 Y50.2071
G3 X153.1464 Y49.8536 I153.5 J50.2071
G3 X152.7929 Y50.0 I152.7929 J49.5
G1 X152.5
G3 X152.0 Y49.5 I152.5 J49.5
G1 Y48.5
G3 X152.1464 Y48.1464 I152.5 J48.5
G1 X153.0 Y47.2929
G1 Y38.5
G3 X153.5 Y38.0 I153.5 J38.5
G1 X155.7929
G1 X156.5 Y37.2929
G1 Y32.2071
G1 X155.6464 Y31.3536
G3 X155.5 Y31.0 I156.0 J31.0
G1 Y30.5
G3 X156.0 Y30.0 I156.0 J30.5
G1 X156.7929
G3 X157.1464 Y30.1464 I156.7929 J30.5
G3 X157.0 Y29.7929 I157.5 J29.7929
G1 Y29.0
G3 X157.5 Y28.5 I157.5 J29.0
G1 X160.5
G3 X161.0 Y29.0 I160.5 J29.0
G1 Y29.7929
G3 X160.8536 Y30.1464 I160.5 J29.7929
G3 X161.2071 Y30.0 I161.2071 J30.5
G1 X163.5
G3 X164.0 Y30.5 I163.5 J30.5
G1 Y31.0
G3 X163.8536 Y31.3536 I163.5 J31.0
G1 X162.5 Y32.7071
G1 Y36.7929
G1 X162.8536 Y37.1464
G1 X163.8536 Y38.1464
G3 X164.0 Y38.5 I163.5 J38.5
G1 Y49.5
G3 X163.5 Y50.0 I163.5 J49.5
G1 X162.2071
G3 X161.8536 Y49.8536 I162.2071 J49.5
G3 X162.0 Y50.2071 I161.5 J50.2071
G1 Y51.5
G3 X161.5 Y52.0 I161.5 J51.5
G1 X154.5607
G0 Z3.0
G0 X159.7367 Y25.8761
G0 Z0.5
G1 F300.0 Z-2.0
G3 F600.0 X157.75 Y25.1292 I161.0 J19.5
G3 Y13.8708 I161.0 J19.5
G3 X167.5 Y19.5 I161.0 J19.5
G3 X159.7367 Y25.8761 I161.0 J19.5
G0 Z3.0
M5
M30
