( Made using CamBam - http://www.cambam.co.uk )
( Impeller_5 12/16/2016 4:04:51 PM )
( T4 : 1.5 )
G21 G90 G64 G40
G0 Z3.0
( T4 : 1.5 )
T4 M6
( Avant Trou )
G17
M3
G0 X21.65 Y15.9
G0 Z0.5
G1 F300.0 Z-1.5
G2 F800.0 X13.175 Y11.007 I16.0 J15.9
G2 Y20.793 I16.0 J15.9
G2 X21.65 Y15.9 I16.0 J15.9
G1 F300.0 Z-3.0
G2 F800.0 X13.175 Y11.007 I16.0 J15.9
G2 Y20.793 I16.0 J15.9
G2 X21.65 Y15.9 I16.0 J15.9
G1 F300.0 Z-4.5
G2 F800.0 X13.175 Y11.007 I16.0 J15.9
G2 Y20.793 I16.0 J15.9
G2 X21.65 Y15.9 I16.0 J15.9
G1 F300.0 Z-6.0
G2 F800.0 X13.175 Y11.007 I16.0 J15.9
G2 Y20.793 I16.0 J15.9
G2 X21.65 Y15.9 I16.0 J15.9
G1 F300.0 Z-7.5
G2 F800.0 X13.175 Y11.007 I16.0 J15.9
G2 Y20.793 I16.0 J15.9
G2 X21.65 Y15.9 I16.0 J15.9
G1 F300.0 Z-9.0
G2 F800.0 X13.175 Y11.007 I16.0 J15.9
G2 Y20.793 I16.0 J15.9
G2 X21.65 Y15.9 I16.0 J15.9
( BAs )
G0 Z3.0
G0 X20.0659 Y25.844
G0 Z0.5
G1 F300.0 Z-1.0
G2 F800.0 X19.8506 Y25.4495 I18.4349 J26.4782
G2 X16.8362 Y25.7664 I18.4349 J26.4782
G2 X18.6178 Y28.2186 I18.4349 J26.4782
G2 X19.4986 Y27.8677 I18.4349 J26.4782
G3 X18.3588 Y27.5556 I23.7184 J10.2239
G3 X18.3319 Y27.5467 I18.5804 J26.839
G3 X17.7303 Y26.2744 I18.6597 J26.6133
G3 X17.8267 Y26.0925 I18.4349 J26.5313
G3 X19.1847 Y25.6115 I18.8532 J26.8331
G3 X19.1996 Y25.6157 I18.9883 J26.3353
G2 X20.0659 Y25.844 I23.7184 J10.2239
G0 Z3.0
G0 X26.489 Y28.1525
G0 Z0.5
G1 F300.0 Z-1.0
G2 F800.0 X27.8452 Y28.5945 I27.6623 J26.854
G2 X29.0781 Y25.8254 I27.6623 J26.854
G2 X26.0882 Y26.0893 I27.6623 J26.854
G2 X27.42 Y25.8324 I23.7184 J10.2239
G2 X27.8337 Y25.7284 I23.7184 J10.2239
G3 X28.5898 Y26.948 I28.0261 J26.4533
G3 X28.209 Y27.3675 I16.0 J15.9
G3 X27.8096 Y27.7784 I16.0 J15.9
G3 X27.4344 Y27.9806 I27.2808 J27.2465
G3 X26.489 Y28.1525 I23.7184 J10.2239
G0 Z3.0
G0 X25.1343 Y21.555
G0 Z0.5
G1 F300.0 Z-1.0
G2 F800.0 X24.7283 Y21.3624 I24.1875 J23.0267
G2 X22.4758 Y23.3906 I24.1875 J23.0267
G2 X25.3585 Y24.3272 I24.1875 J23.0267
G2 X25.8649 Y23.5257 I24.1875 J23.0267
G3 X24.7593 Y23.9431 I18.908 J6.7712
G3 X24.7323 Y23.9517 I24.5174 J23.2331
G3 X23.4978 Y23.2761 I24.4489 J23.0039
G3 X23.4688 Y23.0722 I24.2188 J23.0697
G3 X24.2848 Y21.8848 I24.7346 J23.068
G3 X24.2993 Y21.8795 I24.5513 J22.5859
G2 X25.1343 Y21.555 I18.908 J6.7712
G0 Z3.0
G0 X31.6876 Y19.6472
G0 Z0.5
G1 F300.0 Z-1.0
G2 F800.0 X33.0446 Y19.2076 I31.8736 J17.9071
G2 X32.4144 Y16.2427 I31.8736 J17.9071
G2 X30.1507 Y18.2136 I31.8736 J17.9071
G2 X31.0771 Y17.223 I18.908 J6.7712
G2 X31.3507 Y16.8957 I18.908 J6.7712
G3 X32.6792 Y17.4379 I31.9324 J17.3691
G3 X32.6177 Y18.0012 I16.0 J15.9
G3 X32.5361 Y18.5683 I16.0 J15.9
G3 X32.3515 Y18.9525 I31.7957 J18.4489
G3 X31.6876 Y19.6472 I18.908 J6.7712
G0 Z3.0
G0 X26.7137 Y15.106
G0 Z0.5
G1 F300.0 Z-1.0
G2 F800.0 X26.2721 Y15.1888 I26.8128 J16.8531
G2 X25.6419 Y18.1536 I26.8128 J16.8531
G2 X28.5246 Y17.217 I26.8128 J16.8531
G2 X28.4631 Y16.2708 I26.8128 J16.8531
G3 X27.814 Y17.2584 I12.9868 J6.8054
G3 X27.7972 Y17.2812 I27.201 J16.8262
G3 X26.4013 Y17.4603 I27.0108 J16.6811
G3 X26.2581 Y17.3124 I26.8634 J16.8695
G3 X26.2203 Y15.8722 I27.2797 J16.565
G3 X26.2289 Y15.8593 I26.848 J16.2826
G2 X26.7137 Y15.106 I12.9868 J6.8054
G0 Z3.0
G0 X30.8941 Y9.7106
G0 Z0.5
G1 F300.0 Z-1.0
G2 F800.0 X31.7335 Y8.5573 I30.0218 J8.1935
G2 X29.481 Y6.5291 I30.0218 J8.1935
G2 X28.808 Y9.4542 I30.0218 J8.1935
G2 X28.9752 Y8.1082 I12.9868 J6.8054
G2 X29.0042 Y7.6827 I12.9868 J6.8054
G3 X30.3978 Y7.3404 I29.7531 J7.7237
G3 X30.679 Y7.8323 I16.0 J15.9
G3 X30.9464 Y8.3391 I16.0 J15.9
G3 X31.0228 Y8.7584 I30.2772 J8.6776
G3 X30.8941 Y9.7106 I12.9868 J6.8054
G0 Z3.0
G0 X24.2008 Y8.9602
G0 Z0.5
G1 F300.0 Z-1.0
G2 F800.0 X23.8922 Y9.2869 I25.308 J10.3155
G2 X25.1251 Y12.0559 I25.308 J10.3155
G2 X26.9067 Y9.6037 I25.308 J10.3155
G2 X26.3009 Y8.8744 I25.308 J10.3155
G3 X26.3562 Y10.0548 I8.2166 J10.3134
G3 X26.356 Y10.0832 I25.6062 J10.0655
G3 X25.332 Y11.0485 I25.367 J10.0599
G3 X25.1291 Y11.0131 I25.3586 J10.299
G3 X24.2521 Y9.8701 I25.5163 J9.8079
G3 X24.2515 Y9.8547 I25.0011 J9.8333
G2 X24.2008 Y8.9602 I8.2166 J10.3134
G0 Z3.0
G0 X24.4115 Y2.1381
G0 Z0.5
G1 F300.0 Z-1.0
G2 F800.0 X24.4128 Y0.7117 I22.8141 J1.4235
G2 X21.3983 Y0.3949 I22.8141 J1.4235
G2 X22.5732 Y3.1569 I22.8141 J1.4235
G2 X21.9173 Y1.9697 I8.2166 J10.3134
G2 X21.6906 Y1.6083 I8.2166 J10.3134
G3 X22.6168 Y0.5123 I22.3206 J1.2013
G3 X23.1335 Y0.7449 I16.0 J15.9
G3 X23.6477 Y0.9978 I16.0 J15.9
G3 X23.9559 Y1.2921 I23.3053 J1.6651
G3 X24.4115 Y2.1381 I8.2166 J10.3134
G0 Z3.0
G0 X18.5555 Y5.4653
G0 Z0.5
G1 F300.0 Z-1.0
G2 F800.0 X18.4978 Y5.9109 I20.2478 J5.9109
G2 X21.1228 Y7.4265 I20.2478 J5.9109
G2 Y4.3954 I20.2478 J5.9109
G2 X20.204 Y4.1615 I20.2478 J5.9109
G3 X20.9426 Y5.084 I6.4194 J15.9553
G3 X20.9592 Y5.107 I20.3422 J5.5334
G3 X20.6981 Y6.4899 I20.1454 J5.6694
G3 X20.5132 Y6.5804 I20.2791 J5.8679
G3 X19.1318 Y6.1713 I20.118 J5.3778
G3 X19.1222 Y6.1592 I19.7161 J5.7012
G2 X18.5555 Y5.4653 I6.4194 J15.9553
G0 Z3.0
G0 X14.716 Y-0.1778
G0 Z0.5
G1 F300.0 Z-1.0
G2 F800.0 X13.8786 Y-1.3325 I13.0036 J0.1831
G2 X11.2536 Y0.1831 I13.0036 J0.1831
G2 X13.8276 Y1.727 I13.0036 J0.1831
G2 X12.5991 Y1.152 I6.4194 J15.9553
G2 X12.2034 Y0.993 I6.4194 J15.9553
G3 X12.3085 Y-0.4382 I12.4738 J0.2934
G3 X12.8632 Y-0.5537 I16.0 J15.9
G3 X13.4278 Y-0.6513 I16.0 J15.9
G3 X13.8502 Y-0.5944 I13.543 J0.0898
G3 X14.716 Y-0.1778 I6.4194 J15.9553
G0 Z3.0
G0 X11.9341 Y5.956
G0 Z0.5
G1 F300.0 Z-1.0
G2 F800.0 X12.1494 Y6.3505 I13.5651 J5.3218
G2 X15.1638 Y6.0336 I13.5651 J5.3218
G2 X13.3822 Y3.5814 I13.5651 J5.3218
G2 X12.5014 Y3.9323 I13.5651 J5.3218
G3 X13.6412 Y4.2444 I8.2816 J21.5761
G3 X13.6681 Y4.2533 I13.4196 J4.961
G3 X14.2697 Y5.5256 I13.3403 J5.1867
G3 X14.1733 Y5.7075 I13.5651 J5.2687
G3 X12.8153 Y6.1885 I13.1468 J4.9669
G3 X12.8004 Y6.1843 I13.0117 J5.4647
G2 X11.9341 Y5.956 I8.2816 J21.5761
G0 Z3.0
G0 X5.511 Y3.6475
G0 Z0.5
G1 F300.0 Z-1.0
G2 F800.0 X4.1548 Y3.2055 I4.3377 J4.946
G2 X2.9219 Y5.9746 I4.3377 J4.946
G2 X5.9118 Y5.7107 I4.3377 J4.946
G2 X4.58 Y5.9676 I8.2816 J21.5761
G2 X4.1663 Y6.0716 I8.2816 J21.5761
G3 X3.4102 Y4.852 I3.9739 J5.3467
G3 X3.791 Y4.4325 I16.0 J15.9
G3 X4.1904 Y4.0216 I16.0 J15.9
G3 X4.5656 Y3.8194 I4.7192 J4.5535
G3 X5.511 Y3.6475 I8.2816 J21.5761
G0 Z3.0
G0 X6.8657 Y10.245
G0 Z0.5
G1 F300.0 Z-1.0
G2 F800.0 X7.2717 Y10.4376 I7.8125 J8.7733
G2 X9.5242 Y8.4094 I7.8125 J8.7733
G2 X6.6415 Y7.4728 I7.8125 J8.7733
G2 X6.1351 Y8.2743 I7.8125 J8.7733
G3 X7.2407 Y7.8569 I13.092 J25.0288
G3 X7.2677 Y7.8483 I7.4826 J8.5669
G3 X8.5022 Y8.5239 I7.5511 J8.7961
G3 X8.5312 Y8.7278 I7.7812 J8.7303
G3 X7.7152 Y9.9152 I7.2654 J8.732
G3 X7.7007 Y9.9205 I7.4487 J9.2141
G2 X6.8657 Y10.245 I13.092 J25.0288
G0 Z3.0
G0 X0.3124 Y12.1528
G0 Z0.5
G1 F300.0 Z-1.0
G2 F800.0 X-1.0446 Y12.5924 I0.1264 J13.8929
G2 X-0.4144 Y15.5573 I0.1264 J13.8929
G2 X1.8493 Y13.5864 I0.1264 J13.8929
G2 X0.9229 Y14.577 I13.092 J25.0288
G2 X0.6493 Y14.9043 I13.092 J25.0288
G3 X-0.6792 Y14.3621 I0.0676 J14.4309
G3 X-0.6177 Y13.7988 I16.0 J15.9
G3 X-0.5361 Y13.2317 I16.0 J15.9
G3 X-0.3515 Y12.8475 I0.2043 J13.3511
G3 X0.3124 Y12.1528 I13.092 J25.0288
G0 Z3.0
G0 X5.2863 Y16.694
G0 Z0.5
G1 F300.0 Z-1.0
G2 F800.0 X5.7279 Y16.6112 I5.1872 J14.9469
G2 X6.3581 Y13.6464 I5.1872 J14.9469
G2 X3.4754 Y14.583 I5.1872 J14.9469
G2 X3.5369 Y15.5292 I5.1872 J14.9469
G3 X4.186 Y14.5416 I19.0132 J24.9946
G3 X4.2028 Y14.5188 I4.799 J14.9738
G3 X5.5987 Y14.3397 I4.9892 J15.1189
G3 X5.7419 Y14.4876 I5.1366 J14.9305
G3 X5.7797 Y15.9278 I4.7203 J15.235
G3 X5.7711 Y15.9407 I5.152 J15.5174
G2 X5.2863 Y16.694 I19.0132 J24.9946
G0 Z3.0
G0 X1.1059 Y22.0894
G0 Z0.5
G1 F300.0 Z-1.0
G2 F800.0 X0.2665 Y23.2427 I1.9782 J23.6065
G2 X2.519 Y25.2709 I1.9782 J23.6065
G2 X3.192 Y22.3458 I1.9782 J23.6065
G2 X3.0248 Y23.6918 I19.0132 J24.9946
G2 X2.9958 Y24.1173 I19.0132 J24.9946
G3 X1.6022 Y24.4596 I2.2469 J24.0763
G3 X1.321 Y23.9677 I16.0 J15.9
G3 X1.0536 Y23.4609 I16.0 J15.9
G3 X0.9772 Y23.0416 I1.7228 J23.1224
G3 X1.1059 Y22.0894 I19.0132 J24.9946
G0 Z3.0
G0 X7.7992 Y22.8398
G0 Z0.5
G1 F300.0 Z-1.0
G2 F800.0 X8.1078 Y22.5131 I6.692 J21.4845
G2 X6.8749 Y19.7441 I6.692 J21.4845
G2 X5.0933 Y22.1963 I6.692 J21.4845
G2 X5.6991 Y22.9256 I6.692 J21.4845
G3 X5.6438 Y21.7452 I23.7834 J21.4866
G3 X5.644 Y21.7168 I6.3938 J21.7345
G3 X6.668 Y20.7515 I6.633 J21.7401
G3 X6.8709 Y20.7869 I6.6414 J21.501
G3 X7.7479 Y21.9299 I6.4837 J21.9921
G3 X7.7485 Y21.9453 I6.9989 J21.9667
G2 X7.7992 Y22.8398 I23.7834 J21.4866
G0 Z3.0
G0 X7.5885 Y29.6619
G0 Z0.5
G1 F300.0 Z-1.0
G2 F800.0 X7.5872 Y31.0883 I9.1859 J30.3765
G2 X10.6017 Y31.4051 I9.1859 J30.3765
G2 X9.4268 Y28.6431 I9.1859 J30.3765
G2 X10.0827 Y29.8303 I23.7834 J21.4866
G2 X10.3094 Y30.1917 I23.7834 J21.4866
G3 X9.3832 Y31.2877 I9.6794 J30.5987
G3 X8.8665 Y31.0551 I16.0 J15.9
G3 X8.3523 Y30.8022 I16.0 J15.9
G3 X8.0441 Y30.5079 I8.6947 J30.1349
G3 X7.5885 Y29.6619 I23.7834 J21.4866
G0 Z3.0
G0 X13.4445 Y26.3347
G0 Z0.5
G1 F300.0 Z-1.0
G2 F800.0 X13.5022 Y25.8891 I11.7522 J25.8891
G2 X10.8772 Y24.3735 I11.7522 J25.8891
G2 Y27.4046 I11.7522 J25.8891
G2 X11.796 Y27.6385 I11.7522 J25.8891
G3 X11.0574 Y26.716 I25.5806 J15.8447
G3 X11.0408 Y26.693 I11.6578 J26.2666
G3 X11.3019 Y25.3101 I11.8546 J26.1306
G3 X11.4868 Y25.2196 I11.7209 J25.9321
G3 X12.8682 Y25.6287 I11.882 J26.4222
G3 X12.8778 Y25.6408 I12.2839 J26.0988
G2 X13.4445 Y26.3347 I25.5806 J15.8447
G0 Z3.0
G0 X17.284 Y31.9778
G0 Z0.5
G1 F300.0 Z-1.0
G2 F800.0 X18.1214 Y33.1325 I18.9964 J31.6169
G2 X20.7464 Y31.6169 I18.9964 J31.6169
G2 X18.1724 Y30.073 I18.9964 J31.6169
G2 X19.4009 Y30.648 I25.5806 J15.8447
G2 X19.7966 Y30.807 I25.5806 J15.8447
G3 X19.6915 Y32.2382 I19.5262 J31.5066
G3 X19.1368 Y32.3537 I16.0 J15.9
G3 X18.5722 Y32.4513 I16.0 J15.9
G3 X18.1498 Y32.3944 I18.457 J31.7102
G3 X17.284 Y31.9778 I25.5806 J15.8447
G0 Z3.0
G0 X20.0659 Y25.844
G0 Z-0.5
G1 F300.0 Z-2.0
G2 F800.0 X19.8506 Y25.4495 I18.4349 J26.4782
G2 X16.8362 Y25.7664 I18.4349 J26.4782
G2 X18.6178 Y28.2186 I18.4349 J26.4782
G2 X19.4986 Y27.8677 I18.4349 J26.4782
G3 X18.3588 Y27.5556 I23.7184 J10.2239
G3 X18.3319 Y27.5467 I18.5804 J26.839
G3 X17.7303 Y26.2744 I18.6597 J26.6133
G3 X17.8267 Y26.0925 I18.4349 J26.5313
G3 X19.1847 Y25.6115 I18.8532 J26.8331
G3 X19.1996 Y25.6157 I18.9883 J26.3353
G2 X20.0659 Y25.844 I23.7184 J10.2239
G0 Z3.0
G0 X26.489 Y28.1525
G0 Z-0.5
G1 F300.0 Z-2.0
G2 F800.0 X27.8452 Y28.5945 I27.6623 J26.854
G2 X29.0781 Y25.8254 I27.6623 J26.854
G2 X26.0882 Y26.0893 I27.6623 J26.854
G2 X27.42 Y25.8324 I23.7184 J10.2239
G2 X27.8337 Y25.7284 I23.7184 J10.2239
G3 X28.5898 Y26.948 I28.0261 J26.4533
G3 X28.209 Y27.3675 I16.0 J15.9
G3 X27.8096 Y27.7784 I16.0 J15.9
G3 X27.4344 Y27.9806 I27.2808 J27.2465
G3 X26.489 Y28.1525 I23.7184 J10.2239
G0 Z3.0
G0 X25.1343 Y21.555
G0 Z-0.5
G1 F300.0 Z-2.0
G2 F800.0 X24.7283 Y21.3624 I24.1875 J23.0267
G2 X22.4758 Y23.3906 I24.1875 J23.0267
G2 X25.3585 Y24.3272 I24.1875 J23.0267
G2 X25.8649 Y23.5257 I24.1875 J23.0267
G3 X24.7593 Y23.9431 I18.908 J6.7712
G3 X24.7323 Y23.9517 I24.5174 J23.2331
G3 X23.4978 Y23.2761 I24.4489 J23.0039
G3 X23.4688 Y23.0722 I24.2188 J23.0697
G3 X24.2848 Y21.8848 I24.7346 J23.068
G3 X24.2993 Y21.8795 I24.5513 J22.5859
G2 X25.1343 Y21.555 I18.908 J6.7712
G0 Z3.0
G0 X31.6876 Y19.6472
G0 Z-0.5
G1 F300.0 Z-2.0
G2 F800.0 X33.0446 Y19.2076 I31.8736 J17.9071
G2 X32.4144 Y16.2427 I31.8736 J17.9071
G2 X30.1507 Y18.2136 I31.8736 J17.9071
G2 X31.0771 Y17.223 I18.908 J6.7712
G2 X31.3507 Y16.8957 I18.908 J6.7712
G3 X32.6792 Y17.4379 I31.9324 J17.3691
G3 X32.6177 Y18.0012 I16.0 J15.9
G3 X32.5361 Y18.5683 I16.0 J15.9
G3 X32.3515 Y18.9525 I31.7957 J18.4489
G3 X31.6876 Y19.6472 I18.908 J6.7712
G0 Z3.0
G0 X26.7137 Y15.106
G0 Z-0.5
G1 F300.0 Z-2.0
G2 F800.0 X26.2721 Y15.1888 I26.8128 J16.8531
G2 X25.6419 Y18.1536 I26.8128 J16.8531
G2 X28.5246 Y17.217 I26.8128 J16.8531
G2 X28.4631 Y16.2708 I26.8128 J16.8531
G3 X27.814 Y17.2584 I12.9868 J6.8054
G3 X27.7972 Y17.2812 I27.201 J16.8262
G3 X26.4013 Y17.4603 I27.0108 J16.6811
G3 X26.2581 Y17.3124 I26.8634 J16.8695
G3 X26.2203 Y15.8722 I27.2797 J16.565
G3 X26.2289 Y15.8593 I26.848 J16.2826
G2 X26.7137 Y15.106 I12.9868 J6.8054
G0 Z3.0
G0 X30.8941 Y9.7106
G0 Z-0.5
G1 F300.0 Z-2.0
G2 F800.0 X31.7335 Y8.5573 I30.0218 J8.1935
G2 X29.481 Y6.5291 I30.0218 J8.1935
G2 X28.808 Y9.4542 I30.0218 J8.1935
G2 X28.9752 Y8.1082 I12.9868 J6.8054
G2 X29.0042 Y7.6827 I12.9868 J6.8054
G3 X30.3978 Y7.3404 I29.7531 J7.7237
G3 X30.679 Y7.8323 I16.0 J15.9
G3 X30.9464 Y8.3391 I16.0 J15.9
G3 X31.0228 Y8.7584 I30.2772 J8.6776
G3 X30.8941 Y9.7106 I12.9868 J6.8054
G0 Z3.0
G0 X24.2008 Y8.9602
G0 Z-0.5
G1 F300.0 Z-2.0
G2 F800.0 X23.8922 Y9.2869 I25.308 J10.3155
G2 X25.1251 Y12.0559 I25.308 J10.3155
G2 X26.9067 Y9.6037 I25.308 J10.3155
G2 X26.3009 Y8.8744 I25.308 J10.3155
G3 X26.3562 Y10.0548 I8.2166 J10.3134
G3 X26.356 Y10.0832 I25.6062 J10.0655
G3 X25.332 Y11.0485 I25.367 J10.0599
G3 X25.1291 Y11.0131 I25.3586 J10.299
G3 X24.2521 Y9.8701 I25.5163 J9.8079
G3 X24.2515 Y9.8547 I25.0011 J9.8333
G2 X24.2008 Y8.9602 I8.2166 J10.3134
G0 Z3.0
G0 X24.4115 Y2.1381
G0 Z-0.5
G1 F300.0 Z-2.0
G2 F800.0 X24.4128 Y0.7117 I22.8141 J1.4235
G2 X21.3983 Y0.3949 I22.8141 J1.4235
G2 X22.5732 Y3.1569 I22.8141 J1.4235
G2 X21.9173 Y1.9697 I8.2166 J10.3134
G2 X21.6906 Y1.6083 I8.2166 J10.3134
G3 X22.6168 Y0.5123 I22.3206 J1.2013
G3 X23.1335 Y0.7449 I16.0 J15.9
G3 X23.6477 Y0.9978 I16.0 J15.9
G3 X23.9559 Y1.2921 I23.3053 J1.6651
G3 X24.4115 Y2.1381 I8.2166 J10.3134
G0 Z3.0
G0 X18.5555 Y5.4653
G0 Z-0.5
G1 F300.0 Z-2.0
G2 F800.0 X18.4978 Y5.9109 I20.2478 J5.9109
G2 X21.1228 Y7.4265 I20.2478 J5.9109
G2 Y4.3954 I20.2478 J5.9109
G2 X20.204 Y4.1615 I20.2478 J5.9109
G3 X20.9426 Y5.084 I6.4194 J15.9553
G3 X20.9592 Y5.107 I20.3422 J5.5334
G3 X20.6981 Y6.4899 I20.1454 J5.6694
G3 X20.5132 Y6.5804 I20.2791 J5.8679
G3 X19.1318 Y6.1713 I20.118 J5.3778
G3 X19.1222 Y6.1592 I19.7161 J5.7012
G2 X18.5555 Y5.4653 I6.4194 J15.9553
G0 Z3.0
G0 X14.716 Y-0.1778
G0 Z-0.5
G1 F300.0 Z-2.0
G2 F800.0 X13.8786 Y-1.3325 I13.0036 J0.1831
G2 X11.2536 Y0.1831 I13.0036 J0.1831
G2 X13.8276 Y1.727 I13.0036 J0.1831
G2 X12.5991 Y1.152 I6.4194 J15.9553
G2 X12.2034 Y0.993 I6.4194 J15.9553
G3 X12.3085 Y-0.4382 I12.4738 J0.2934
G3 X12.8632 Y-0.5537 I16.0 J15.9
G3 X13.4278 Y-0.6513 I16.0 J15.9
G3 X13.8502 Y-0.5944 I13.543 J0.0898
G3 X14.716 Y-0.1778 I6.4194 J15.9553
G0 Z3.0
G0 X11.9341 Y5.956
G0 Z-0.5
G1 F300.0 Z-2.0
G2 F800.0 X12.1494 Y6.3505 I13.5651 J5.3218
G2 X15.1638 Y6.0336 I13.5651 J5.3218
G2 X13.3822 Y3.5814 I13.5651 J5.3218
G2 X12.5014 Y3.9323 I13.5651 J5.3218
G3 X13.6412 Y4.2444 I8.2816 J21.5761
G3 X13.6681 Y4.2533 I13.4196 J4.961
G3 X14.2697 Y5.5256 I13.3403 J5.1867
G3 X14.1733 Y5.7075 I13.5651 J5.2687
G3 X12.8153 Y6.1885 I13.1468 J4.9669
G3 X12.8004 Y6.1843 I13.0117 J5.4647
G2 X11.9341 Y5.956 I8.2816 J21.5761
G0 Z3.0
G0 X5.511 Y3.6475
G0 Z-0.5
G1 F300.0 Z-2.0
G2 F800.0 X4.1548 Y3.2055 I4.3377 J4.946
G2 X2.9219 Y5.9746 I4.3377 J4.946
G2 X5.9118 Y5.7107 I4.3377 J4.946
G2 X4.58 Y5.9676 I8.2816 J21.5761
G2 X4.1663 Y6.0716 I8.2816 J21.5761
G3 X3.4102 Y4.852 I3.9739 J5.3467
G3 X3.791 Y4.4325 I16.0 J15.9
G3 X4.1904 Y4.0216 I16.0 J15.9
G3 X4.5656 Y3.8194 I4.7192 J4.5535
G3 X5.511 Y3.6475 I8.2816 J21.5761
G0 Z3.0
G0 X6.8657 Y10.245
G0 Z-0.5
G1 F300.0 Z-2.0
G2 F800.0 X7.2717 Y10.4376 I7.8125 J8.7733
G2 X9.5242 Y8.4094 I7.8125 J8.7733
G2 X6.6415 Y7.4728 I7.8125 J8.7733
G2 X6.1351 Y8.2743 I7.8125 J8.7733
G3 X7.2407 Y7.8569 I13.092 J25.0288
G3 X7.2677 Y7.8483 I7.4826 J8.5669
G3 X8.5022 Y8.5239 I7.5511 J8.7961
G3 X8.5312 Y8.7278 I7.7812 J8.7303
G3 X7.7152 Y9.9152 I7.2654 J8.732
G3 X7.7007 Y9.9205 I7.4487 J9.2141
G2 X6.8657 Y10.245 I13.092 J25.0288
G0 Z3.0
G0 X0.3124 Y12.1528
G0 Z-0.5
G1 F300.0 Z-2.0
G2 F800.0 X-1.0446 Y12.5924 I0.1264 J13.8929
G2 X-0.4144 Y15.5573 I0.1264 J13.8929
G2 X1.8493 Y13.5864 I0.1264 J13.8929
G2 X0.9229 Y14.577 I13.092 J25.0288
G2 X0.6493 Y14.9043 I13.092 J25.0288
G3 X-0.6792 Y14.3621 I0.0676 J14.4309
G3 X-0.6177 Y13.7988 I16.0 J15.9
G3 X-0.5361 Y13.2317 I16.0 J15.9
G3 X-0.3515 Y12.8475 I0.2043 J13.3511
G3 X0.3124 Y12.1528 I13.092 J25.0288
G0 Z3.0
G0 X5.2863 Y16.694
G0 Z-0.5
G1 F300.0 Z-2.0
G2 F800.0 X5.7279 Y16.6112 I5.1872 J14.9469
G2 X6.3581 Y13.6464 I5.1872 J14.9469
G2 X3.4754 Y14.583 I5.1872 J14.9469
G2 X3.5369 Y15.5292 I5.1872 J14.9469
G3 X4.186 Y14.5416 I19.0132 J24.9946
G3 X4.2028 Y14.5188 I4.799 J14.9738
G3 X5.5987 Y14.3397 I4.9892 J15.1189
G3 X5.7419 Y14.4876 I5.1366 J14.9305
G3 X5.7797 Y15.9278 I4.7203 J15.235
G3 X5.7711 Y15.9407 I5.152 J15.5174
G2 X5.2863 Y16.694 I19.0132 J24.9946
G0 Z3.0
G0 X1.1059 Y22.0894
G0 Z-0.5
G1 F300.0 Z-2.0
G2 F800.0 X0.2665 Y23.2427 I1.9782 J23.6065
G2 X2.519 Y25.2709 I1.9782 J23.6065
G2 X3.192 Y22.3458 I1.9782 J23.6065
G2 X3.0248 Y23.6918 I19.0132 J24.9946
G2 X2.9958 Y24.1173 I19.0132 J24.9946
G3 X1.6022 Y24.4596 I2.2469 J24.0763
G3 X1.321 Y23.9677 I16.0 J15.9
G3 X1.0536 Y23.4609 I16.0 J15.9
G3 X0.9772 Y23.0416 I1.7228 J23.1224
G3 X1.1059 Y22.0894 I19.0132 J24.9946
G0 Z3.0
G0 X7.7992 Y22.8398
G0 Z-0.5
G1 F300.0 Z-2.0
G2 F800.0 X8.1078 Y22.5131 I6.692 J21.4845
G2 X6.8749 Y19.7441 I6.692 J21.4845
G2 X5.0933 Y22.1963 I6.692 J21.4845
G2 X5.6991 Y22.9256 I6.692 J21.4845
G3 X5.6438 Y21.7452 I23.7834 J21.4866
G3 X5.644 Y21.7168 I6.3938 J21.7345
G3 X6.668 Y20.7515 I6.633 J21.7401
G3 X6.8709 Y20.7869 I6.6414 J21.501
G3 X7.7479 Y21.9299 I6.4837 J21.9921
G3 X7.7485 Y21.9453 I6.9989 J21.9667
G2 X7.7992 Y22.8398 I23.7834 J21.4866
G0 Z3.0
G0 X7.5885 Y29.6619
G0 Z-0.5
G1 F300.0 Z-2.0
G2 F800.0 X7.5872 Y31.0883 I9.1859 J30.3765
G2 X10.6017 Y31.4051 I9.1859 J30.3765
G2 X9.4268 Y28.6431 I9.1859 J30.3765
G2 X10.0827 Y29.8303 I23.7834 J21.4866
G2 X10.3094 Y30.1917 I23.7834 J21.4866
G3 X9.3832 Y31.2877 I9.6794 J30.5987
G3 X8.8665 Y31.0551 I16.0 J15.9
G3 X8.3523 Y30.8022 I16.0 J15.9
G3 X8.0441 Y30.5079 I8.6947 J30.1349
G3 X7.5885 Y29.6619 I23.7834 J21.4866
G0 Z3.0
G0 X13.4445 Y26.3347
G0 Z-0.5
G1 F300.0 Z-2.0
G2 F800.0 X13.5022 Y25.8891 I11.7522 J25.8891
G2 X10.8772 Y24.3735 I11.7522 J25.8891
G2 Y27.4046 I11.7522 J25.8891
G2 X11.796 Y27.6385 I11.7522 J25.8891
G3 X11.0574 Y26.716 I25.5806 J15.8447
G3 X11.0408 Y26.693 I11.6578 J26.2666
G3 X11.3019 Y25.3101 I11.8546 J26.1306
G3 X11.4868 Y25.2196 I11.7209 J25.9321
G3 X12.8682 Y25.6287 I11.882 J26.4222
G3 X12.8778 Y25.6408 I12.2839 J26.0988
G2 X13.4445 Y26.3347 I25.5806 J15.8447
G0 Z3.0
G0 X17.284 Y31.9778
G0 Z-0.5
G1 F300.0 Z-2.0
G2 F800.0 X18.1214 Y33.1325 I18.9964 J31.6169
G2 X20.7464 Y31.6169 I18.9964 J31.6169
G2 X18.1724 Y30.073 I18.9964 J31.6169
G2 X19.4009 Y30.648 I25.5806 J15.8447
G2 X19.7966 Y30.807 I25.5806 J15.8447
G3 X19.6915 Y32.2382 I19.5262 J31.5066
G3 X19.1368 Y32.3537 I16.0 J15.9
G3 X18.5722 Y32.4513 I16.0 J15.9
G3 X18.1498 Y32.3944 I18.457 J31.7102
G3 X17.284 Y31.9778 I25.5806 J15.8447
G0 Z3.0
G0 X20.0659 Y25.844
G0 Z-1.5
G1 F300.0 Z-3.0
G2 F800.0 X19.8506 Y25.4495 I18.4349 J26.4782
G2 X16.8362 Y25.7664 I18.4349 J26.4782
G2 X18.6178 Y28.2186 I18.4349 J26.4782
G2 X19.4986 Y27.8677 I18.4349 J26.4782
G3 X18.3588 Y27.5556 I23.7184 J10.2239
G3 X18.3319 Y27.5467 I18.5804 J26.839
G3 X17.7303 Y26.2744 I18.6597 J26.6133
G3 X17.8267 Y26.0925 I18.4349 J26.5313
G3 X19.1847 Y25.6115 I18.8532 J26.8331
G3 X19.1996 Y25.6157 I18.9883 J26.3353
G2 X20.0659 Y25.844 I23.7184 J10.2239
G0 Z3.0
G0 X26.489 Y28.1525
G0 Z-1.5
G1 F300.0 Z-3.0
G2 F800.0 X27.8452 Y28.5945 I27.6623 J26.854
G2 X29.0781 Y25.8254 I27.6623 J26.854
G2 X26.0882 Y26.0893 I27.6623 J26.854
G2 X27.42 Y25.8324 I23.7184 J10.2239
G2 X27.8337 Y25.7284 I23.7184 J10.2239
G3 X28.5898 Y26.948 I28.0261 J26.4533
G3 X28.209 Y27.3675 I16.0 J15.9
G3 X27.8096 Y27.7784 I16.0 J15.9
G3 X27.4344 Y27.9806 I27.2808 J27.2465
G3 X26.489 Y28.1525 I23.7184 J10.2239
G0 Z3.0
G0 X25.1343 Y21.555
G0 Z-1.5
G1 F300.0 Z-3.0
G2 F800.0 X24.7283 Y21.3624 I24.1875 J23.0267
G2 X22.4758 Y23.3906 I24.1875 J23.0267
G2 X25.3585 Y24.3272 I24.1875 J23.0267
G2 X25.8649 Y23.5257 I24.1875 J23.0267
G3 X24.7593 Y23.9431 I18.908 J6.7712
G3 X24.7323 Y23.9517 I24.5174 J23.2331
G3 X23.4978 Y23.2761 I24.4489 J23.0039
G3 X23.4688 Y23.0722 I24.2188 J23.0697
G3 X24.2848 Y21.8848 I24.7346 J23.068
G3 X24.2993 Y21.8795 I24.5513 J22.5859
G2 X25.1343 Y21.555 I18.908 J6.7712
G0 Z3.0
G0 X31.6876 Y19.6472
G0 Z-1.5
G1 F300.0 Z-3.0
G2 F800.0 X33.0446 Y19.2076 I31.8736 J17.9071
G2 X32.4144 Y16.2427 I31.8736 J17.9071
G2 X30.1507 Y18.2136 I31.8736 J17.9071
G2 X31.0771 Y17.223 I18.908 J6.7712
G2 X31.3507 Y16.8957 I18.908 J6.7712
G3 X32.6792 Y17.4379 I31.9324 J17.3691
G3 X32.6177 Y18.0012 I16.0 J15.9
G3 X32.5361 Y18.5683 I16.0 J15.9
G3 X32.3515 Y18.9525 I31.7957 J18.4489
G3 X31.6876 Y19.6472 I18.908 J6.7712
G0 Z3.0
G0 X26.7137 Y15.106
G0 Z-1.5
G1 F300.0 Z-3.0
G2 F800.0 X26.2721 Y15.1888 I26.8128 J16.8531
G2 X25.6419 Y18.1536 I26.8128 J16.8531
G2 X28.5246 Y17.217 I26.8128 J16.8531
G2 X28.4631 Y16.2708 I26.8128 J16.8531
G3 X27.814 Y17.2584 I12.9868 J6.8054
G3 X27.7972 Y17.2812 I27.201 J16.8262
G3 X26.4013 Y17.4603 I27.0108 J16.6811
G3 X26.2581 Y17.3124 I26.8634 J16.8695
G3 X26.2203 Y15.8722 I27.2797 J16.565
G3 X26.2289 Y15.8593 I26.848 J16.2826
G2 X26.7137 Y15.106 I12.9868 J6.8054
G0 Z3.0
G0 X30.8941 Y9.7106
G0 Z-1.5
G1 F300.0 Z-3.0
G2 F800.0 X31.7335 Y8.5573 I30.0218 J8.1935
G2 X29.481 Y6.5291 I30.0218 J8.1935
G2 X28.808 Y9.4542 I30.0218 J8.1935
G2 X28.9752 Y8.1082 I12.9868 J6.8054
G2 X29.0042 Y7.6827 I12.9868 J6.8054
G3 X30.3978 Y7.3404 I29.7531 J7.7237
G3 X30.679 Y7.8323 I16.0 J15.9
G3 X30.9464 Y8.3391 I16.0 J15.9
G3 X31.0228 Y8.7584 I30.2772 J8.6776
G3 X30.8941 Y9.7106 I12.9868 J6.8054
G0 Z3.0
G0 X24.2008 Y8.9602
G0 Z-1.5
G1 F300.0 Z-3.0
G2 F800.0 X23.8922 Y9.2869 I25.308 J10.3155
G2 X25.1251 Y12.0559 I25.308 J10.3155
G2 X26.9067 Y9.6037 I25.308 J10.3155
G2 X26.3009 Y8.8744 I25.308 J10.3155
G3 X26.3562 Y10.0548 I8.2166 J10.3134
G3 X26.356 Y10.0832 I25.6062 J10.0655
G3 X25.332 Y11.0485 I25.367 J10.0599
G3 X25.1291 Y11.0131 I25.3586 J10.299
G3 X24.2521 Y9.8701 I25.5163 J9.8079
G3 X24.2515 Y9.8547 I25.0011 J9.8333
G2 X24.2008 Y8.9602 I8.2166 J10.3134
G0 Z3.0
G0 X24.4115 Y2.1381
G0 Z-1.5
G1 F300.0 Z-3.0
G2 F800.0 X24.4128 Y0.7117 I22.8141 J1.4235
G2 X21.3983 Y0.3949 I22.8141 J1.4235
G2 X22.5732 Y3.1569 I22.8141 J1.4235
G2 X21.9173 Y1.9697 I8.2166 J10.3134
G2 X21.6906 Y1.6083 I8.2166 J10.3134
G3 X22.6168 Y0.5123 I22.3206 J1.2013
G3 X23.1335 Y0.7449 I16.0 J15.9
G3 X23.6477 Y0.9978 I16.0 J15.9
G3 X23.9559 Y1.2921 I23.3053 J1.6651
G3 X24.4115 Y2.1381 I8.2166 J10.3134
G0 Z3.0
G0 X18.5555 Y5.4653
G0 Z-1.5
G1 F300.0 Z-3.0
G2 F800.0 X18.4978 Y5.9109 I20.2478 J5.9109
G2 X21.1228 Y7.4265 I20.2478 J5.9109
G2 Y4.3954 I20.2478 J5.9109
G2 X20.204 Y4.1615 I20.2478 J5.9109
G3 X20.9426 Y5.084 I6.4194 J15.9553
G3 X20.9592 Y5.107 I20.3422 J5.5334
G3 X20.6981 Y6.4899 I20.1454 J5.6694
G3 X20.5132 Y6.5804 I20.2791 J5.8679
G3 X19.1318 Y6.1713 I20.118 J5.3778
G3 X19.1222 Y6.1592 I19.7161 J5.7012
G2 X18.5555 Y5.4653 I6.4194 J15.9553
G0 Z3.0
G0 X14.716 Y-0.1778
G0 Z-1.5
G1 F300.0 Z-3.0
G2 F800.0 X13.8786 Y-1.3325 I13.0036 J0.1831
G2 X11.2536 Y0.1831 I13.0036 J0.1831
G2 X13.8276 Y1.727 I13.0036 J0.1831
G2 X12.5991 Y1.152 I6.4194 J15.9553
G2 X12.2034 Y0.993 I6.4194 J15.9553
G3 X12.3085 Y-0.4382 I12.4738 J0.2934
G3 X12.8632 Y-0.5537 I16.0 J15.9
G3 X13.4278 Y-0.6513 I16.0 J15.9
G3 X13.8502 Y-0.5944 I13.543 J0.0898
G3 X14.716 Y-0.1778 I6.4194 J15.9553
G0 Z3.0
G0 X11.9341 Y5.956
G0 Z-1.5
G1 F300.0 Z-3.0
G2 F800.0 X12.1494 Y6.3505 I13.5651 J5.3218
G2 X15.1638 Y6.0336 I13.5651 J5.3218
G2 X13.3822 Y3.5814 I13.5651 J5.3218
G2 X12.5014 Y3.9323 I13.5651 J5.3218
G3 X13.6412 Y4.2444 I8.2816 J21.5761
G3 X13.6681 Y4.2533 I13.4196 J4.961
G3 X14.2697 Y5.5256 I13.3403 J5.1867
G3 X14.1733 Y5.7075 I13.5651 J5.2687
G3 X12.8153 Y6.1885 I13.1468 J4.9669
G3 X12.8004 Y6.1843 I13.0117 J5.4647
G2 X11.9341 Y5.956 I8.2816 J21.5761
G0 Z3.0
G0 X5.511 Y3.6475
G0 Z-1.5
G1 F300.0 Z-3.0
G2 F800.0 X4.1548 Y3.2055 I4.3377 J4.946
G2 X2.9219 Y5.9746 I4.3377 J4.946
G2 X5.9118 Y5.7107 I4.3377 J4.946
G2 X4.58 Y5.9676 I8.2816 J21.5761
G2 X4.1663 Y6.0716 I8.2816 J21.5761
G3 X3.4102 Y4.852 I3.9739 J5.3467
G3 X3.791 Y4.4325 I16.0 J15.9
G3 X4.1904 Y4.0216 I16.0 J15.9
G3 X4.5656 Y3.8194 I4.7192 J4.5535
G3 X5.511 Y3.6475 I8.2816 J21.5761
G0 Z3.0
G0 X6.8657 Y10.245
G0 Z-1.5
G1 F300.0 Z-3.0
G2 F800.0 X7.2717 Y10.4376 I7.8125 J8.7733
G2 X9.5242 Y8.4094 I7.8125 J8.7733
G2 X6.6415 Y7.4728 I7.8125 J8.7733
G2 X6.1351 Y8.2743 I7.8125 J8.7733
G3 X7.2407 Y7.8569 I13.092 J25.0288
G3 X7.2677 Y7.8483 I7.4826 J8.5669
G3 X8.5022 Y8.5239 I7.5511 J8.7961
G3 X8.5312 Y8.7278 I7.7812 J8.7303
G3 X7.7152 Y9.9152 I7.2654 J8.732
G3 X7.7007 Y9.9205 I7.4487 J9.2141
G2 X6.8657 Y10.245 I13.092 J25.0288
G0 Z3.0
G0 X0.3124 Y12.1528
G0 Z-1.5
G1 F300.0 Z-3.0
G2 F800.0 X-1.0446 Y12.5924 I0.1264 J13.8929
G2 X-0.4144 Y15.5573 I0.1264 J13.8929
G2 X1.8493 Y13.5864 I0.1264 J13.8929
G2 X0.9229 Y14.577 I13.092 J25.0288
G2 X0.6493 Y14.9043 I13.092 J25.0288
G3 X-0.6792 Y14.3621 I0.0676 J14.4309
G3 X-0.6177 Y13.7988 I16.0 J15.9
G3 X-0.5361 Y13.2317 I16.0 J15.9
G3 X-0.3515 Y12.8475 I0.2043 J13.3511
G3 X0.3124 Y12.1528 I13.092 J25.0288
G0 Z3.0
G0 X5.2863 Y16.694
G0 Z-1.5
G1 F300.0 Z-3.0
G2 F800.0 X5.7279 Y16.6112 I5.1872 J14.9469
G2 X6.3581 Y13.6464 I5.1872 J14.9469
G2 X3.4754 Y14.583 I5.1872 J14.9469
G2 X3.5369 Y15.5292 I5.1872 J14.9469
G3 X4.186 Y14.5416 I19.0132 J24.9946
G3 X4.2028 Y14.5188 I4.799 J14.9738
G3 X5.5987 Y14.3397 I4.9892 J15.1189
G3 X5.7419 Y14.4876 I5.1366 J14.9305
G3 X5.7797 Y15.9278 I4.7203 J15.235
G3 X5.7711 Y15.9407 I5.152 J15.5174
G2 X5.2863 Y16.694 I19.0132 J24.9946
G0 Z3.0
G0 X1.1059 Y22.0894
G0 Z-1.5
G1 F300.0 Z-3.0
G2 F800.0 X0.2665 Y23.2427 I1.9782 J23.6065
G2 X2.519 Y25.2709 I1.9782 J23.6065
G2 X3.192 Y22.3458 I1.9782 J23.6065
G2 X3.0248 Y23.6918 I19.0132 J24.9946
G2 X2.9958 Y24.1173 I19.0132 J24.9946
G3 X1.6022 Y24.4596 I2.2469 J24.0763
G3 X1.321 Y23.9677 I16.0 J15.9
G3 X1.0536 Y23.4609 I16.0 J15.9
G3 X0.9772 Y23.0416 I1.7228 J23.1224
G3 X1.1059 Y22.0894 I19.0132 J24.9946
G0 Z3.0
G0 X7.7992 Y22.8398
G0 Z-1.5
G1 F300.0 Z-3.0
G2 F800.0 X8.1078 Y22.5131 I6.692 J21.4845
G2 X6.8749 Y19.7441 I6.692 J21.4845
G2 X5.0933 Y22.1963 I6.692 J21.4845
G2 X5.6991 Y22.9256 I6.692 J21.4845
G3 X5.6438 Y21.7452 I23.7834 J21.4866
G3 X5.644 Y21.7168 I6.3938 J21.7345
G3 X6.668 Y20.7515 I6.633 J21.7401
G3 X6.8709 Y20.7869 I6.6414 J21.501
G3 X7.7479 Y21.9299 I6.4837 J21.9921
G3 X7.7485 Y21.9453 I6.9989 J21.9667
G2 X7.7992 Y22.8398 I23.7834 J21.4866
G0 Z3.0
G0 X7.5885 Y29.6619
G0 Z-1.5
G1 F300.0 Z-3.0
G2 F800.0 X7.5872 Y31.0883 I9.1859 J30.3765
G2 X10.6017 Y31.4051 I9.1859 J30.3765
G2 X9.4268 Y28.6431 I9.1859 J30.3765
G2 X10.0827 Y29.8303 I23.7834 J21.4866
G2 X10.3094 Y30.1917 I23.7834 J21.4866
G3 X9.3832 Y31.2877 I9.6794 J30.5987
G3 X8.8665 Y31.0551 I16.0 J15.9
G3 X8.3523 Y30.8022 I16.0 J15.9
G3 X8.0441 Y30.5079 I8.6947 J30.1349
G3 X7.5885 Y29.6619 I23.7834 J21.4866
G0 Z3.0
G0 X13.4445 Y26.3347
G0 Z-1.5
G1 F300.0 Z-3.0
G2 F800.0 X13.5022 Y25.8891 I11.7522 J25.8891
G2 X10.8772 Y24.3735 I11.7522 J25.8891
G2 Y27.4046 I11.7522 J25.8891
G2 X11.796 Y27.6385 I11.7522 J25.8891
G3 X11.0574 Y26.716 I25.5806 J15.8447
G3 X11.0408 Y26.693 I11.6578 J26.2666
G3 X11.3019 Y25.3101 I11.8546 J26.1306
G3 X11.4868 Y25.2196 I11.7209 J25.9321
G3 X12.8682 Y25.6287 I11.882 J26.4222
G3 X12.8778 Y25.6408 I12.2839 J26.0988
G2 X13.4445 Y26.3347 I25.5806 J15.8447
G0 Z3.0
G0 X17.284 Y31.9778
G0 Z-1.5
G1 F300.0 Z-3.0
G2 F800.0 X18.1214 Y33.1325 I18.9964 J31.6169
G2 X20.7464 Y31.6169 I18.9964 J31.6169
G2 X18.1724 Y30.073 I18.9964 J31.6169
G2 X19.4009 Y30.648 I25.5806 J15.8447
G2 X19.7966 Y30.807 I25.5806 J15.8447
G3 X19.6915 Y32.2382 I19.5262 J31.5066
G3 X19.1368 Y32.3537 I16.0 J15.9
G3 X18.5722 Y32.4513 I16.0 J15.9
G3 X18.1498 Y32.3944 I18.457 J31.7102
G3 X17.284 Y31.9778 I25.5806 J15.8447
G0 Z3.0
G0 X20.0659 Y25.844
G0 Z-2.5
G1 F300.0 Z-4.0
G2 F800.0 X19.8506 Y25.4495 I18.4349 J26.4782
G2 X16.8362 Y25.7664 I18.4349 J26.4782
G2 X18.6178 Y28.2186 I18.4349 J26.4782
G2 X19.4986 Y27.8677 I18.4349 J26.4782
G3 X18.3588 Y27.5556 I23.7184 J10.2239
G3 X18.3319 Y27.5467 I18.5804 J26.839
G3 X17.7303 Y26.2744 I18.6597 J26.6133
G3 X17.8267 Y26.0925 I18.4349 J26.5313
G3 X19.1847 Y25.6115 I18.8532 J26.8331
G3 X19.1996 Y25.6157 I18.9883 J26.3353
G2 X20.0659 Y25.844 I23.7184 J10.2239
G0 Z3.0
G0 X26.489 Y28.1525
G0 Z-2.5
G1 F300.0 Z-4.0
G2 F800.0 X27.8452 Y28.5945 I27.6623 J26.854
G2 X29.0781 Y25.8254 I27.6623 J26.854
G2 X26.0882 Y26.0893 I27.6623 J26.854
G2 X27.42 Y25.8324 I23.7184 J10.2239
G2 X27.8337 Y25.7284 I23.7184 J10.2239
G3 X28.5898 Y26.948 I28.0261 J26.4533
G3 X28.209 Y27.3675 I16.0 J15.9
G3 X27.8096 Y27.7784 I16.0 J15.9
G3 X27.4344 Y27.9806 I27.2808 J27.2465
G3 X26.489 Y28.1525 I23.7184 J10.2239
G0 Z3.0
G0 X25.1343 Y21.555
G0 Z-2.5
G1 F300.0 Z-4.0
G2 F800.0 X24.7283 Y21.3624 I24.1875 J23.0267
G2 X22.4758 Y23.3906 I24.1875 J23.0267
G2 X25.3585 Y24.3272 I24.1875 J23.0267
G2 X25.8649 Y23.5257 I24.1875 J23.0267
G3 X24.7593 Y23.9431 I18.908 J6.7712
G3 X24.7323 Y23.9517 I24.5174 J23.2331
G3 X23.4978 Y23.2761 I24.4489 J23.0039
G3 X23.4688 Y23.0722 I24.2188 J23.0697
G3 X24.2848 Y21.8848 I24.7346 J23.068
G3 X24.2993 Y21.8795 I24.5513 J22.5859
G2 X25.1343 Y21.555 I18.908 J6.7712
G0 Z3.0
G0 X31.6876 Y19.6472
G0 Z-2.5
G1 F300.0 Z-4.0
G2 F800.0 X33.0446 Y19.2076 I31.8736 J17.9071
G2 X32.4144 Y16.2427 I31.8736 J17.9071
G2 X30.1507 Y18.2136 I31.8736 J17.9071
G2 X31.0771 Y17.223 I18.908 J6.7712
G2 X31.3507 Y16.8957 I18.908 J6.7712
G3 X32.6792 Y17.4379 I31.9324 J17.3691
G3 X32.6177 Y18.0012 I16.0 J15.9
G3 X32.5361 Y18.5683 I16.0 J15.9
G3 X32.3515 Y18.9525 I31.7957 J18.4489
G3 X31.6876 Y19.6472 I18.908 J6.7712
G0 Z3.0
G0 X26.7137 Y15.106
G0 Z-2.5
G1 F300.0 Z-4.0
G2 F800.0 X26.2721 Y15.1888 I26.8128 J16.8531
G2 X25.6419 Y18.1536 I26.8128 J16.8531
G2 X28.5246 Y17.217 I26.8128 J16.8531
G2 X28.4631 Y16.2708 I26.8128 J16.8531
G3 X27.814 Y17.2584 I12.9868 J6.8054
G3 X27.7972 Y17.2812 I27.201 J16.8262
G3 X26.4013 Y17.4603 I27.0108 J16.6811
G3 X26.2581 Y17.3124 I26.8634 J16.8695
G3 X26.2203 Y15.8722 I27.2797 J16.565
G3 X26.2289 Y15.8593 I26.848 J16.2826
G2 X26.7137 Y15.106 I12.9868 J6.8054
G0 Z3.0
G0 X30.8941 Y9.7106
G0 Z-2.5
G1 F300.0 Z-4.0
G2 F800.0 X31.7335 Y8.5573 I30.0218 J8.1935
G2 X29.481 Y6.5291 I30.0218 J8.1935
G2 X28.808 Y9.4542 I30.0218 J8.1935
G2 X28.9752 Y8.1082 I12.9868 J6.8054
G2 X29.0042 Y7.6827 I12.9868 J6.8054
G3 X30.3978 Y7.3404 I29.7531 J7.7237
G3 X30.679 Y7.8323 I16.0 J15.9
G3 X30.9464 Y8.3391 I16.0 J15.9
G3 X31.0228 Y8.7584 I30.2772 J8.6776
G3 X30.8941 Y9.7106 I12.9868 J6.8054
G0 Z3.0
G0 X24.2008 Y8.9602
G0 Z-2.5
G1 F300.0 Z-4.0
G2 F800.0 X23.8922 Y9.2869 I25.308 J10.3155
G2 X25.1251 Y12.0559 I25.308 J10.3155
G2 X26.9067 Y9.6037 I25.308 J10.3155
G2 X26.3009 Y8.8744 I25.308 J10.3155
G3 X26.3562 Y10.0548 I8.2166 J10.3134
G3 X26.356 Y10.0832 I25.6062 J10.0655
G3 X25.332 Y11.0485 I25.367 J10.0599
G3 X25.1291 Y11.0131 I25.3586 J10.299
G3 X24.2521 Y9.8701 I25.5163 J9.8079
G3 X24.2515 Y9.8547 I25.0011 J9.8333
G2 X24.2008 Y8.9602 I8.2166 J10.3134
G0 Z3.0
G0 X24.4115 Y2.1381
G0 Z-2.5
G1 F300.0 Z-4.0
G2 F800.0 X24.4128 Y0.7117 I22.8141 J1.4235
G2 X21.3983 Y0.3949 I22.8141 J1.4235
G2 X22.5732 Y3.1569 I22.8141 J1.4235
G2 X21.9173 Y1.9697 I8.2166 J10.3134
G2 X21.6906 Y1.6083 I8.2166 J10.3134
G3 X22.6168 Y0.5123 I22.3206 J1.2013
G3 X23.1335 Y0.7449 I16.0 J15.9
G3 X23.6477 Y0.9978 I16.0 J15.9
G3 X23.9559 Y1.2921 I23.3053 J1.6651
G3 X24.4115 Y2.1381 I8.2166 J10.3134
G0 Z3.0
G0 X18.5555 Y5.4653
G0 Z-2.5
G1 F300.0 Z-4.0
G2 F800.0 X18.4978 Y5.9109 I20.2478 J5.9109
G2 X21.1228 Y7.4265 I20.2478 J5.9109
G2 Y4.3954 I20.2478 J5.9109
G2 X20.204 Y4.1615 I20.2478 J5.9109
G3 X20.9426 Y5.084 I6.4194 J15.9553
G3 X20.9592 Y5.107 I20.3422 J5.5334
G3 X20.6981 Y6.4899 I20.1454 J5.6694
G3 X20.5132 Y6.5804 I20.2791 J5.8679
G3 X19.1318 Y6.1713 I20.118 J5.3778
G3 X19.1222 Y6.1592 I19.7161 J5.7012
G2 X18.5555 Y5.4653 I6.4194 J15.9553
G0 Z3.0
G0 X14.716 Y-0.1778
G0 Z-2.5
G1 F300.0 Z-4.0
G2 F800.0 X13.8786 Y-1.3325 I13.0036 J0.1831
G2 X11.2536 Y0.1831 I13.0036 J0.1831
G2 X13.8276 Y1.727 I13.0036 J0.1831
G2 X12.5991 Y1.152 I6.4194 J15.9553
G2 X12.2034 Y0.993 I6.4194 J15.9553
G3 X12.3085 Y-0.4382 I12.4738 J0.2934
G3 X12.8632 Y-0.5537 I16.0 J15.9
G3 X13.4278 Y-0.6513 I16.0 J15.9
G3 X13.8502 Y-0.5944 I13.543 J0.0898
G3 X14.716 Y-0.1778 I6.4194 J15.9553
G0 Z3.0
G0 X11.9341 Y5.956
G0 Z-2.5
G1 F300.0 Z-4.0
G2 F800.0 X12.1494 Y6.3505 I13.5651 J5.3218
G2 X15.1638 Y6.0336 I13.5651 J5.3218
G2 X13.3822 Y3.5814 I13.5651 J5.3218
G2 X12.5014 Y3.9323 I13.5651 J5.3218
G3 X13.6412 Y4.2444 I8.2816 J21.5761
G3 X13.6681 Y4.2533 I13.4196 J4.961
G3 X14.2697 Y5.5256 I13.3403 J5.1867
G3 X14.1733 Y5.7075 I13.5651 J5.2687
G3 X12.8153 Y6.1885 I13.1468 J4.9669
G3 X12.8004 Y6.1843 I13.0117 J5.4647
G2 X11.9341 Y5.956 I8.2816 J21.5761
G0 Z3.0
G0 X5.511 Y3.6475
G0 Z-2.5
G1 F300.0 Z-4.0
G2 F800.0 X4.1548 Y3.2055 I4.3377 J4.946
G2 X2.9219 Y5.9746 I4.3377 J4.946
G2 X5.9118 Y5.7107 I4.3377 J4.946
G2 X4.58 Y5.9676 I8.2816 J21.5761
G2 X4.1663 Y6.0716 I8.2816 J21.5761
G3 X3.4102 Y4.852 I3.9739 J5.3467
G3 X3.791 Y4.4325 I16.0 J15.9
G3 X4.1904 Y4.0216 I16.0 J15.9
G3 X4.5656 Y3.8194 I4.7192 J4.5535
G3 X5.511 Y3.6475 I8.2816 J21.5761
G0 Z3.0
G0 X6.8657 Y10.245
G0 Z-2.5
G1 F300.0 Z-4.0
G2 F800.0 X7.2717 Y10.4376 I7.8125 J8.7733
G2 X9.5242 Y8.4094 I7.8125 J8.7733
G2 X6.6415 Y7.4728 I7.8125 J8.7733
G2 X6.1351 Y8.2743 I7.8125 J8.7733
G3 X7.2407 Y7.8569 I13.092 J25.0288
G3 X7.2677 Y7.8483 I7.4826 J8.5669
G3 X8.5022 Y8.5239 I7.5511 J8.7961
G3 X8.5312 Y8.7278 I7.7812 J8.7303
G3 X7.7152 Y9.9152 I7.2654 J8.732
G3 X7.7007 Y9.9205 I7.4487 J9.2141
G2 X6.8657 Y10.245 I13.092 J25.0288
G0 Z3.0
G0 X0.3124 Y12.1528
G0 Z-2.5
G1 F300.0 Z-4.0
G2 F800.0 X-1.0446 Y12.5924 I0.1264 J13.8929
G2 X-0.4144 Y15.5573 I0.1264 J13.8929
G2 X1.8493 Y13.5864 I0.1264 J13.8929
G2 X0.9229 Y14.577 I13.092 J25.0288
G2 X0.6493 Y14.9043 I13.092 J25.0288
G3 X-0.6792 Y14.3621 I0.0676 J14.4309
G3 X-0.6177 Y13.7988 I16.0 J15.9
G3 X-0.5361 Y13.2317 I16.0 J15.9
G3 X-0.3515 Y12.8475 I0.2043 J13.3511
G3 X0.3124 Y12.1528 I13.092 J25.0288
G0 Z3.0
G0 X5.2863 Y16.694
G0 Z-2.5
G1 F300.0 Z-4.0
G2 F800.0 X5.7279 Y16.6112 I5.1872 J14.9469
G2 X6.3581 Y13.6464 I5.1872 J14.9469
G2 X3.4754 Y14.583 I5.1872 J14.9469
G2 X3.5369 Y15.5292 I5.1872 J14.9469
G3 X4.186 Y14.5416 I19.0132 J24.9946
G3 X4.2028 Y14.5188 I4.799 J14.9738
G3 X5.5987 Y14.3397 I4.9892 J15.1189
G3 X5.7419 Y14.4876 I5.1366 J14.9305
G3 X5.7797 Y15.9278 I4.7203 J15.235
G3 X5.7711 Y15.9407 I5.152 J15.5174
G2 X5.2863 Y16.694 I19.0132 J24.9946
G0 Z3.0
G0 X1.1059 Y22.0894
G0 Z-2.5
G1 F300.0 Z-4.0
G2 F800.0 X0.2665 Y23.2427 I1.9782 J23.6065
G2 X2.519 Y25.2709 I1.9782 J23.6065
G2 X3.192 Y22.3458 I1.9782 J23.6065
G2 X3.0248 Y23.6918 I19.0132 J24.9946
G2 X2.9958 Y24.1173 I19.0132 J24.9946
G3 X1.6022 Y24.4596 I2.2469 J24.0763
G3 X1.321 Y23.9677 I16.0 J15.9
G3 X1.0536 Y23.4609 I16.0 J15.9
G3 X0.9772 Y23.0416 I1.7228 J23.1224
G3 X1.1059 Y22.0894 I19.0132 J24.9946
G0 Z3.0
G0 X7.7992 Y22.8398
G0 Z-2.5
G1 F300.0 Z-4.0
G2 F800.0 X8.1078 Y22.5131 I6.692 J21.4845
G2 X6.8749 Y19.7441 I6.692 J21.4845
G2 X5.0933 Y22.1963 I6.692 J21.4845
G2 X5.6991 Y22.9256 I6.692 J21.4845
G3 X5.6438 Y21.7452 I23.7834 J21.4866
G3 X5.644 Y21.7168 I6.3938 J21.7345
G3 X6.668 Y20.7515 I6.633 J21.7401
G3 X6.8709 Y20.7869 I6.6414 J21.501
G3 X7.7479 Y21.9299 I6.4837 J21.9921
G3 X7.7485 Y21.9453 I6.9989 J21.9667
G2 X7.7992 Y22.8398 I23.7834 J21.4866
G0 Z3.0
G0 X7.5885 Y29.6619
G0 Z-2.5
G1 F300.0 Z-4.0
G2 F800.0 X7.5872 Y31.0883 I9.1859 J30.3765
G2 X10.6017 Y31.4051 I9.1859 J30.3765
G2 X9.4268 Y28.6431 I9.1859 J30.3765
G2 X10.0827 Y29.8303 I23.7834 J21.4866
G2 X10.3094 Y30.1917 I23.7834 J21.4866
G3 X9.3832 Y31.2877 I9.6794 J30.5987
G3 X8.8665 Y31.0551 I16.0 J15.9
G3 X8.3523 Y30.8022 I16.0 J15.9
G3 X8.0441 Y30.5079 I8.6947 J30.1349
G3 X7.5885 Y29.6619 I23.7834 J21.4866
G0 Z3.0
G0 X13.4445 Y26.3347
G0 Z-2.5
G1 F300.0 Z-4.0
G2 F800.0 X13.5022 Y25.8891 I11.7522 J25.8891
G2 X10.8772 Y24.3735 I11.7522 J25.8891
G2 Y27.4046 I11.7522 J25.8891
G2 X11.796 Y27.6385 I11.7522 J25.8891
G3 X11.0574 Y26.716 I25.5806 J15.8447
G3 X11.0408 Y26.693 I11.6578 J26.2666
G3 X11.3019 Y25.3101 I11.8546 J26.1306
G3 X11.4868 Y25.2196 I11.7209 J25.9321
G3 X12.8682 Y25.6287 I11.882 J26.4222
G3 X12.8778 Y25.6408 I12.2839 J26.0988
G2 X13.4445 Y26.3347 I25.5806 J15.8447
G0 Z3.0
G0 X17.284 Y31.9778
G0 Z-2.5
G1 F300.0 Z-4.0
G2 F800.0 X18.1214 Y33.1325 I18.9964 J31.6169
G2 X20.7464 Y31.6169 I18.9964 J31.6169
G2 X18.1724 Y30.073 I18.9964 J31.6169
G2 X19.4009 Y30.648 I25.5806 J15.8447
G2 X19.7966 Y30.807 I25.5806 J15.8447
G3 X19.6915 Y32.2382 I19.5262 J31.5066
G3 X19.1368 Y32.3537 I16.0 J15.9
G3 X18.5722 Y32.4513 I16.0 J15.9
G3 X18.1498 Y32.3944 I18.457 J31.7102
G3 X17.284 Y31.9778 I25.5806 J15.8447
G0 Z3.0
G0 X20.0659 Y25.844
G0 Z-3.5
G1 F300.0 Z-5.0
G2 F800.0 X19.8506 Y25.4495 I18.4349 J26.4782
G2 X16.8362 Y25.7664 I18.4349 J26.4782
G2 X18.6178 Y28.2186 I18.4349 J26.4782
G2 X19.4986 Y27.8677 I18.4349 J26.4782
G3 X18.3588 Y27.5556 I23.7184 J10.2239
G3 X18.3319 Y27.5467 I18.5804 J26.839
G3 X17.7303 Y26.2744 I18.6597 J26.6133
G3 X17.8267 Y26.0925 I18.4349 J26.5313
G3 X19.1847 Y25.6115 I18.8532 J26.8331
G3 X19.1996 Y25.6157 I18.9883 J26.3353
G2 X20.0659 Y25.844 I23.7184 J10.2239
G0 Z3.0
G0 X26.489 Y28.1525
G0 Z-3.5
G1 F300.0 Z-5.0
G2 F800.0 X27.8452 Y28.5945 I27.6623 J26.854
G2 X29.0781 Y25.8254 I27.6623 J26.854
G2 X26.0882 Y26.0893 I27.6623 J26.854
G2 X27.42 Y25.8324 I23.7184 J10.2239
G2 X27.8337 Y25.7284 I23.7184 J10.2239
G3 X28.5898 Y26.948 I28.0261 J26.4533
G3 X28.209 Y27.3675 I16.0 J15.9
G3 X27.8096 Y27.7784 I16.0 J15.9
G3 X27.4344 Y27.9806 I27.2808 J27.2465
G3 X26.489 Y28.1525 I23.7184 J10.2239
G0 Z3.0
G0 X25.1343 Y21.555
G0 Z-3.5
G1 F300.0 Z-5.0
G2 F800.0 X24.7283 Y21.3624 I24.1875 J23.0267
G2 X22.4758 Y23.3906 I24.1875 J23.0267
G2 X25.3585 Y24.3272 I24.1875 J23.0267
G2 X25.8649 Y23.5257 I24.1875 J23.0267
G3 X24.7593 Y23.9431 I18.908 J6.7712
G3 X24.7323 Y23.9517 I24.5174 J23.2331
G3 X23.4978 Y23.2761 I24.4489 J23.0039
G3 X23.4688 Y23.0722 I24.2188 J23.0697
G3 X24.2848 Y21.8848 I24.7346 J23.068
G3 X24.2993 Y21.8795 I24.5513 J22.5859
G2 X25.1343 Y21.555 I18.908 J6.7712
G0 Z3.0
G0 X31.6876 Y19.6472
G0 Z-3.5
G1 F300.0 Z-5.0
G2 F800.0 X33.0446 Y19.2076 I31.8736 J17.9071
G2 X32.4144 Y16.2427 I31.8736 J17.9071
G2 X30.1507 Y18.2136 I31.8736 J17.9071
G2 X31.0771 Y17.223 I18.908 J6.7712
G2 X31.3507 Y16.8957 I18.908 J6.7712
G3 X32.6792 Y17.4379 I31.9324 J17.3691
G3 X32.6177 Y18.0012 I16.0 J15.9
G3 X32.5361 Y18.5683 I16.0 J15.9
G3 X32.3515 Y18.9525 I31.7957 J18.4489
G3 X31.6876 Y19.6472 I18.908 J6.7712
G0 Z3.0
G0 X26.7137 Y15.106
G0 Z-3.5
G1 F300.0 Z-5.0
G2 F800.0 X26.2721 Y15.1888 I26.8128 J16.8531
G2 X25.6419 Y18.1536 I26.8128 J16.8531
G2 X28.5246 Y17.217 I26.8128 J16.8531
G2 X28.4631 Y16.2708 I26.8128 J16.8531
G3 X27.814 Y17.2584 I12.9868 J6.8054
G3 X27.7972 Y17.2812 I27.201 J16.8262
G3 X26.4013 Y17.4603 I27.0108 J16.6811
G3 X26.2581 Y17.3124 I26.8634 J16.8695
G3 X26.2203 Y15.8722 I27.2797 J16.565
G3 X26.2289 Y15.8593 I26.848 J16.2826
G2 X26.7137 Y15.106 I12.9868 J6.8054
G0 Z3.0
G0 X30.8941 Y9.7106
G0 Z-3.5
G1 F300.0 Z-5.0
G2 F800.0 X31.7335 Y8.5573 I30.0218 J8.1935
G2 X29.481 Y6.5291 I30.0218 J8.1935
G2 X28.808 Y9.4542 I30.0218 J8.1935
G2 X28.9752 Y8.1082 I12.9868 J6.8054
G2 X29.0042 Y7.6827 I12.9868 J6.8054
G3 X30.3978 Y7.3404 I29.7531 J7.7237
G3 X30.679 Y7.8323 I16.0 J15.9
G3 X30.9464 Y8.3391 I16.0 J15.9
G3 X31.0228 Y8.7584 I30.2772 J8.6776
G3 X30.8941 Y9.7106 I12.9868 J6.8054
G0 Z3.0
G0 X24.2008 Y8.9602
G0 Z-3.5
G1 F300.0 Z-5.0
G2 F800.0 X23.8922 Y9.2869 I25.308 J10.3155
G2 X25.1251 Y12.0559 I25.308 J10.3155
G2 X26.9067 Y9.6037 I25.308 J10.3155
G2 X26.3009 Y8.8744 I25.308 J10.3155
G3 X26.3562 Y10.0548 I8.2166 J10.3134
G3 X26.356 Y10.0832 I25.6062 J10.0655
G3 X25.332 Y11.0485 I25.367 J10.0599
G3 X25.1291 Y11.0131 I25.3586 J10.299
G3 X24.2521 Y9.8701 I25.5163 J9.8079
G3 X24.2515 Y9.8547 I25.0011 J9.8333
G2 X24.2008 Y8.9602 I8.2166 J10.3134
G0 Z3.0
G0 X24.4115 Y2.1381
G0 Z-3.5
G1 F300.0 Z-5.0
G2 F800.0 X24.4128 Y0.7117 I22.8141 J1.4235
G2 X21.3983 Y0.3949 I22.8141 J1.4235
G2 X22.5732 Y3.1569 I22.8141 J1.4235
G2 X21.9173 Y1.9697 I8.2166 J10.3134
G2 X21.6906 Y1.6083 I8.2166 J10.3134
G3 X22.6168 Y0.5123 I22.3206 J1.2013
G3 X23.1335 Y0.7449 I16.0 J15.9
G3 X23.6477 Y0.9978 I16.0 J15.9
G3 X23.9559 Y1.2921 I23.3053 J1.6651
G3 X24.4115 Y2.1381 I8.2166 J10.3134
G0 Z3.0
G0 X18.5555 Y5.4653
G0 Z-3.5
G1 F300.0 Z-5.0
G2 F800.0 X18.4978 Y5.9109 I20.2478 J5.9109
G2 X21.1228 Y7.4265 I20.2478 J5.9109
G2 Y4.3954 I20.2478 J5.9109
G2 X20.204 Y4.1615 I20.2478 J5.9109
G3 X20.9426 Y5.084 I6.4194 J15.9553
G3 X20.9592 Y5.107 I20.3422 J5.5334
G3 X20.6981 Y6.4899 I20.1454 J5.6694
G3 X20.5132 Y6.5804 I20.2791 J5.8679
G3 X19.1318 Y6.1713 I20.118 J5.3778
G3 X19.1222 Y6.1592 I19.7161 J5.7012
G2 X18.5555 Y5.4653 I6.4194 J15.9553
G0 Z3.0
G0 X14.716 Y-0.1778
G0 Z-3.5
G1 F300.0 Z-5.0
G2 F800.0 X13.8786 Y-1.3325 I13.0036 J0.1831
G2 X11.2536 Y0.1831 I13.0036 J0.1831
G2 X13.8276 Y1.727 I13.0036 J0.1831
G2 X12.5991 Y1.152 I6.4194 J15.9553
G2 X12.2034 Y0.993 I6.4194 J15.9553
G3 X12.3085 Y-0.4382 I12.4738 J0.2934
G3 X12.8632 Y-0.5537 I16.0 J15.9
G3 X13.4278 Y-0.6513 I16.0 J15.9
G3 X13.8502 Y-0.5944 I13.543 J0.0898
G3 X14.716 Y-0.1778 I6.4194 J15.9553
G0 Z3.0
G0 X11.9341 Y5.956
G0 Z-3.5
G1 F300.0 Z-5.0
G2 F800.0 X12.1494 Y6.3505 I13.5651 J5.3218
G2 X15.1638 Y6.0336 I13.5651 J5.3218
G2 X13.3822 Y3.5814 I13.5651 J5.3218
G2 X12.5014 Y3.9323 I13.5651 J5.3218
G3 X13.6412 Y4.2444 I8.2816 J21.5761
G3 X13.6681 Y4.2533 I13.4196 J4.961
G3 X14.2697 Y5.5256 I13.3403 J5.1867
G3 X14.1733 Y5.7075 I13.5651 J5.2687
G3 X12.8153 Y6.1885 I13.1468 J4.9669
G3 X12.8004 Y6.1843 I13.0117 J5.4647
G2 X11.9341 Y5.956 I8.2816 J21.5761
G0 Z3.0
G0 X5.511 Y3.6475
G0 Z-3.5
G1 F300.0 Z-5.0
G2 F800.0 X4.1548 Y3.2055 I4.3377 J4.946
G2 X2.9219 Y5.9746 I4.3377 J4.946
G2 X5.9118 Y5.7107 I4.3377 J4.946
G2 X4.58 Y5.9676 I8.2816 J21.5761
G2 X4.1663 Y6.0716 I8.2816 J21.5761
G3 X3.4102 Y4.852 I3.9739 J5.3467
G3 X3.791 Y4.4325 I16.0 J15.9
G3 X4.1904 Y4.0216 I16.0 J15.9
G3 X4.5656 Y3.8194 I4.7192 J4.5535
G3 X5.511 Y3.6475 I8.2816 J21.5761
G0 Z3.0
G0 X6.8657 Y10.245
G0 Z-3.5
G1 F300.0 Z-5.0
G2 F800.0 X7.2717 Y10.4376 I7.8125 J8.7733
G2 X9.5242 Y8.4094 I7.8125 J8.7733
G2 X6.6415 Y7.4728 I7.8125 J8.7733
G2 X6.1351 Y8.2743 I7.8125 J8.7733
G3 X7.2407 Y7.8569 I13.092 J25.0288
G3 X7.2677 Y7.8483 I7.4826 J8.5669
G3 X8.5022 Y8.5239 I7.5511 J8.7961
G3 X8.5312 Y8.7278 I7.7812 J8.7303
G3 X7.7152 Y9.9152 I7.2654 J8.732
G3 X7.7007 Y9.9205 I7.4487 J9.2141
G2 X6.8657 Y10.245 I13.092 J25.0288
G0 Z3.0
G0 X0.3124 Y12.1528
G0 Z-3.5
G1 F300.0 Z-5.0
G2 F800.0 X-1.0446 Y12.5924 I0.1264 J13.8929
G2 X-0.4144 Y15.5573 I0.1264 J13.8929
G2 X1.8493 Y13.5864 I0.1264 J13.8929
G2 X0.9229 Y14.577 I13.092 J25.0288
G2 X0.6493 Y14.9043 I13.092 J25.0288
G3 X-0.6792 Y14.3621 I0.0676 J14.4309
G3 X-0.6177 Y13.7988 I16.0 J15.9
G3 X-0.5361 Y13.2317 I16.0 J15.9
G3 X-0.3515 Y12.8475 I0.2043 J13.3511
G3 X0.3124 Y12.1528 I13.092 J25.0288
G0 Z3.0
G0 X5.2863 Y16.694
G0 Z-3.5
G1 F300.0 Z-5.0
G2 F800.0 X5.7279 Y16.6112 I5.1872 J14.9469
G2 X6.3581 Y13.6464 I5.1872 J14.9469
G2 X3.4754 Y14.583 I5.1872 J14.9469
G2 X3.5369 Y15.5292 I5.1872 J14.9469
G3 X4.186 Y14.5416 I19.0132 J24.9946
G3 X4.2028 Y14.5188 I4.799 J14.9738
G3 X5.5987 Y14.3397 I4.9892 J15.1189
G3 X5.7419 Y14.4876 I5.1366 J14.9305
G3 X5.7797 Y15.9278 I4.7203 J15.235
G3 X5.7711 Y15.9407 I5.152 J15.5174
G2 X5.2863 Y16.694 I19.0132 J24.9946
G0 Z3.0
G0 X1.1059 Y22.0894
G0 Z-3.5
G1 F300.0 Z-5.0
G2 F800.0 X0.2665 Y23.2427 I1.9782 J23.6065
G2 X2.519 Y25.2709 I1.9782 J23.6065
G2 X3.192 Y22.3458 I1.9782 J23.6065
G2 X3.0248 Y23.6918 I19.0132 J24.9946
G2 X2.9958 Y24.1173 I19.0132 J24.9946
G3 X1.6022 Y24.4596 I2.2469 J24.0763
G3 X1.321 Y23.9677 I16.0 J15.9
G3 X1.0536 Y23.4609 I16.0 J15.9
G3 X0.9772 Y23.0416 I1.7228 J23.1224
G3 X1.1059 Y22.0894 I19.0132 J24.9946
G0 Z3.0
G0 X7.7992 Y22.8398
G0 Z-3.5
G1 F300.0 Z-5.0
G2 F800.0 X8.1078 Y22.5131 I6.692 J21.4845
G2 X6.8749 Y19.7441 I6.692 J21.4845
G2 X5.0933 Y22.1963 I6.692 J21.4845
G2 X5.6991 Y22.9256 I6.692 J21.4845
G3 X5.6438 Y21.7452 I23.7834 J21.4866
G3 X5.644 Y21.7168 I6.3938 J21.7345
G3 X6.668 Y20.7515 I6.633 J21.7401
G3 X6.8709 Y20.7869 I6.6414 J21.501
G3 X7.7479 Y21.9299 I6.4837 J21.9921
G3 X7.7485 Y21.9453 I6.9989 J21.9667
G2 X7.7992 Y22.8398 I23.7834 J21.4866
G0 Z3.0
G0 X7.5885 Y29.6619
G0 Z-3.5
G1 F300.0 Z-5.0
G2 F800.0 X7.5872 Y31.0883 I9.1859 J30.3765
G2 X10.6017 Y31.4051 I9.1859 J30.3765
G2 X9.4268 Y28.6431 I9.1859 J30.3765
G2 X10.0827 Y29.8303 I23.7834 J21.4866
G2 X10.3094 Y30.1917 I23.7834 J21.4866
G3 X9.3832 Y31.2877 I9.6794 J30.5987
G3 X8.8665 Y31.0551 I16.0 J15.9
G3 X8.3523 Y30.8022 I16.0 J15.9
G3 X8.0441 Y30.5079 I8.6947 J30.1349
G3 X7.5885 Y29.6619 I23.7834 J21.4866
G0 Z3.0
G0 X13.4445 Y26.3347
G0 Z-3.5
G1 F300.0 Z-5.0
G2 F800.0 X13.5022 Y25.8891 I11.7522 J25.8891
G2 X10.8772 Y24.3735 I11.7522 J25.8891
G2 Y27.4046 I11.7522 J25.8891
G2 X11.796 Y27.6385 I11.7522 J25.8891
G3 X11.0574 Y26.716 I25.5806 J15.8447
G3 X11.0408 Y26.693 I11.6578 J26.2666
G3 X11.3019 Y25.3101 I11.8546 J26.1306
G3 X11.4868 Y25.2196 I11.7209 J25.9321
G3 X12.8682 Y25.6287 I11.882 J26.4222
G3 X12.8778 Y25.6408 I12.2839 J26.0988
G2 X13.4445 Y26.3347 I25.5806 J15.8447
G0 Z3.0
G0 X17.284 Y31.9778
G0 Z-3.5
G1 F300.0 Z-5.0
G2 F800.0 X18.1214 Y33.1325 I18.9964 J31.6169
G2 X20.7464 Y31.6169 I18.9964 J31.6169
G2 X18.1724 Y30.073 I18.9964 J31.6169
G2 X19.4009 Y30.648 I25.5806 J15.8447
G2 X19.7966 Y30.807 I25.5806 J15.8447
G3 X19.6915 Y32.2382 I19.5262 J31.5066
G3 X19.1368 Y32.3537 I16.0 J15.9
G3 X18.5722 Y32.4513 I16.0 J15.9
G3 X18.1498 Y32.3944 I18.457 J31.7102
G3 X17.284 Y31.9778 I25.5806 J15.8447
G0 Z3.0
G0 X20.0659 Y25.844
G0 Z-4.5
G1 F300.0 Z-6.0
G2 F800.0 X19.8506 Y25.4495 I18.4349 J26.4782
G2 X16.8362 Y25.7664 I18.4349 J26.4782
G2 X18.6178 Y28.2186 I18.4349 J26.4782
G2 X19.4986 Y27.8677 I18.4349 J26.4782
G3 X18.3588 Y27.5556 I23.7184 J10.2239
G3 X18.3319 Y27.5467 I18.5804 J26.839
G3 X17.7303 Y26.2744 I18.6597 J26.6133
G3 X17.8267 Y26.0925 I18.4349 J26.5313
G3 X19.1847 Y25.6115 I18.8532 J26.8331
G3 X19.1996 Y25.6157 I18.9883 J26.3353
G2 X20.0659 Y25.844 I23.7184 J10.2239
G0 Z3.0
G0 X26.489 Y28.1525
G0 Z-4.5
G1 F300.0 Z-6.0
G2 F800.0 X27.8452 Y28.5945 I27.6623 J26.854
G2 X29.0781 Y25.8254 I27.6623 J26.854
G2 X26.0882 Y26.0893 I27.6623 J26.854
G2 X27.42 Y25.8324 I23.7184 J10.2239
G2 X27.8337 Y25.7284 I23.7184 J10.2239
G3 X28.5898 Y26.948 I28.0261 J26.4533
G3 X28.209 Y27.3675 I16.0 J15.9
G3 X27.8096 Y27.7784 I16.0 J15.9
G3 X27.4344 Y27.9806 I27.2808 J27.2465
G3 X26.489 Y28.1525 I23.7184 J10.2239
G0 Z3.0
G0 X25.1343 Y21.555
G0 Z-4.5
G1 F300.0 Z-6.0
G2 F800.0 X24.7283 Y21.3624 I24.1875 J23.0267
G2 X22.4758 Y23.3906 I24.1875 J23.0267
G2 X25.3585 Y24.3272 I24.1875 J23.0267
G2 X25.8649 Y23.5257 I24.1875 J23.0267
G3 X24.7593 Y23.9431 I18.908 J6.7712
G3 X24.7323 Y23.9517 I24.5174 J23.2331
G3 X23.4978 Y23.2761 I24.4489 J23.0039
G3 X23.4688 Y23.0722 I24.2188 J23.0697
G3 X24.2848 Y21.8848 I24.7346 J23.068
G3 X24.2993 Y21.8795 I24.5513 J22.5859
G2 X25.1343 Y21.555 I18.908 J6.7712
G0 Z3.0
G0 X31.6876 Y19.6472
G0 Z-4.5
G1 F300.0 Z-6.0
G2 F800.0 X33.0446 Y19.2076 I31.8736 J17.9071
G2 X32.4144 Y16.2427 I31.8736 J17.9071
G2 X30.1507 Y18.2136 I31.8736 J17.9071
G2 X31.0771 Y17.223 I18.908 J6.7712
G2 X31.3507 Y16.8957 I18.908 J6.7712
G3 X32.6792 Y17.4379 I31.9324 J17.3691
G3 X32.6177 Y18.0012 I16.0 J15.9
G3 X32.5361 Y18.5683 I16.0 J15.9
G3 X32.3515 Y18.9525 I31.7957 J18.4489
G3 X31.6876 Y19.6472 I18.908 J6.7712
G0 Z3.0
G0 X26.7137 Y15.106
G0 Z-4.5
G1 F300.0 Z-6.0
G2 F800.0 X26.2721 Y15.1888 I26.8128 J16.8531
G2 X25.6419 Y18.1536 I26.8128 J16.8531
G2 X28.5246 Y17.217 I26.8128 J16.8531
G2 X28.4631 Y16.2708 I26.8128 J16.8531
G3 X27.814 Y17.2584 I12.9868 J6.8054
G3 X27.7972 Y17.2812 I27.201 J16.8262
G3 X26.4013 Y17.4603 I27.0108 J16.6811
G3 X26.2581 Y17.3124 I26.8634 J16.8695
G3 X26.2203 Y15.8722 I27.2797 J16.565
G3 X26.2289 Y15.8593 I26.848 J16.2826
G2 X26.7137 Y15.106 I12.9868 J6.8054
G0 Z3.0
G0 X30.8941 Y9.7106
G0 Z-4.5
G1 F300.0 Z-6.0
G2 F800.0 X31.7335 Y8.5573 I30.0218 J8.1935
G2 X29.481 Y6.5291 I30.0218 J8.1935
G2 X28.808 Y9.4542 I30.0218 J8.1935
G2 X28.9752 Y8.1082 I12.9868 J6.8054
G2 X29.0042 Y7.6827 I12.9868 J6.8054
G3 X30.3978 Y7.3404 I29.7531 J7.7237
G3 X30.679 Y7.8323 I16.0 J15.9
G3 X30.9464 Y8.3391 I16.0 J15.9
G3 X31.0228 Y8.7584 I30.2772 J8.6776
G3 X30.8941 Y9.7106 I12.9868 J6.8054
G0 Z3.0
G0 X24.2008 Y8.9602
G0 Z-4.5
G1 F300.0 Z-6.0
G2 F800.0 X23.8922 Y9.2869 I25.308 J10.3155
G2 X25.1251 Y12.0559 I25.308 J10.3155
G2 X26.9067 Y9.6037 I25.308 J10.3155
G2 X26.3009 Y8.8744 I25.308 J10.3155
G3 X26.3562 Y10.0548 I8.2166 J10.3134
G3 X26.356 Y10.0832 I25.6062 J10.0655
G3 X25.332 Y11.0485 I25.367 J10.0599
G3 X25.1291 Y11.0131 I25.3586 J10.299
G3 X24.2521 Y9.8701 I25.5163 J9.8079
G3 X24.2515 Y9.8547 I25.0011 J9.8333
G2 X24.2008 Y8.9602 I8.2166 J10.3134
G0 Z3.0
G0 X24.4115 Y2.1381
G0 Z-4.5
G1 F300.0 Z-6.0
G2 F800.0 X24.4128 Y0.7117 I22.8141 J1.4235
G2 X21.3983 Y0.3949 I22.8141 J1.4235
G2 X22.5732 Y3.1569 I22.8141 J1.4235
G2 X21.9173 Y1.9697 I8.2166 J10.3134
G2 X21.6906 Y1.6083 I8.2166 J10.3134
G3 X22.6168 Y0.5123 I22.3206 J1.2013
G3 X23.1335 Y0.7449 I16.0 J15.9
G3 X23.6477 Y0.9978 I16.0 J15.9
G3 X23.9559 Y1.2921 I23.3053 J1.6651
G3 X24.4115 Y2.1381 I8.2166 J10.3134
G0 Z3.0
G0 X18.5555 Y5.4653
G0 Z-4.5
G1 F300.0 Z-6.0
G2 F800.0 X18.4978 Y5.9109 I20.2478 J5.9109
G2 X21.1228 Y7.4265 I20.2478 J5.9109
G2 Y4.3954 I20.2478 J5.9109
G2 X20.204 Y4.1615 I20.2478 J5.9109
G3 X20.9426 Y5.084 I6.4194 J15.9553
G3 X20.9592 Y5.107 I20.3422 J5.5334
G3 X20.6981 Y6.4899 I20.1454 J5.6694
G3 X20.5132 Y6.5804 I20.2791 J5.8679
G3 X19.1318 Y6.1713 I20.118 J5.3778
G3 X19.1222 Y6.1592 I19.7161 J5.7012
G2 X18.5555 Y5.4653 I6.4194 J15.9553
G0 Z3.0
G0 X14.716 Y-0.1778
G0 Z-4.5
G1 F300.0 Z-6.0
G2 F800.0 X13.8786 Y-1.3325 I13.0036 J0.1831
G2 X11.2536 Y0.1831 I13.0036 J0.1831
G2 X13.8276 Y1.727 I13.0036 J0.1831
G2 X12.5991 Y1.152 I6.4194 J15.9553
G2 X12.2034 Y0.993 I6.4194 J15.9553
G3 X12.3085 Y-0.4382 I12.4738 J0.2934
G3 X12.8632 Y-0.5537 I16.0 J15.9
G3 X13.4278 Y-0.6513 I16.0 J15.9
G3 X13.8502 Y-0.5944 I13.543 J0.0898
G3 X14.716 Y-0.1778 I6.4194 J15.9553
G0 Z3.0
G0 X11.9341 Y5.956
G0 Z-4.5
G1 F300.0 Z-6.0
G2 F800.0 X12.1494 Y6.3505 I13.5651 J5.3218
G2 X15.1638 Y6.0336 I13.5651 J5.3218
G2 X13.3822 Y3.5814 I13.5651 J5.3218
G2 X12.5014 Y3.9323 I13.5651 J5.3218
G3 X13.6412 Y4.2444 I8.2816 J21.5761
G3 X13.6681 Y4.2533 I13.4196 J4.961
G3 X14.2697 Y5.5256 I13.3403 J5.1867
G3 X14.1733 Y5.7075 I13.5651 J5.2687
G3 X12.8153 Y6.1885 I13.1468 J4.9669
G3 X12.8004 Y6.1843 I13.0117 J5.4647
G2 X11.9341 Y5.956 I8.2816 J21.5761
G0 Z3.0
G0 X5.511 Y3.6475
G0 Z-4.5
G1 F300.0 Z-6.0
G2 F800.0 X4.1548 Y3.2055 I4.3377 J4.946
G2 X2.9219 Y5.9746 I4.3377 J4.946
G2 X5.9118 Y5.7107 I4.3377 J4.946
G2 X4.58 Y5.9676 I8.2816 J21.5761
G2 X4.1663 Y6.0716 I8.2816 J21.5761
G3 X3.4102 Y4.852 I3.9739 J5.3467
G3 X3.791 Y4.4325 I16.0 J15.9
G3 X4.1904 Y4.0216 I16.0 J15.9
G3 X4.5656 Y3.8194 I4.7192 J4.5535
G3 X5.511 Y3.6475 I8.2816 J21.5761
G0 Z3.0
G0 X6.8657 Y10.245
G0 Z-4.5
G1 F300.0 Z-6.0
G2 F800.0 X7.2717 Y10.4376 I7.8125 J8.7733
G2 X9.5242 Y8.4094 I7.8125 J8.7733
G2 X6.6415 Y7.4728 I7.8125 J8.7733
G2 X6.1351 Y8.2743 I7.8125 J8.7733
G3 X7.2407 Y7.8569 I13.092 J25.0288
G3 X7.2677 Y7.8483 I7.4826 J8.5669
G3 X8.5022 Y8.5239 I7.5511 J8.7961
G3 X8.5312 Y8.7278 I7.7812 J8.7303
G3 X7.7152 Y9.9152 I7.2654 J8.732
G3 X7.7007 Y9.9205 I7.4487 J9.2141
G2 X6.8657 Y10.245 I13.092 J25.0288
G0 Z3.0
G0 X0.3124 Y12.1528
G0 Z-4.5
G1 F300.0 Z-6.0
G2 F800.0 X-1.0446 Y12.5924 I0.1264 J13.8929
G2 X-0.4144 Y15.5573 I0.1264 J13.8929
G2 X1.8493 Y13.5864 I0.1264 J13.8929
G2 X0.9229 Y14.577 I13.092 J25.0288
G2 X0.6493 Y14.9043 I13.092 J25.0288
G3 X-0.6792 Y14.3621 I0.0676 J14.4309
G3 X-0.6177 Y13.7988 I16.0 J15.9
G3 X-0.5361 Y13.2317 I16.0 J15.9
G3 X-0.3515 Y12.8475 I0.2043 J13.3511
G3 X0.3124 Y12.1528 I13.092 J25.0288
G0 Z3.0
G0 X5.2863 Y16.694
G0 Z-4.5
G1 F300.0 Z-6.0
G2 F800.0 X5.7279 Y16.6112 I5.1872 J14.9469
G2 X6.3581 Y13.6464 I5.1872 J14.9469
G2 X3.4754 Y14.583 I5.1872 J14.9469
G2 X3.5369 Y15.5292 I5.1872 J14.9469
G3 X4.186 Y14.5416 I19.0132 J24.9946
G3 X4.2028 Y14.5188 I4.799 J14.9738
G3 X5.5987 Y14.3397 I4.9892 J15.1189
G3 X5.7419 Y14.4876 I5.1366 J14.9305
G3 X5.7797 Y15.9278 I4.7203 J15.235
G3 X5.7711 Y15.9407 I5.152 J15.5174
G2 X5.2863 Y16.694 I19.0132 J24.9946
G0 Z3.0
G0 X1.1059 Y22.0894
G0 Z-4.5
G1 F300.0 Z-6.0
G2 F800.0 X0.2665 Y23.2427 I1.9782 J23.6065
G2 X2.519 Y25.2709 I1.9782 J23.6065
G2 X3.192 Y22.3458 I1.9782 J23.6065
G2 X3.0248 Y23.6918 I19.0132 J24.9946
G2 X2.9958 Y24.1173 I19.0132 J24.9946
G3 X1.6022 Y24.4596 I2.2469 J24.0763
G3 X1.321 Y23.9677 I16.0 J15.9
G3 X1.0536 Y23.4609 I16.0 J15.9
G3 X0.9772 Y23.0416 I1.7228 J23.1224
G3 X1.1059 Y22.0894 I19.0132 J24.9946
G0 Z3.0
G0 X7.7992 Y22.8398
G0 Z-4.5
G1 F300.0 Z-6.0
G2 F800.0 X8.1078 Y22.5131 I6.692 J21.4845
G2 X6.8749 Y19.7441 I6.692 J21.4845
G2 X5.0933 Y22.1963 I6.692 J21.4845
G2 X5.6991 Y22.9256 I6.692 J21.4845
G3 X5.6438 Y21.7452 I23.7834 J21.4866
G3 X5.644 Y21.7168 I6.3938 J21.7345
G3 X6.668 Y20.7515 I6.633 J21.7401
G3 X6.8709 Y20.7869 I6.6414 J21.501
G3 X7.7479 Y21.9299 I6.4837 J21.9921
G3 X7.7485 Y21.9453 I6.9989 J21.9667
G2 X7.7992 Y22.8398 I23.7834 J21.4866
G0 Z3.0
G0 X7.5885 Y29.6619
G0 Z-4.5
G1 F300.0 Z-6.0
G2 F800.0 X7.5872 Y31.0883 I9.1859 J30.3765
G2 X10.6017 Y31.4051 I9.1859 J30.3765
G2 X9.4268 Y28.6431 I9.1859 J30.3765
G2 X10.0827 Y29.8303 I23.7834 J21.4866
G2 X10.3094 Y30.1917 I23.7834 J21.4866
G3 X9.3832 Y31.2877 I9.6794 J30.5987
G3 X8.8665 Y31.0551 I16.0 J15.9
G3 X8.3523 Y30.8022 I16.0 J15.9
G3 X8.0441 Y30.5079 I8.6947 J30.1349
G3 X7.5885 Y29.6619 I23.7834 J21.4866
G0 Z3.0
G0 X13.4445 Y26.3347
G0 Z-4.5
G1 F300.0 Z-6.0
G2 F800.0 X13.5022 Y25.8891 I11.7522 J25.8891
G2 X10.8772 Y24.3735 I11.7522 J25.8891
G2 Y27.4046 I11.7522 J25.8891
G2 X11.796 Y27.6385 I11.7522 J25.8891
G3 X11.0574 Y26.716 I25.5806 J15.8447
G3 X11.0408 Y26.693 I11.6578 J26.2666
G3 X11.3019 Y25.3101 I11.8546 J26.1306
G3 X11.4868 Y25.2196 I11.7209 J25.9321
G3 X12.8682 Y25.6287 I11.882 J26.4222
G3 X12.8778 Y25.6408 I12.2839 J26.0988
G2 X13.4445 Y26.3347 I25.5806 J15.8447
G0 Z3.0
G0 X17.284 Y31.9778
G0 Z-4.5
G1 F300.0 Z-6.0
G2 F800.0 X18.1214 Y33.1325 I18.9964 J31.6169
G2 X20.7464 Y31.6169 I18.9964 J31.6169
G2 X18.1724 Y30.073 I18.9964 J31.6169
G2 X19.4009 Y30.648 I25.5806 J15.8447
G2 X19.7966 Y30.807 I25.5806 J15.8447
G3 X19.6915 Y32.2382 I19.5262 J31.5066
G3 X19.1368 Y32.3537 I16.0 J15.9
G3 X18.5722 Y32.4513 I16.0 J15.9
G3 X18.1498 Y32.3944 I18.457 J31.7102
G3 X17.284 Y31.9778 I25.5806 J15.8447
G0 Z3.0
G0 X20.0659 Y25.844
G0 Z-5.5
G1 F300.0 Z-7.0
G2 F800.0 X19.8506 Y25.4495 I18.4349 J26.4782
G2 X16.8362 Y25.7664 I18.4349 J26.4782
G2 X18.6178 Y28.2186 I18.4349 J26.4782
G2 X19.4986 Y27.8677 I18.4349 J26.4782
G3 X18.3588 Y27.5556 I23.7184 J10.2239
G3 X18.3319 Y27.5467 I18.5804 J26.839
G3 X17.7303 Y26.2744 I18.6597 J26.6133
G3 X17.8267 Y26.0925 I18.4349 J26.5313
G3 X19.1847 Y25.6115 I18.8532 J26.8331
G3 X19.1996 Y25.6157 I18.9883 J26.3353
G2 X20.0659 Y25.844 I23.7184 J10.2239
G0 Z3.0
G0 X26.489 Y28.1525
G0 Z-5.5
G1 F300.0 Z-7.0
G2 F800.0 X27.8452 Y28.5945 I27.6623 J26.854
G2 X29.0781 Y25.8254 I27.6623 J26.854
G2 X26.0882 Y26.0893 I27.6623 J26.854
G2 X27.42 Y25.8324 I23.7184 J10.2239
G2 X27.8337 Y25.7284 I23.7184 J10.2239
G3 X28.5898 Y26.948 I28.0261 J26.4533
G3 X28.209 Y27.3675 I16.0 J15.9
G3 X27.8096 Y27.7784 I16.0 J15.9
G3 X27.4344 Y27.9806 I27.2808 J27.2465
G3 X26.489 Y28.1525 I23.7184 J10.2239
G0 Z3.0
G0 X25.1343 Y21.555
G0 Z-5.5
G1 F300.0 Z-7.0
G2 F800.0 X24.7283 Y21.3624 I24.1875 J23.0267
G2 X22.4758 Y23.3906 I24.1875 J23.0267
G2 X25.3585 Y24.3272 I24.1875 J23.0267
G2 X25.8649 Y23.5257 I24.1875 J23.0267
G3 X24.7593 Y23.9431 I18.908 J6.7712
G3 X24.7323 Y23.9517 I24.5174 J23.2331
G3 X23.4978 Y23.2761 I24.4489 J23.0039
G3 X23.4688 Y23.0722 I24.2188 J23.0697
G3 X24.2848 Y21.8848 I24.7346 J23.068
G3 X24.2993 Y21.8795 I24.5513 J22.5859
G2 X25.1343 Y21.555 I18.908 J6.7712
G0 Z3.0
G0 X31.6876 Y19.6472
G0 Z-5.5
G1 F300.0 Z-7.0
G2 F800.0 X33.0446 Y19.2076 I31.8736 J17.9071
G2 X32.4144 Y16.2427 I31.8736 J17.9071
G2 X30.1507 Y18.2136 I31.8736 J17.9071
G2 X31.0771 Y17.223 I18.908 J6.7712
G2 X31.3507 Y16.8957 I18.908 J6.7712
G3 X32.6792 Y17.4379 I31.9324 J17.3691
G3 X32.6177 Y18.0012 I16.0 J15.9
G3 X32.5361 Y18.5683 I16.0 J15.9
G3 X32.3515 Y18.9525 I31.7957 J18.4489
G3 X31.6876 Y19.6472 I18.908 J6.7712
G0 Z3.0
G0 X26.7137 Y15.106
G0 Z-5.5
G1 F300.0 Z-7.0
G2 F800.0 X26.2721 Y15.1888 I26.8128 J16.8531
G2 X25.6419 Y18.1536 I26.8128 J16.8531
G2 X28.5246 Y17.217 I26.8128 J16.8531
G2 X28.4631 Y16.2708 I26.8128 J16.8531
G3 X27.814 Y17.2584 I12.9868 J6.8054
G3 X27.7972 Y17.2812 I27.201 J16.8262
G3 X26.4013 Y17.4603 I27.0108 J16.6811
G3 X26.2581 Y17.3124 I26.8634 J16.8695
G3 X26.2203 Y15.8722 I27.2797 J16.565
G3 X26.2289 Y15.8593 I26.848 J16.2826
G2 X26.7137 Y15.106 I12.9868 J6.8054
G0 Z3.0
G0 X30.8941 Y9.7106
G0 Z-5.5
G1 F300.0 Z-7.0
G2 F800.0 X31.7335 Y8.5573 I30.0218 J8.1935
G2 X29.481 Y6.5291 I30.0218 J8.1935
G2 X28.808 Y9.4542 I30.0218 J8.1935
G2 X28.9752 Y8.1082 I12.9868 J6.8054
G2 X29.0042 Y7.6827 I12.9868 J6.8054
G3 X30.3978 Y7.3404 I29.7531 J7.7237
G3 X30.679 Y7.8323 I16.0 J15.9
G3 X30.9464 Y8.3391 I16.0 J15.9
G3 X31.0228 Y8.7584 I30.2772 J8.6776
G3 X30.8941 Y9.7106 I12.9868 J6.8054
G0 Z3.0
G0 X24.2008 Y8.9602
G0 Z-5.5
G1 F300.0 Z-7.0
G2 F800.0 X23.8922 Y9.2869 I25.308 J10.3155
G2 X25.1251 Y12.0559 I25.308 J10.3155
G2 X26.9067 Y9.6037 I25.308 J10.3155
G2 X26.3009 Y8.8744 I25.308 J10.3155
G3 X26.3562 Y10.0548 I8.2166 J10.3134
G3 X26.356 Y10.0832 I25.6062 J10.0655
G3 X25.332 Y11.0485 I25.367 J10.0599
G3 X25.1291 Y11.0131 I25.3586 J10.299
G3 X24.2521 Y9.8701 I25.5163 J9.8079
G3 X24.2515 Y9.8547 I25.0011 J9.8333
G2 X24.2008 Y8.9602 I8.2166 J10.3134
G0 Z3.0
G0 X24.4115 Y2.1381
G0 Z-5.5
G1 F300.0 Z-7.0
G2 F800.0 X24.4128 Y0.7117 I22.8141 J1.4235
G2 X21.3983 Y0.3949 I22.8141 J1.4235
G2 X22.5732 Y3.1569 I22.8141 J1.4235
G2 X21.9173 Y1.9697 I8.2166 J10.3134
G2 X21.6906 Y1.6083 I8.2166 J10.3134
G3 X22.6168 Y0.5123 I22.3206 J1.2013
G3 X23.1335 Y0.7449 I16.0 J15.9
G3 X23.6477 Y0.9978 I16.0 J15.9
G3 X23.9559 Y1.2921 I23.3053 J1.6651
G3 X24.4115 Y2.1381 I8.2166 J10.3134
G0 Z3.0
G0 X18.5555 Y5.4653
G0 Z-5.5
G1 F300.0 Z-7.0
G2 F800.0 X18.4978 Y5.9109 I20.2478 J5.9109
G2 X21.1228 Y7.4265 I20.2478 J5.9109
G2 Y4.3954 I20.2478 J5.9109
G2 X20.204 Y4.1615 I20.2478 J5.9109
G3 X20.9426 Y5.084 I6.4194 J15.9553
G3 X20.9592 Y5.107 I20.3422 J5.5334
G3 X20.6981 Y6.4899 I20.1454 J5.6694
G3 X20.5132 Y6.5804 I20.2791 J5.8679
G3 X19.1318 Y6.1713 I20.118 J5.3778
G3 X19.1222 Y6.1592 I19.7161 J5.7012
G2 X18.5555 Y5.4653 I6.4194 J15.9553
G0 Z3.0
G0 X14.716 Y-0.1778
G0 Z-5.5
G1 F300.0 Z-7.0
G2 F800.0 X13.8786 Y-1.3325 I13.0036 J0.1831
G2 X11.2536 Y0.1831 I13.0036 J0.1831
G2 X13.8276 Y1.727 I13.0036 J0.1831
G2 X12.5991 Y1.152 I6.4194 J15.9553
G2 X12.2034 Y0.993 I6.4194 J15.9553
G3 X12.3085 Y-0.4382 I12.4738 J0.2934
G3 X12.8632 Y-0.5537 I16.0 J15.9
G3 X13.4278 Y-0.6513 I16.0 J15.9
G3 X13.8502 Y-0.5944 I13.543 J0.0898
G3 X14.716 Y-0.1778 I6.4194 J15.9553
G0 Z3.0
G0 X11.9341 Y5.956
G0 Z-5.5
G1 F300.0 Z-7.0
G2 F800.0 X12.1494 Y6.3505 I13.5651 J5.3218
G2 X15.1638 Y6.0336 I13.5651 J5.3218
G2 X13.3822 Y3.5814 I13.5651 J5.3218
G2 X12.5014 Y3.9323 I13.5651 J5.3218
G3 X13.6412 Y4.2444 I8.2816 J21.5761
G3 X13.6681 Y4.2533 I13.4196 J4.961
G3 X14.2697 Y5.5256 I13.3403 J5.1867
G3 X14.1733 Y5.7075 I13.5651 J5.2687
G3 X12.8153 Y6.1885 I13.1468 J4.9669
G3 X12.8004 Y6.1843 I13.0117 J5.4647
G2 X11.9341 Y5.956 I8.2816 J21.5761
G0 Z3.0
G0 X5.511 Y3.6475
G0 Z-5.5
G1 F300.0 Z-7.0
G2 F800.0 X4.1548 Y3.2055 I4.3377 J4.946
G2 X2.9219 Y5.9746 I4.3377 J4.946
G2 X5.9118 Y5.7107 I4.3377 J4.946
G2 X4.58 Y5.9676 I8.2816 J21.5761
G2 X4.1663 Y6.0716 I8.2816 J21.5761
G3 X3.4102 Y4.852 I3.9739 J5.3467
G3 X3.791 Y4.4325 I16.0 J15.9
G3 X4.1904 Y4.0216 I16.0 J15.9
G3 X4.5656 Y3.8194 I4.7192 J4.5535
G3 X5.511 Y3.6475 I8.2816 J21.5761
G0 Z3.0
G0 X6.8657 Y10.245
G0 Z-5.5
G1 F300.0 Z-7.0
G2 F800.0 X7.2717 Y10.4376 I7.8125 J8.7733
G2 X9.5242 Y8.4094 I7.8125 J8.7733
G2 X6.6415 Y7.4728 I7.8125 J8.7733
G2 X6.1351 Y8.2743 I7.8125 J8.7733
G3 X7.2407 Y7.8569 I13.092 J25.0288
G3 X7.2677 Y7.8483 I7.4826 J8.5669
G3 X8.5022 Y8.5239 I7.5511 J8.7961
G3 X8.5312 Y8.7278 I7.7812 J8.7303
G3 X7.7152 Y9.9152 I7.2654 J8.732
G3 X7.7007 Y9.9205 I7.4487 J9.2141
G2 X6.8657 Y10.245 I13.092 J25.0288
G0 Z3.0
G0 X0.3124 Y12.1528
G0 Z-5.5
G1 F300.0 Z-7.0
G2 F800.0 X-1.0446 Y12.5924 I0.1264 J13.8929
G2 X-0.4144 Y15.5573 I0.1264 J13.8929
G2 X1.8493 Y13.5864 I0.1264 J13.8929
G2 X0.9229 Y14.577 I13.092 J25.0288
G2 X0.6493 Y14.9043 I13.092 J25.0288
G3 X-0.6792 Y14.3621 I0.0676 J14.4309
G3 X-0.6177 Y13.7988 I16.0 J15.9
G3 X-0.5361 Y13.2317 I16.0 J15.9
G3 X-0.3515 Y12.8475 I0.2043 J13.3511
G3 X0.3124 Y12.1528 I13.092 J25.0288
G0 Z3.0
G0 X5.2863 Y16.694
G0 Z-5.5
G1 F300.0 Z-7.0
G2 F800.0 X5.7279 Y16.6112 I5.1872 J14.9469
G2 X6.3581 Y13.6464 I5.1872 J14.9469
G2 X3.4754 Y14.583 I5.1872 J14.9469
G2 X3.5369 Y15.5292 I5.1872 J14.9469
G3 X4.186 Y14.5416 I19.0132 J24.9946
G3 X4.2028 Y14.5188 I4.799 J14.9738
G3 X5.5987 Y14.3397 I4.9892 J15.1189
G3 X5.7419 Y14.4876 I5.1366 J14.9305
G3 X5.7797 Y15.9278 I4.7203 J15.235
G3 X5.7711 Y15.9407 I5.152 J15.5174
G2 X5.2863 Y16.694 I19.0132 J24.9946
G0 Z3.0
G0 X1.1059 Y22.0894
G0 Z-5.5
G1 F300.0 Z-7.0
G2 F800.0 X0.2665 Y23.2427 I1.9782 J23.6065
G2 X2.519 Y25.2709 I1.9782 J23.6065
G2 X3.192 Y22.3458 I1.9782 J23.6065
G2 X3.0248 Y23.6918 I19.0132 J24.9946
G2 X2.9958 Y24.1173 I19.0132 J24.9946
G3 X1.6022 Y24.4596 I2.2469 J24.0763
G3 X1.321 Y23.9677 I16.0 J15.9
G3 X1.0536 Y23.4609 I16.0 J15.9
G3 X0.9772 Y23.0416 I1.7228 J23.1224
G3 X1.1059 Y22.0894 I19.0132 J24.9946
G0 Z3.0
G0 X7.7992 Y22.8398
G0 Z-5.5
G1 F300.0 Z-7.0
G2 F800.0 X8.1078 Y22.5131 I6.692 J21.4845
G2 X6.8749 Y19.7441 I6.692 J21.4845
G2 X5.0933 Y22.1963 I6.692 J21.4845
G2 X5.6991 Y22.9256 I6.692 J21.4845
G3 X5.6438 Y21.7452 I23.7834 J21.4866
G3 X5.644 Y21.7168 I6.3938 J21.7345
G3 X6.668 Y20.7515 I6.633 J21.7401
G3 X6.8709 Y20.7869 I6.6414 J21.501
G3 X7.7479 Y21.9299 I6.4837 J21.9921
G3 X7.7485 Y21.9453 I6.9989 J21.9667
G2 X7.7992 Y22.8398 I23.7834 J21.4866
G0 Z3.0
G0 X7.5885 Y29.6619
G0 Z-5.5
G1 F300.0 Z-7.0
G2 F800.0 X7.5872 Y31.0883 I9.1859 J30.3765
G2 X10.6017 Y31.4051 I9.1859 J30.3765
G2 X9.4268 Y28.6431 I9.1859 J30.3765
G2 X10.0827 Y29.8303 I23.7834 J21.4866
G2 X10.3094 Y30.1917 I23.7834 J21.4866
G3 X9.3832 Y31.2877 I9.6794 J30.5987
G3 X8.8665 Y31.0551 I16.0 J15.9
G3 X8.3523 Y30.8022 I16.0 J15.9
G3 X8.0441 Y30.5079 I8.6947 J30.1349
G3 X7.5885 Y29.6619 I23.7834 J21.4866
G0 Z3.0
G0 X13.4445 Y26.3347
G0 Z-5.5
G1 F300.0 Z-7.0
G2 F800.0 X13.5022 Y25.8891 I11.7522 J25.8891
G2 X10.8772 Y24.3735 I11.7522 J25.8891
G2 Y27.4046 I11.7522 J25.8891
G2 X11.796 Y27.6385 I11.7522 J25.8891
G3 X11.0574 Y26.716 I25.5806 J15.8447
G3 X11.0408 Y26.693 I11.6578 J26.2666
G3 X11.3019 Y25.3101 I11.8546 J26.1306
G3 X11.4868 Y25.2196 I11.7209 J25.9321
G3 X12.8682 Y25.6287 I11.882 J26.4222
G3 X12.8778 Y25.6408 I12.2839 J26.0988
G2 X13.4445 Y26.3347 I25.5806 J15.8447
G0 Z3.0
G0 X17.284 Y31.9778
G0 Z-5.5
G1 F300.0 Z-7.0
G2 F800.0 X18.1214 Y33.1325 I18.9964 J31.6169
G2 X20.7464 Y31.6169 I18.9964 J31.6169
G2 X18.1724 Y30.073 I18.9964 J31.6169
G2 X19.4009 Y30.648 I25.5806 J15.8447
G2 X19.7966 Y30.807 I25.5806 J15.8447
G3 X19.6915 Y32.2382 I19.5262 J31.5066
G3 X19.1368 Y32.3537 I16.0 J15.9
G3 X18.5722 Y32.4513 I16.0 J15.9
G3 X18.1498 Y32.3944 I18.457 J31.7102
G3 X17.284 Y31.9778 I25.5806 J15.8447
( Epaulement )
G0 Z3.0
G0 X23.625 Y15.9
G0 Z0.5
G1 F300.0 Z-1.2
G3 F800.0 X12.1875 Y22.5034 I16.0 J15.9
G3 Y9.2966 I16.0 J15.9
G3 X23.625 Y15.9 I16.0 J15.9
G1 F300.0 Z-2.0
G3 F800.0 X12.1875 Y22.5034 I16.0 J15.9
G3 Y9.2966 I16.0 J15.9
G3 X23.625 Y15.9 I16.0 J15.9
( Evidage )
G0 Z-1.0
G1 F300.0 X24.35
G3 F800.0 X11.825 Y23.1313 I16.0 J15.9
G3 Y8.6687 I16.0 J15.9
G3 X24.35 Y15.9 I16.0 J15.9
G0 Z3.0
G0 X25.0936 Y14.2159
G0 Z0.5
G1 F300.0 Z-1.0
G3 F800.0 X25.84 Y13.859 I26.8128 J16.8531
G3 X26.4565 Y13.7252 I26.8128 J16.8531
G2 X26.7544 Y13.1117 I12.9868 J6.8054
G3 X24.9789 Y13.4464 I25.308 J10.3155
G3 X24.9148 Y13.439 I25.308 J10.3155
G3 X25.0936 Y14.2159 I16.0 J15.9
G0 Z3.0
G0 X24.6587 Y19.149
G0 Z0.5
G1 F300.0 Z-1.0
G3 F800.0 X24.3468 Y19.8826 I16.0 J15.9
G3 X25.1604 Y20.0326 I24.1875 J23.0267
G3 X25.7378 Y20.2867 I24.1875 J23.0267
G2 X26.3394 Y19.9655 I18.908 J6.7712
G3 X24.7063 Y19.1927 I26.8128 J16.8531
G3 X24.6587 Y19.149 I26.8128 J16.8531
G0 Z3.0
G0 X21.0953 Y23.6179
G0 Z0.5
G1 F300.0 Z-1.0
G3 F800.0 X20.4118 Y24.0281 I16.0 J15.9
G3 X20.9818 Y24.6277 I18.4349 J26.4782
G3 X21.2996 Y25.1727 I18.4349 J26.4782
G2 X21.9751 Y25.2664 I23.7184 J10.2239
G3 X21.1081 Y23.6813 I24.1875 J23.0267
G3 X21.0953 Y23.6179 I24.1875 J23.0267
G0 Z3.0
G0 X15.5857 Y25.1389
G0 Z0.5
G1 F300.0 Z-1.0
G3 F800.0 X14.7916 Y25.0689 I16.0 J15.9
G3 X14.9004 Y25.8891 I11.7522 J25.8891
G3 X14.8371 Y26.5168 I11.7522 J25.8891
G2 X15.3285 Y26.9897 I25.5806 J15.8447
G3 X15.5588 Y25.1977 I18.4349 J26.4782
G3 X15.5857 Y25.1389 I18.4349 J26.4782
G0 Z3.0
G0 X10.2343 Y23.1309
G0 Z0.5
G1 F300.0 Z-1.0
G3 F800.0 X9.6331 Y22.6076 I16.0 J15.9
G3 X9.2389 Y23.335 I6.692 J21.4845
G3 X8.8188 Y23.8057 I6.692 J21.4845
G2 X8.9384 Y24.477 I23.7834 J21.4866
G3 X10.1781 Y23.1627 I11.7522 J25.8891
G3 X10.2343 Y23.1309 I11.7522 J25.8891
G0 Z3.0
G0 X7.0852 Y18.361
G0 Z0.5
G1 F300.0 Z-1.0
G3 F800.0 X6.9064 Y17.5841 I16.0 J15.9
G3 X6.16 Y17.941 I5.1872 J14.9469
G3 X5.5435 Y18.0748 I5.1872 J14.9469
G2 X5.2456 Y18.6883 I19.0132 J24.9946
G3 X7.0211 Y18.3536 I6.692 J21.4845
G3 X7.0852 Y18.361 I6.692 J21.4845
G0 Z3.0
G0 X7.3413 Y12.651
G0 Z0.5
G1 F300.0 Z-1.0
G3 F800.0 X7.6532 Y11.9174 I16.0 J15.9
G3 X6.8396 Y11.7674 I7.8125 J8.7733
G3 X6.2622 Y11.5133 I7.8125 J8.7733
G2 X5.6606 Y11.8345 I13.092 J25.0288
G3 X7.2937 Y12.6073 I5.1872 J14.9469
G3 X7.3413 Y12.651 I5.1872 J14.9469
G0 Z3.0
G0 X10.9047 Y8.1821
G0 Z0.5
G1 F300.0 Z-1.0
G3 F800.0 X11.3759 Y7.8908 I16.0 J15.9
G3 X11.5882 Y7.7719 I16.0 J15.9
G3 X11.0182 Y7.1723 I13.5651 J5.3218
G3 X10.7004 Y6.6273 I13.5651 J5.3218
G2 X10.0249 Y6.5336 I8.2816 J21.5761
G3 X10.8919 Y8.1187 I7.8125 J8.7733
G3 X10.9047 Y8.1821 I7.8125 J8.7733
G0 Z3.0
G0 X16.4143 Y6.6611
G0 Z0.5
G1 F300.0 Z-1.0
G3 F800.0 X17.2084 Y6.7311 I16.0 J15.9
G3 X17.0996 Y5.9109 I20.2478 J5.9109
G3 X17.1629 Y5.2832 I20.2478 J5.9109
G2 X16.6715 Y4.8103 I6.4194 J15.9553
G3 X16.4412 Y6.6023 I13.5651 J5.3218
G3 X16.4143 Y6.6611 I13.5651 J5.3218
G0 Z3.0
G0 X21.7657 Y8.6691
G0 Z0.5
G1 F300.0 Z-1.0
G3 F800.0 X22.3669 Y9.1924 I16.0 J15.9
G3 X22.7611 Y8.465 I25.308 J10.3155
G3 X23.1812 Y7.9943 I25.308 J10.3155
G2 X23.0616 Y7.323 I8.2166 J10.3134
G3 X21.8219 Y8.6373 I20.2478 J5.9109
G3 X21.7657 Y8.6691 I20.2478 J5.9109
G0 Z3.0
G0 X27.2108 Y5.9472
G0 Z0.5
G1 F300.0 Z-1.0
G3 F800.0 X27.8638 Y5.3142 I30.0218 J8.1935
G2 X26.7034 Y4.1421 I16.0 J15.9
G3 X27.2108 Y5.9472 I8.2166 J10.3134
G1 F300.0 X27.5624 Y6.2281
G3 F800.0 X28.5442 Y5.4136 I30.0218 J8.1935
G2 X25.681 Y2.7242 I16.0 J15.9
G3 X25.6796 Y2.7273 I22.8141 J1.4235
G3 X27.0116 Y7.2714 I8.2166 J10.3134
G3 X27.5624 Y6.2281 I30.0218 J8.1935
G0 Z3.0
G0 X31.5703 Y12.6789
G0 Z0.5
G1 F300.0 Z-1.0
G3 F800.0 X30.9199 Y14.4376 I12.9868 J6.8054
G3 X31.8202 Y14.3093 I31.8736 J17.9071
G2 X31.5703 Y12.6789 I16.0 J15.9
G1 F300.0 X32.011 Y12.5878
G2 F800.0 X31.5766 Y10.9309 I16.0 J15.9
G3 X31.5737 Y10.9326 I30.0218 J8.1935
G3 X29.9804 Y15.3918 I12.9868 J6.8054
G3 X32.3123 Y14.7896 I31.8736 J17.9071
G2 X32.011 Y12.5878 I16.0 J15.9
G0 Z3.0
G0 X30.4899 Y22.4461
G0 Z0.5
G1 F300.0 Z-1.0
G3 F800.0 X28.93 Y23.4866 I18.908 J6.7712
G3 X29.7338 Y23.912 I27.6623 J26.854
G2 X30.4899 Y22.4461 I16.0 J15.9
G1 F300.0 X30.9 Y22.6314
G2 F800.0 X31.5225 Y21.0357 I16.0 J15.9
G3 X31.5192 Y21.0353 I31.8736 J17.9071
G3 X27.6091 Y23.7063 I18.908 J6.7712
G3 X29.8496 Y24.5898 I27.6623 J26.854
G2 X30.9 Y22.6314 I16.0 J15.9
G0 Z3.0
G0 X23.8749 Y29.7129
G0 Z0.5
G1 F300.0 Z-1.0
G3 F800.0 X22.0013 Y29.6377 I23.7184 J10.2239
G3 X22.4016 Y30.4544 I18.9964 J31.6169
G2 X23.8749 Y29.7129 I16.0 J15.9
G1 F300.0 X23.8713 Y29.2629
G3 F800.0 X20.8035 Y29.0391 I23.7184 J10.2239
G3 X22.0968 Y31.0707 I18.9964 J31.6169
G2 X25.5393 Y29.1787 I16.0 J15.9
G3 X25.5368 Y29.1765 I27.6623 J26.854
G3 X23.8713 Y29.2629 I23.7184 J10.2239
G0 Z3.0
G0 X14.2519 Y31.7036
G0 Z0.5
G1 F300.0 Z-1.0
G3 F800.0 X12.7803 Y30.5415 I25.5806 J15.8447
G3 X12.6241 Y31.4375 I9.1859 J30.3765
G2 X14.2519 Y31.7036 I16.0 J15.9
G1 F300.0 X14.5135 Y31.3374
G3 F800.0 X12.1632 Y29.3532 I25.5806 J15.8447
G3 X12.0153 Y31.757 I9.1859 J30.3765
G2 X15.9124 Y32.2498 I16.0 J15.9
G3 X15.9117 Y32.2465 I18.9964 J31.6169
G3 X14.5135 Y31.3374 I25.5806 J15.8447
G0 Z3.0
G0 X5.2966 Y27.6579
G0 Z0.5
G1 F300.0 Z-1.0
G3 F800.0 X4.7892 Y25.8528 I23.7834 J21.4866
G3 X4.1362 Y26.4858 I1.9782 J23.6065
G2 X5.2966 Y27.6579 I16.0 J15.9
G1 F300.0 X5.7235 Y27.5154
G3 F800.0 X4.9884 Y24.5286 I23.7834 J21.4866
G3 X3.4558 Y26.3864 I1.9782 J23.6065
G2 X6.319 Y29.0758 I16.0 J15.9
G3 X6.3204 Y29.0727 I9.1859 J30.3765
G3 X5.7235 Y27.5154 I23.7834 J21.4866
G0 Z3.0
G0 X0.4297 Y19.1211
G0 Z0.5
G1 F300.0 Z-1.0
G3 F800.0 X1.0801 Y17.3624 I19.0132 J24.9946
G3 X0.1798 Y17.4907 I0.1264 J13.8929
G2 X0.4297 Y19.1211 I16.0 J15.9
G1 F300.0 X-0.011 Y19.2122
G2 F800.0 X0.4234 Y20.8691 I16.0 J15.9
G3 X0.4263 Y20.8674 I1.9782 J23.6065
G3 X2.0196 Y16.4082 I19.0132 J24.9946
G3 X-0.3123 Y17.0104 I0.1264 J13.8929
G2 X-0.011 Y19.2122 I16.0 J15.9
G0 Z3.0
G0 X1.5101 Y9.3539
G0 Z0.5
G1 F300.0 Z-1.0
G3 F800.0 X3.07 Y8.3134 I13.092 J25.0288
G3 X2.2662 Y7.888 I4.3377 J4.946
G2 X1.5101 Y9.3539 I16.0 J15.9
G1 F300.0 X1.7775 Y9.7158
G3 F800.0 X4.3909 Y8.0937 I13.092 J25.0288
G3 X2.1504 Y7.2102 I4.3377 J4.946
G2 X0.4775 Y10.7643 I16.0 J15.9
G3 X0.4808 Y10.7647 I0.1264 J13.8929
G3 X1.7775 Y9.7158 I13.092 J25.0288
G0 Z3.0
G0 X8.1251 Y2.0871
G0 Z0.5
G1 F300.0 Z-1.0
G3 F800.0 X9.9987 Y2.1623 I8.2816 J21.5761
G3 X9.5984 Y1.3456 I13.0036 J0.1831
G2 X8.1251 Y2.0871 I16.0 J15.9
G1 F300.0 X8.1287 Y2.5371
G3 F800.0 X11.1965 Y2.7609 I8.2816 J21.5761
G3 X9.9032 Y0.7293 I13.0036 J0.1831
G2 X7.825 Y1.7405 I16.0 J15.9
G2 X6.4607 Y2.6213 I16.0 J15.9
G3 X6.4632 Y2.6235 I4.3377 J4.946
G3 X8.1287 Y2.5371 I8.2816 J21.5761
G0 Z3.0
G0 X17.7481 Y0.0964
G0 Z0.5
G1 F300.0 Z-1.0
G3 F800.0 X19.2197 Y1.2585 I6.4194 J15.9553
G3 X19.3759 Y0.3625 I22.8141 J1.4235
G2 X17.7481 Y0.0964 I16.0 J15.9
G1 F300.0 X17.4865 Y0.4626
G3 F800.0 X19.8368 Y2.4468 I6.4194 J15.9553
G3 X19.9847 Y0.043 I22.8141 J1.4235
G2 X16.0876 Y-0.4498 I16.0 J15.9
G3 X16.0883 Y-0.4465 I13.0036 J0.1831
G3 X17.4865 Y0.4626 I6.4194 J15.9553
G1 F300.0 X16.9644 Y1.1934
G3 F800.0 X19.8007 Y3.7058 I6.4194 J15.9553
G3 X21.3728 Y3.9624 I20.2478 J5.9109
G3 Y7.8595 I20.2478 J5.9109
G3 X17.9978 Y5.9109 I20.2478 J5.9109
G3 X18.1736 Y5.0391 I20.2478 J5.9109
G2 X14.3304 Y2.0003 I6.4194 J15.9553
G3 X14.1286 Y2.1316 I13.0036 J0.1831
G3 X10.7536 Y0.1831 I13.0036 J0.1831
G3 X10.8849 Y-0.5742 I13.0036 J0.1831
G2 X7.375 Y0.9611 I16.0 J15.9
G2 X4.8341 Y2.7514 I16.0 J15.9
G3 X6.1138 Y3.5647 I4.3377 J4.946
G3 X11.9073 Y3.8007 I8.2816 J21.5761
G3 X13.33 Y3.0842 I13.5651 J5.3218
G3 X15.6206 Y6.237 I13.5651 J5.3218
G3 X11.7449 Y6.6444 I13.5651 J5.3218
G3 X11.3746 Y5.8357 I13.5651 J5.3218
G2 X6.4792 Y5.6363 I8.2816 J21.5761
G3 X6.3932 Y5.8611 I4.3377 J4.946
G3 X2.5174 Y6.2685 I4.3377 J4.946
G3 X2.1785 Y5.5787 I4.3377 J4.946
G2 X-0.7619 Y11.8257 I16.0 J15.9
G3 X0.7514 Y11.7315 I0.1264 J13.8929
G3 X5.5771 Y8.5171 I13.092 J25.0288
G3 X6.3069 Y7.1012 I7.8125 J8.7733
G3 X10.0133 Y8.3055 I7.8125 J8.7733
G3 X7.1172 Y10.9131 I7.8125 J8.7733
G3 X6.3423 Y10.4765 I7.8125 J8.7733
G2 X2.2646 Y13.1927 I13.092 J25.0288
G3 X2.3272 Y13.4251 I0.1264 J13.8929
G3 X-0.5689 Y16.0328 I0.1264 J13.8929
G3 X-1.2485 Y15.674 I0.1264 J13.8929
G2 X0.0445 Y22.4562 I16.0 J15.9
G3 X1.2134 Y21.4905 I1.9782 J23.6065
G3 X3.2281 Y16.0535 I19.0132 J24.9946
G3 X2.9863 Y14.4791 I5.1872 J14.9469
G3 X6.6927 Y13.2748 I5.1872 J14.9469
G3 X5.8824 Y17.0867 I5.1872 J14.9469
G3 X4.9989 Y17.189 I5.1872 J14.9469
G2 X3.2965 Y21.7831 I19.0132 J24.9946
G3 X3.4838 Y21.9344 I1.9782 J23.6065
G3 X2.6735 Y25.7464 I1.9782 J23.6065
G3 X1.9128 Y25.8556 I1.9782 J23.6065
G2 X6.9454 Y30.5825 I16.0 J15.9
G3 X7.3234 Y29.1141 I9.1859 J30.3765
G3 X5.7576 Y23.5313 I23.7834 J21.4866
G3 X4.6365 Y22.3997 I6.692 J21.4845
G3 X6.9272 Y19.2468 I6.692 J21.4845
G3 X8.5123 Y22.807 I6.692 J21.4845
G3 X7.8576 Y23.4091 I6.692 J21.4845
G2 X9.1807 Y28.1265 I23.7834 J21.4866
G3 X9.4211 Y28.1388 I9.1859 J30.3765
G3 X11.0062 Y31.699 I9.1859 J30.3765
G3 X10.4549 Y32.2345 I9.1859 J30.3765
G2 X17.3048 Y33.1006 I16.0 J15.9
G3 X16.7476 Y31.6904 I18.9964 J31.6169
G3 X12.1993 Y28.0942 I25.5806 J15.8447
G3 X10.6272 Y27.8376 I11.7522 J25.8891
G3 Y23.9405 I11.7522 J25.8891
G3 X14.0022 Y25.8891 I11.7522 J25.8891
G3 X13.8264 Y26.7609 I11.7522 J25.8891
G2 X17.6696 Y29.7997 I25.5806 J15.8447
G3 X17.8714 Y29.6684 I18.9964 J31.6169
G3 X21.2464 Y31.6169 I18.9964 J31.6169
G3 X21.1151 Y32.3742 I18.9964 J31.6169
G2 X27.1659 Y29.0486 I16.0 J15.9
G3 X25.8862 Y28.2353 I27.6623 J26.854
G3 X20.0927 Y27.9993 I23.7184 J10.2239
G3 X18.67 Y28.7158 I18.4349 J26.4782
G3 X16.3794 Y25.563 I18.4349 J26.4782
G3 X20.2551 Y25.1556 I18.4349 J26.4782
G3 X20.6254 Y25.9643 I18.4349 J26.4782
G2 X25.5208 Y26.1637 I23.7184 J10.2239
G3 X25.6068 Y25.9389 I27.6623 J26.854
G3 X29.4826 Y25.5315 I27.6623 J26.854
G3 X29.8215 Y26.2213 I27.6623 J26.854
G2 X32.7619 Y19.9743 I16.0 J15.9
G3 X31.2486 Y20.0685 I31.8736 J17.9071
G3 X26.4229 Y23.2829 I18.908 J6.7712
G3 X25.6931 Y24.6988 I24.1875 J23.0267
G3 X21.9867 Y23.4945 I24.1875 J23.0267
G3 X24.8828 Y20.8869 I24.1875 J23.0267
G3 X25.6577 Y21.3235 I24.1875 J23.0267
G2 X29.7354 Y18.6073 I18.908 J6.7712
G3 X29.6728 Y18.3749 I31.8736 J17.9071
G3 X32.5689 Y15.7672 I31.8736 J17.9071
G3 X33.2485 Y16.126 I31.8736 J17.9071
G2 X33.25 Y15.9 I16.0 J15.9
G2 X31.9555 Y9.3438 I16.0 J15.9
G3 X30.7866 Y10.3095 I30.0218 J8.1935
G3 X28.7719 Y15.7465 I12.9868 J6.8054
G3 X29.0137 Y17.3209 I26.8128 J16.8531
G3 X25.3073 Y18.5252 I26.8128 J16.8531
G3 X26.1176 Y14.7133 I26.8128 J16.8531
G3 X27.0011 Y14.611 I26.8128 J16.8531
G2 X28.7035 Y10.0169 I12.9868 J6.8054
G3 X28.5162 Y9.8656 I30.0218 J8.1935
G3 X29.3265 Y6.0536 I30.0218 J8.1935
G3 X30.0872 Y5.9444 I30.0218 J8.1935
G2 X25.0546 Y1.2175 I16.0 J15.9
G3 X24.6766 Y2.6859 I22.8141 J1.4235
G3 X26.2424 Y8.2687 I8.2166 J10.3134
G3 X27.3635 Y9.4003 I25.308 J10.3155
G3 X25.0728 Y12.5532 I25.308 J10.3155
G3 X23.4877 Y8.993 I25.308 J10.3155
G3 X24.1424 Y8.3909 I25.308 J10.3155
G2 X22.8193 Y3.6735 I8.2166 J10.3134
G3 X22.5789 Y3.6612 I22.8141 J1.4235
G3 X20.9938 Y0.101 I22.8141 J1.4235
G3 X21.5451 Y-0.4345 I22.8141 J1.4235
G2 X14.6952 Y-1.3006 I16.0 J15.9
G3 X15.2524 Y0.1096 I13.0036 J0.1831
G3 X16.9644 Y1.1934 I6.4194 J15.9553
G0 Z3.0
G0 X17.7481 Y0.0964
G0 Z-0.5
G1 F300.0 Z-2.0
G3 F800.0 X19.2197 Y1.2585 I6.4194 J15.9553
G3 X19.3759 Y0.3625 I22.8141 J1.4235
G2 X17.7481 Y0.0964 I16.0 J15.9
G1 F300.0 X17.4865 Y0.4626
G3 F800.0 X19.8368 Y2.4468 I6.4194 J15.9553
G3 X19.9847 Y0.043 I22.8141 J1.4235
G2 X16.0876 Y-0.4498 I16.0 J15.9
G3 X16.0883 Y-0.4465 I13.0036 J0.1831
G3 X17.4865 Y0.4626 I6.4194 J15.9553
G0 Z3.0
G0 X16.6715 Y4.8103
G0 Z-0.5
G1 F300.0 Z-2.0
G3 F800.0 X16.4412 Y6.6023 I13.5651 J5.3218
G3 X16.4143 Y6.6611 I13.5651 J5.3218
G3 X17.2084 Y6.7311 I16.0 J15.9
G3 X17.0996 Y5.9109 I20.2478 J5.9109
G3 X17.1629 Y5.2832 I20.2478 J5.9109
G2 X16.6715 Y4.8103 I6.4194 J15.9553
G0 Z3.0
G0 X11.5882 Y7.7719
G0 Z-0.5
G1 F300.0 Z-2.0
G3 F800.0 X11.0182 Y7.1723 I13.5651 J5.3218
G3 X10.7004 Y6.6273 I13.5651 J5.3218
G2 X10.0249 Y6.5336 I8.2816 J21.5761
G3 X10.8919 Y8.1187 I7.8125 J8.7733
G3 X10.9047 Y8.1821 I7.8125 J8.7733
G3 X11.3759 Y7.8908 I16.0 J15.9
G3 X11.5882 Y7.7719 I16.0 J15.9
G0 Z3.0
G0 X7.6532 Y11.9174
G0 Z-0.5
G1 F300.0 Z-2.0
G3 F800.0 X6.8396 Y11.7674 I7.8125 J8.7733
G3 X6.2622 Y11.5133 I7.8125 J8.7733
G2 X5.6606 Y11.8345 I13.092 J25.0288
G3 X7.2937 Y12.6073 I5.1872 J14.9469
G3 X7.3413 Y12.651 I5.1872 J14.9469
G3 X7.6532 Y11.9174 I16.0 J15.9
G0 Z3.0
G0 X6.9064 Y17.5841
G0 Z-0.5
G1 F300.0 Z-2.0
G3 F800.0 X6.16 Y17.941 I5.1872 J14.9469
G3 X5.5435 Y18.0748 I5.1872 J14.9469
G2 X5.2456 Y18.6883 I19.0132 J24.9946
G3 X7.0211 Y18.3536 I6.692 J21.4845
G3 X7.0852 Y18.361 I6.692 J21.4845
G3 X6.9064 Y17.5841 I16.0 J15.9
G0 Z3.0
G0 X9.6331 Y22.6076
G0 Z-0.5
G1 F300.0 Z-2.0
G3 F800.0 X9.2389 Y23.335 I6.692 J21.4845
G3 X8.8188 Y23.8057 I6.692 J21.4845
G2 X8.9384 Y24.477 I23.7834 J21.4866
G3 X10.1781 Y23.1627 I11.7522 J25.8891
G3 X10.2343 Y23.1309 I11.7522 J25.8891
G3 X9.6331 Y22.6076 I16.0 J15.9
G0 Z3.0
G0 X14.7916 Y25.0689
G0 Z-0.5
G1 F300.0 Z-2.0
G3 F800.0 X14.9004 Y25.8891 I11.7522 J25.8891
G3 X14.8371 Y26.5168 I11.7522 J25.8891
G2 X15.3285 Y26.9897 I25.5806 J15.8447
G3 X15.5588 Y25.1977 I18.4349 J26.4782
G3 X15.5857 Y25.1389 I18.4349 J26.4782
G3 X14.7916 Y25.0689 I16.0 J15.9
G0 Z3.0
G0 X20.4118 Y24.0281
G0 Z-0.5
G1 F300.0 Z-2.0
G3 F800.0 X20.9818 Y24.6277 I18.4349 J26.4782
G3 X21.2996 Y25.1727 I18.4349 J26.4782
G2 X21.9751 Y25.2664 I23.7184 J10.2239
G3 X21.1081 Y23.6813 I24.1875 J23.0267
G3 X21.0953 Y23.6179 I24.1875 J23.0267
G3 X20.4118 Y24.0281 I16.0 J15.9
G0 Z3.0
G0 X24.3468 Y19.8826
G0 Z-0.5
G1 F300.0 Z-2.0
G3 F800.0 X25.1604 Y20.0326 I24.1875 J23.0267
G3 X25.7378 Y20.2867 I24.1875 J23.0267
G2 X26.3394 Y19.9655 I18.908 J6.7712
G3 X24.7063 Y19.1927 I26.8128 J16.8531
G3 X24.6587 Y19.149 I26.8128 J16.8531
G3 X24.3468 Y19.8826 I16.0 J15.9
G0 Z3.0
G0 X25.0936 Y14.2159
G0 Z-0.5
G1 F300.0 Z-2.0
G3 F800.0 X25.84 Y13.859 I26.8128 J16.8531
G3 X26.4565 Y13.7252 I26.8128 J16.8531
G2 X26.7544 Y13.1117 I12.9868 J6.8054
G3 X24.9789 Y13.4464 I25.308 J10.3155
G3 X24.9148 Y13.439 I25.308 J10.3155
G3 X25.0936 Y14.2159 I16.0 J15.9
G0 Z3.0
G0 X22.3669 Y9.1924
G0 Z-0.5
G1 F300.0 Z-2.0
G3 F800.0 X22.7611 Y8.465 I25.308 J10.3155
G3 X23.1812 Y7.9943 I25.308 J10.3155
G2 X23.0616 Y7.323 I8.2166 J10.3134
G3 X21.8219 Y8.6373 I20.2478 J5.9109
G3 X21.7657 Y8.6691 I20.2478 J5.9109
G3 X22.3669 Y9.1924 I16.0 J15.9
G0 Z3.0
G0 X27.2108 Y5.9472
G0 Z-0.5
G1 F300.0 Z-2.0
G3 F800.0 X27.8638 Y5.3142 I30.0218 J8.1935
G2 X26.7034 Y4.1421 I16.0 J15.9
G3 X27.2108 Y5.9472 I8.2166 J10.3134
G1 F300.0 X27.5624 Y6.2281
G3 F800.0 X28.5442 Y5.4136 I30.0218 J8.1935
G2 X25.681 Y2.7242 I16.0 J15.9
G3 X25.6796 Y2.7273 I22.8141 J1.4235
G3 X27.0116 Y7.2714 I8.2166 J10.3134
G3 X27.5624 Y6.2281 I30.0218 J8.1935
G0 Z3.0
G0 X31.5703 Y12.6789
G0 Z-0.5
G1 F300.0 Z-2.0
G3 F800.0 X30.9199 Y14.4376 I12.9868 J6.8054
G3 X31.8202 Y14.3093 I31.8736 J17.9071
G2 X31.5703 Y12.6789 I16.0 J15.9
G1 F300.0 X32.011 Y12.5878
G2 F800.0 X31.5766 Y10.9309 I16.0 J15.9
G3 X31.5737 Y10.9326 I30.0218 J8.1935
G3 X29.9804 Y15.3918 I12.9868 J6.8054
G3 X32.3123 Y14.7896 I31.8736 J17.9071
G2 X32.011 Y12.5878 I16.0 J15.9
G0 Z3.0
G0 X30.4899 Y22.4461
G0 Z-0.5
G1 F300.0 Z-2.0
G3 F800.0 X28.93 Y23.4866 I18.908 J6.7712
G3 X29.7338 Y23.912 I27.6623 J26.854
G2 X30.4899 Y22.4461 I16.0 J15.9
G1 F300.0 X30.9 Y22.6314
G2 F800.0 X31.5225 Y21.0357 I16.0 J15.9
G3 X31.5192 Y21.0353 I31.8736 J17.9071
G3 X27.6091 Y23.7063 I18.908 J6.7712
G3 X29.8496 Y24.5898 I27.6623 J26.854
G2 X30.9 Y22.6314 I16.0 J15.9
G0 Z3.0
G0 X23.8749 Y29.7129
G0 Z-0.5
G1 F300.0 Z-2.0
G3 F800.0 X22.0013 Y29.6377 I23.7184 J10.2239
G3 X22.4016 Y30.4544 I18.9964 J31.6169
G2 X23.8749 Y29.7129 I16.0 J15.9
G1 F300.0 X23.8713 Y29.2629
G3 F800.0 X20.8035 Y29.0391 I23.7184 J10.2239
G3 X22.0968 Y31.0707 I18.9964 J31.6169
G2 X25.5393 Y29.1787 I16.0 J15.9
G3 X25.5368 Y29.1765 I27.6623 J26.854
G3 X23.8713 Y29.2629 I23.7184 J10.2239
G0 Z3.0
G0 X14.2519 Y31.7036
G0 Z-0.5
G1 F300.0 Z-2.0
G3 F800.0 X12.7803 Y30.5415 I25.5806 J15.8447
G3 X12.6241 Y31.4375 I9.1859 J30.3765
G2 X14.2519 Y31.7036 I16.0 J15.9
G1 F300.0 X14.5135 Y31.3374
G3 F800.0 X12.1632 Y29.3532 I25.5806 J15.8447
G3 X12.0153 Y31.757 I9.1859 J30.3765
G2 X15.9124 Y32.2498 I16.0 J15.9
G3 X15.9117 Y32.2465 I18.9964 J31.6169
G3 X14.5135 Y31.3374 I25.5806 J15.8447
G0 Z3.0
G0 X5.2966 Y27.6579
G0 Z-0.5
G1 F300.0 Z-2.0
G3 F800.0 X4.7892 Y25.8528 I23.7834 J21.4866
G3 X4.1362 Y26.4858 I1.9782 J23.6065
G2 X5.2966 Y27.6579 I16.0 J15.9
G1 F300.0 X5.7235 Y27.5154
G3 F800.0 X4.9884 Y24.5286 I23.7834 J21.4866
G3 X3.4558 Y26.3864 I1.9782 J23.6065
G2 X6.319 Y29.0758 I16.0 J15.9
G3 X6.3204 Y29.0727 I9.1859 J30.3765
G3 X5.7235 Y27.5154 I23.7834 J21.4866
G0 Z3.0
G0 X0.4297 Y19.1211
G0 Z-0.5
G1 F300.0 Z-2.0
G3 F800.0 X1.0801 Y17.3624 I19.0132 J24.9946
G3 X0.1798 Y17.4907 I0.1264 J13.8929
G2 X0.4297 Y19.1211 I16.0 J15.9
G1 F300.0 X-0.011 Y19.2122
G2 F800.0 X0.4234 Y20.8691 I16.0 J15.9
G3 X0.4263 Y20.8674 I1.9782 J23.6065
G3 X2.0196 Y16.4082 I19.0132 J24.9946
G3 X-0.3123 Y17.0104 I0.1264 J13.8929
G2 X-0.011 Y19.2122 I16.0 J15.9
G0 Z3.0
G0 X1.5101 Y9.3539
G0 Z-0.5
G1 F300.0 Z-2.0
G3 F800.0 X3.07 Y8.3134 I13.092 J25.0288
G3 X2.2662 Y7.888 I4.3377 J4.946
G2 X1.5101 Y9.3539 I16.0 J15.9
G1 F300.0 X1.7775 Y9.7158
G3 F800.0 X4.3909 Y8.0937 I13.092 J25.0288
G3 X2.1504 Y7.2102 I4.3377 J4.946
G2 X0.4775 Y10.7643 I16.0 J15.9
G3 X0.4808 Y10.7647 I0.1264 J13.8929
G3 X1.7775 Y9.7158 I13.092 J25.0288
G0 Z3.0
G0 X8.1251 Y2.0871
G0 Z-0.5
G1 F300.0 Z-2.0
G3 F800.0 X9.9987 Y2.1623 I8.2816 J21.5761
G3 X9.5984 Y1.3456 I13.0036 J0.1831
G2 X8.1251 Y2.0871 I16.0 J15.9
G1 F300.0 X8.1287 Y2.5371
G3 F800.0 X11.1965 Y2.7609 I8.2816 J21.5761
G3 X9.9032 Y0.7293 I13.0036 J0.1831
G2 X7.825 Y1.7405 I16.0 J15.9
G2 X6.4607 Y2.6213 I16.0 J15.9
G3 X6.4632 Y2.6235 I4.3377 J4.946
G3 X8.1287 Y2.5371 I8.2816 J21.5761
G1 F300.0 X8.1359 Y3.4353
G3 F800.0 X11.9073 Y3.8007 I8.2816 J21.5761
G3 X13.33 Y3.0842 I13.5651 J5.3218
G3 X15.6206 Y6.237 I13.5651 J5.3218
G3 X11.7449 Y6.6444 I13.5651 J5.3218
G3 X11.3746 Y5.8357 I13.5651 J5.3218
G2 X6.4792 Y5.6363 I8.2816 J21.5761
G3 X6.3932 Y5.8611 I4.3377 J4.946
G3 X2.5174 Y6.2685 I4.3377 J4.946
G3 X2.1785 Y5.5787 I4.3377 J4.946
G2 X-0.7619 Y11.8257 I16.0 J15.9
G3 X0.7514 Y11.7315 I0.1264 J13.8929
G3 X5.5771 Y8.5171 I13.092 J25.0288
G3 X6.3069 Y7.1012 I7.8125 J8.7733
G3 X10.0133 Y8.3055 I7.8125 J8.7733
G3 X7.1172 Y10.9131 I7.8125 J8.7733
G3 X6.3423 Y10.4765 I7.8125 J8.7733
G2 X2.2646 Y13.1927 I13.092 J25.0288
G3 X2.3272 Y13.4251 I0.1264 J13.8929
G3 X-0.5689 Y16.0328 I0.1264 J13.8929
G3 X-1.2485 Y15.674 I0.1264 J13.8929
G2 X0.0445 Y22.4562 I16.0 J15.9
G3 X1.2134 Y21.4905 I1.9782 J23.6065
G3 X3.2281 Y16.0535 I19.0132 J24.9946
G3 X2.9863 Y14.4791 I5.1872 J14.9469
G3 X6.6927 Y13.2748 I5.1872 J14.9469
G3 X5.8824 Y17.0867 I5.1872 J14.9469
G3 X4.9989 Y17.189 I5.1872 J14.9469
G2 X3.2965 Y21.7831 I19.0132 J24.9946
G3 X3.4838 Y21.9344 I1.9782 J23.6065
G3 X2.6735 Y25.7464 I1.9782 J23.6065
G3 X1.9128 Y25.8556 I1.9782 J23.6065
G2 X6.9454 Y30.5825 I16.0 J15.9
G3 X7.3234 Y29.1141 I9.1859 J30.3765
G3 X5.7576 Y23.5313 I23.7834 J21.4866
G3 X4.6365 Y22.3997 I6.692 J21.4845
G3 X6.9272 Y19.2468 I6.692 J21.4845
G3 X8.5123 Y22.807 I6.692 J21.4845
G3 X7.8576 Y23.4091 I6.692 J21.4845
G2 X9.1807 Y28.1265 I23.7834 J21.4866
G3 X9.4211 Y28.1388 I9.1859 J30.3765
G3 X11.0062 Y31.699 I9.1859 J30.3765
G3 X10.4549 Y32.2345 I9.1859 J30.3765
G2 X17.3048 Y33.1006 I16.0 J15.9
G3 X16.7476 Y31.6904 I18.9964 J31.6169
G3 X12.1993 Y28.0942 I25.5806 J15.8447
G3 X10.6272 Y27.8376 I11.7522 J25.8891
G3 Y23.9405 I11.7522 J25.8891
G3 X14.0022 Y25.8891 I11.7522 J25.8891
G3 X13.8264 Y26.7609 I11.7522 J25.8891
G2 X17.6696 Y29.7997 I25.5806 J15.8447
G3 X17.8714 Y29.6684 I18.9964 J31.6169
G3 X21.2464 Y31.6169 I18.9964 J31.6169
G3 X21.1151 Y32.3742 I18.9964 J31.6169
G2 X27.1659 Y29.0486 I16.0 J15.9
G3 X25.8862 Y28.2353 I27.6623 J26.854
G3 X20.0927 Y27.9993 I23.7184 J10.2239
G3 X18.67 Y28.7158 I18.4349 J26.4782
G3 X16.3794 Y25.563 I18.4349 J26.4782
G3 X20.2551 Y25.1556 I18.4349 J26.4782
G3 X20.6254 Y25.9643 I18.4349 J26.4782
G2 X25.5208 Y26.1637 I23.7184 J10.2239
G3 X25.6068 Y25.9389 I27.6623 J26.854
G3 X29.4826 Y25.5315 I27.6623 J26.854
G3 X29.8215 Y26.2213 I27.6623 J26.854
G2 X32.7619 Y19.9743 I16.0 J15.9
G3 X31.2486 Y20.0685 I31.8736 J17.9071
G3 X26.4229 Y23.2829 I18.908 J6.7712
G3 X25.6931 Y24.6988 I24.1875 J23.0267
G3 X21.9867 Y23.4945 I24.1875 J23.0267
G3 X24.8828 Y20.8869 I24.1875 J23.0267
G3 X25.6577 Y21.3235 I24.1875 J23.0267
G2 X29.7354 Y18.6073 I18.908 J6.7712
G3 X29.6728 Y18.3749 I31.8736 J17.9071
G3 X32.5689 Y15.7672 I31.8736 J17.9071
G3 X33.2485 Y16.126 I31.8736 J17.9071
G2 X33.25 Y15.9 I16.0 J15.9
G2 X31.9555 Y9.3438 I16.0 J15.9
G3 X30.7866 Y10.3095 I30.0218 J8.1935
G3 X28.7719 Y15.7465 I12.9868 J6.8054
G3 X29.0137 Y17.3209 I26.8128 J16.8531
G3 X25.3073 Y18.5252 I26.8128 J16.8531
G3 X26.1176 Y14.7133 I26.8128 J16.8531
G3 X27.0011 Y14.611 I26.8128 J16.8531
G2 X28.7035 Y10.0169 I12.9868 J6.8054
G3 X28.5162 Y9.8656 I30.0218 J8.1935
G3 X29.3265 Y6.0536 I30.0218 J8.1935
G3 X30.0872 Y5.9444 I30.0218 J8.1935
G2 X25.0546 Y1.2175 I16.0 J15.9
G3 X24.6766 Y2.6859 I22.8141 J1.4235
G3 X26.2424 Y8.2687 I8.2166 J10.3134
G3 X27.3635 Y9.4003 I25.308 J10.3155
G3 X25.0728 Y12.5532 I25.308 J10.3155
G3 X23.4877 Y8.993 I25.308 J10.3155
G3 X24.1424 Y8.3909 I25.308 J10.3155
G2 X22.8193 Y3.6735 I8.2166 J10.3134
G3 X22.5789 Y3.6612 I22.8141 J1.4235
G3 X20.9938 Y0.101 I22.8141 J1.4235
G3 X21.5451 Y-0.4345 I22.8141 J1.4235
G2 X14.6952 Y-1.3006 I16.0 J15.9
G3 X15.2524 Y0.1096 I13.0036 J0.1831
G3 X19.8007 Y3.7058 I6.4194 J15.9553
G3 X21.3728 Y3.9624 I20.2478 J5.9109
G3 Y7.8595 I20.2478 J5.9109
G3 X17.9978 Y5.9109 I20.2478 J5.9109
G3 X18.1736 Y5.0391 I20.2478 J5.9109
G2 X14.3304 Y2.0003 I6.4194 J15.9553
G3 X14.1286 Y2.1316 I13.0036 J0.1831
G3 X10.7536 Y0.1831 I13.0036 J0.1831
G3 X10.8849 Y-0.5742 I13.0036 J0.1831
G2 X7.375 Y0.9611 I16.0 J15.9
G2 X4.8341 Y2.7514 I16.0 J15.9
G3 X6.1138 Y3.5647 I4.3377 J4.946
G3 X8.1359 Y3.4353 I8.2816 J21.5761
G0 Z3.0
G0 X11.5446 Y8.838
G0 Z-0.5
G1 F300.0 Z-2.0
G3 F800.0 X11.825 Y8.6687 I16.0 J15.9
G3 X24.35 Y15.9 I16.0 J15.9
G3 X11.825 Y23.1313 I16.0 J15.9
G3 X11.5446 Y8.838 I16.0 J15.9
G1 F300.0 Z-3.0
G3 F800.0 X11.825 Y8.6687 I16.0 J15.9
G3 X24.35 Y15.9 I16.0 J15.9
G3 X11.825 Y23.1313 I16.0 J15.9
G3 X11.5446 Y8.838 I16.0 J15.9
G1 F300.0 X11.0653 Y8.0784
G3 F800.0 X11.3759 Y7.8908 I16.0 J15.9
G3 X11.5882 Y7.7719 I16.0 J15.9
G3 X11.0182 Y7.1723 I13.5651 J5.3218
G3 X10.7004 Y6.6273 I13.5651 J5.3218
G2 X10.0249 Y6.5336 I8.2816 J21.5761
G3 X10.8919 Y8.1187 I7.8125 J8.7733
G3 X10.9047 Y8.1821 I7.8125 J8.7733
G3 X11.0653 Y8.0784 I16.0 J15.9
G0 Z3.0
G0 X7.6532 Y11.9174
G0 Z-1.5
G1 F300.0 Z-3.0
G3 F800.0 X6.8396 Y11.7674 I7.8125 J8.7733
G3 X6.2622 Y11.5133 I7.8125 J8.7733
G2 X5.6606 Y11.8345 I13.092 J25.0288
G3 X7.2937 Y12.6073 I5.1872 J14.9469
G3 X7.3413 Y12.651 I5.1872 J14.9469
G3 X7.6532 Y11.9174 I16.0 J15.9
G0 Z3.0
G0 X6.9064 Y17.5841
G0 Z-1.5
G1 F300.0 Z-3.0
G3 F800.0 X6.16 Y17.941 I5.1872 J14.9469
G3 X5.5435 Y18.0748 I5.1872 J14.9469
G2 X5.2456 Y18.6883 I19.0132 J24.9946
G3 X7.0211 Y18.3536 I6.692 J21.4845
G3 X7.0852 Y18.361 I6.692 J21.4845
G3 X6.9064 Y17.5841 I16.0 J15.9
G0 Z3.0
G0 X9.6331 Y22.6076
G0 Z-1.5
G1 F300.0 Z-3.0
G3 F800.0 X9.2389 Y23.335 I6.692 J21.4845
G3 X8.8188 Y23.8057 I6.692 J21.4845
G2 X8.9384 Y24.477 I23.7834 J21.4866
G3 X10.1781 Y23.1627 I11.7522 J25.8891
G3 X10.2343 Y23.1309 I11.7522 J25.8891
G3 X9.6331 Y22.6076 I16.0 J15.9
G0 Z3.0
G0 X14.7916 Y25.0689
G0 Z-1.5
G1 F300.0 Z-3.0
G3 F800.0 X14.9004 Y25.8891 I11.7522 J25.8891
G3 X14.8371 Y26.5168 I11.7522 J25.8891
G2 X15.3285 Y26.9897 I25.5806 J15.8447
G3 X15.5588 Y25.1977 I18.4349 J26.4782
G3 X15.5857 Y25.1389 I18.4349 J26.4782
G3 X14.7916 Y25.0689 I16.0 J15.9
G0 Z3.0
G0 X20.4118 Y24.0281
G0 Z-1.5
G1 F300.0 Z-3.0
G3 F800.0 X20.9818 Y24.6277 I18.4349 J26.4782
G3 X21.2996 Y25.1727 I18.4349 J26.4782
G2 X21.9751 Y25.2664 I23.7184 J10.2239
G3 X21.1081 Y23.6813 I24.1875 J23.0267
G3 X21.0953 Y23.6179 I24.1875 J23.0267
G3 X20.4118 Y24.0281 I16.0 J15.9
G0 Z3.0
G0 X24.3468 Y19.8826
G0 Z-1.5
G1 F300.0 Z-3.0
G3 F800.0 X25.1604 Y20.0326 I24.1875 J23.0267
G3 X25.7378 Y20.2867 I24.1875 J23.0267
G2 X26.3394 Y19.9655 I18.908 J6.7712
G3 X24.7063 Y19.1927 I26.8128 J16.8531
G3 X24.6587 Y19.149 I26.8128 J16.8531
G3 X24.3468 Y19.8826 I16.0 J15.9
G0 Z3.0
G0 X25.0936 Y14.2159
G0 Z-1.5
G1 F300.0 Z-3.0
G3 F800.0 X25.84 Y13.859 I26.8128 J16.8531
G3 X26.4565 Y13.7252 I26.8128 J16.8531
G2 X26.7544 Y13.1117 I12.9868 J6.8054
G3 X24.9789 Y13.4464 I25.308 J10.3155
G3 X24.9148 Y13.439 I25.308 J10.3155
G3 X25.0936 Y14.2159 I16.0 J15.9
G0 Z3.0
G0 X22.3669 Y9.1924
G0 Z-1.5
G1 F300.0 Z-3.0
G3 F800.0 X22.7611 Y8.465 I25.308 J10.3155
G3 X23.1812 Y7.9943 I25.308 J10.3155
G2 X23.0616 Y7.323 I8.2166 J10.3134
G3 X21.8219 Y8.6373 I20.2478 J5.9109
G3 X21.7657 Y8.6691 I20.2478 J5.9109
G3 X22.3669 Y9.1924 I16.0 J15.9
G0 Z3.0
G0 X17.2084 Y6.7311
G0 Z-1.5
G1 F300.0 Z-3.0
G3 F800.0 X17.0996 Y5.9109 I20.2478 J5.9109
G3 X17.1629 Y5.2832 I20.2478 J5.9109
G2 X16.6715 Y4.8103 I6.4194 J15.9553
G3 X16.4412 Y6.6023 I13.5651 J5.3218
G3 X16.4143 Y6.6611 I13.5651 J5.3218
G3 X17.2084 Y6.7311 I16.0 J15.9
G0 Z3.0
G0 X19.2197 Y1.2585
G0 Z-1.5
G1 F300.0 Z-3.0
G3 F800.0 X19.3759 Y0.3625 I22.8141 J1.4235
G2 X17.7481 Y0.0964 I16.0 J15.9
G3 X19.2197 Y1.2585 I6.4194 J15.9553
G1 F300.0 X19.6692 Y1.2791
G3 F800.0 X19.9847 Y0.043 I22.8141 J1.4235
G2 X16.0876 Y-0.4498 I16.0 J15.9
G3 X16.0883 Y-0.4465 I13.0036 J0.1831
G3 X19.8368 Y2.4468 I6.4194 J15.9553
G3 X19.6692 Y1.2791 I22.8141 J1.4235
G0 Z3.0
G0 X26.7034 Y4.1421
G0 Z-1.5
G1 F300.0 Z-3.0
G3 F800.0 X27.2108 Y5.9472 I8.2166 J10.3134
G3 X27.8638 Y5.3142 I30.0218 J8.1935
G2 X26.7034 Y4.1421 I16.0 J15.9
G1 F300.0 X27.0063 Y3.8093
G2 F800.0 X25.681 Y2.7242 I16.0 J15.9
G3 X25.6796 Y2.7273 I22.8141 J1.4235
G3 X27.0116 Y7.2714 I8.2166 J10.3134
G3 X28.5442 Y5.4136 I30.0218 J8.1935
G2 X27.0063 Y3.8093 I16.0 J15.9
G0 Z3.0
G0 X31.5703 Y12.6789
G0 Z-1.5
G1 F300.0 Z-3.0
G3 F800.0 X30.9199 Y14.4376 I12.9868 J6.8054
G3 X31.8202 Y14.3093 I31.8736 J17.9071
G2 X31.5703 Y12.6789 I16.0 J15.9
G1 F300.0 X32.011 Y12.5878
G2 F800.0 X31.5766 Y10.9309 I16.0 J15.9
G3 X31.5737 Y10.9326 I30.0218 J8.1935
G3 X29.9804 Y15.3918 I12.9868 J6.8054
G3 X32.3123 Y14.7896 I31.8736 J17.9071
G2 X32.011 Y12.5878 I16.0 J15.9
G0 Z3.0
G0 X30.4899 Y22.4461
G0 Z-1.5
G1 F300.0 Z-3.0
G3 F800.0 X28.93 Y23.4866 I18.908 J6.7712
G3 X29.7338 Y23.912 I27.6623 J26.854
G2 X30.4899 Y22.4461 I16.0 J15.9
G1 F300.0 X30.9 Y22.6314
G2 F800.0 X31.5225 Y21.0357 I16.0 J15.9
G3 X31.5192 Y21.0353 I31.8736 J17.9071
G3 X27.6091 Y23.7063 I18.908 J6.7712
G3 X29.8496 Y24.5898 I27.6623 J26.854
G2 X30.9 Y22.6314 I16.0 J15.9
G0 Z3.0
G0 X23.8749 Y29.7129
G0 Z-1.5
G1 F300.0 Z-3.0
G3 F800.0 X22.0013 Y29.6377 I23.7184 J10.2239
G3 X22.4016 Y30.4544 I18.9964 J31.6169
G2 X23.8749 Y29.7129 I16.0 J15.9
G1 F300.0 X23.8713 Y29.2629
G3 F800.0 X20.8035 Y29.0391 I23.7184 J10.2239
G3 X22.0968 Y31.0707 I18.9964 J31.6169
G2 X25.5393 Y29.1787 I16.0 J15.9
G3 X25.5368 Y29.1765 I27.6623 J26.854
G3 X23.8713 Y29.2629 I23.7184 J10.2239
G0 Z3.0
G0 X14.2519 Y31.7036
G0 Z-1.5
G1 F300.0 Z-3.0
G3 F800.0 X12.7803 Y30.5415 I25.5806 J15.8447
G3 X12.6241 Y31.4375 I9.1859 J30.3765
G2 X14.2519 Y31.7036 I16.0 J15.9
G1 F300.0 X14.5135 Y31.3374
G3 F800.0 X12.1632 Y29.3532 I25.5806 J15.8447
G3 X12.0153 Y31.757 I9.1859 J30.3765
G2 X15.9124 Y32.2498 I16.0 J15.9
G3 X15.9117 Y32.2465 I18.9964 J31.6169
G3 X14.5135 Y31.3374 I25.5806 J15.8447
G0 Z3.0
G0 X5.2966 Y27.6579
G0 Z-1.5
G1 F300.0 Z-3.0
G3 F800.0 X4.7892 Y25.8528 I23.7834 J21.4866
G3 X4.1362 Y26.4858 I1.9782 J23.6065
G2 X5.2966 Y27.6579 I16.0 J15.9
G1 F300.0 X5.7235 Y27.5154
G3 F800.0 X4.9884 Y24.5286 I23.7834 J21.4866
G3 X3.4558 Y26.3864 I1.9782 J23.6065
G2 X6.319 Y29.0758 I16.0 J15.9
G3 X6.3204 Y29.0727 I9.1859 J30.3765
G3 X5.7235 Y27.5154 I23.7834 J21.4866
G0 Z3.0
G0 X0.4297 Y19.1211
G0 Z-1.5
G1 F300.0 Z-3.0
G3 F800.0 X1.0801 Y17.3624 I19.0132 J24.9946
G3 X0.1798 Y17.4907 I0.1264 J13.8929
G2 X0.4297 Y19.1211 I16.0 J15.9
G1 F300.0 X-0.011 Y19.2122
G2 F800.0 X0.4234 Y20.8691 I16.0 J15.9
G3 X0.4263 Y20.8674 I1.9782 J23.6065
G3 X2.0196 Y16.4082 I19.0132 J24.9946
G3 X-0.3123 Y17.0104 I0.1264 J13.8929
G2 X-0.011 Y19.2122 I16.0 J15.9
G0 Z3.0
G0 X1.5101 Y9.3539
G0 Z-1.5
G1 F300.0 Z-3.0
G3 F800.0 X3.07 Y8.3134 I13.092 J25.0288
G3 X2.2662 Y7.888 I4.3377 J4.946
G2 X1.5101 Y9.3539 I16.0 J15.9
G1 F300.0 X1.7775 Y9.7158
G3 F800.0 X4.3909 Y8.0937 I13.092 J25.0288
G3 X2.1504 Y7.2102 I4.3377 J4.946
G2 X0.4775 Y10.7643 I16.0 J15.9
G3 X0.4808 Y10.7647 I0.1264 J13.8929
G3 X1.7775 Y9.7158 I13.092 J25.0288
G0 Z3.0
G0 X8.1251 Y2.0871
G0 Z-1.5
G1 F300.0 Z-3.0
G3 F800.0 X9.9987 Y2.1623 I8.2816 J21.5761
G3 X9.5984 Y1.3456 I13.0036 J0.1831
G2 X8.1251 Y2.0871 I16.0 J15.9
G1 F300.0 X8.1287 Y2.5371
G3 F800.0 X11.1965 Y2.7609 I8.2816 J21.5761
G3 X9.9032 Y0.7293 I13.0036 J0.1831
G2 X7.825 Y1.7405 I16.0 J15.9
G2 X6.4607 Y2.6213 I16.0 J15.9
G3 X6.4632 Y2.6235 I4.3377 J4.946
G3 X8.1287 Y2.5371 I8.2816 J21.5761
G1 F300.0 X8.1359 Y3.4353
G3 F800.0 X11.9073 Y3.8007 I8.2816 J21.5761
G3 X13.33 Y3.0842 I13.5651 J5.3218
G3 X15.6206 Y6.237 I13.5651 J5.3218
G3 X11.7449 Y6.6444 I13.5651 J5.3218
G3 X11.3746 Y5.8357 I13.5651 J5.3218
G2 X6.4792 Y5.6363 I8.2816 J21.5761
G3 X6.3932 Y5.8611 I4.3377 J4.946
G3 X2.5174 Y6.2685 I4.3377 J4.946
G3 X2.1785 Y5.5787 I4.3377 J4.946
G2 X-0.7619 Y11.8257 I16.0 J15.9
G3 X0.7514 Y11.7315 I0.1264 J13.8929
G3 X5.5771 Y8.5171 I13.092 J25.0288
G3 X6.3069 Y7.1012 I7.8125 J8.7733
G3 X10.0133 Y8.3055 I7.8125 J8.7733
G3 X7.1172 Y10.9131 I7.8125 J8.7733
G3 X6.3423 Y10.4765 I7.8125 J8.7733
G2 X2.2646 Y13.1927 I13.092 J25.0288
G3 X2.3272 Y13.4251 I0.1264 J13.8929
G3 X-0.5689 Y16.0328 I0.1264 J13.8929
G3 X-1.2485 Y15.674 I0.1264 J13.8929
G2 X0.0445 Y22.4562 I16.0 J15.9
G3 X1.2134 Y21.4905 I1.9782 J23.6065
G3 X3.2281 Y16.0535 I19.0132 J24.9946
G3 X2.9863 Y14.4791 I5.1872 J14.9469
G3 X6.6927 Y13.2748 I5.1872 J14.9469
G3 X5.8824 Y17.0867 I5.1872 J14.9469
G3 X4.9989 Y17.189 I5.1872 J14.9469
G2 X3.2965 Y21.7831 I19.0132 J24.9946
G3 X3.4838 Y21.9344 I1.9782 J23.6065
G3 X2.6735 Y25.7464 I1.9782 J23.6065
G3 X1.9128 Y25.8556 I1.9782 J23.6065
G2 X6.9454 Y30.5825 I16.0 J15.9
G3 X7.3234 Y29.1141 I9.1859 J30.3765
G3 X5.7576 Y23.5313 I23.7834 J21.4866
G3 X4.6365 Y22.3997 I6.692 J21.4845
G3 X6.9272 Y19.2468 I6.692 J21.4845
G3 X8.5123 Y22.807 I6.692 J21.4845
G3 X7.8576 Y23.4091 I6.692 J21.4845
G2 X9.1807 Y28.1265 I23.7834 J21.4866
G3 X9.4211 Y28.1388 I9.1859 J30.3765
G3 X11.0062 Y31.699 I9.1859 J30.3765
G3 X10.4549 Y32.2345 I9.1859 J30.3765
G2 X17.3048 Y33.1006 I16.0 J15.9
G3 X16.7476 Y31.6904 I18.9964 J31.6169
G3 X12.1993 Y28.0942 I25.5806 J15.8447
G3 X10.6272 Y27.8376 I11.7522 J25.8891
G3 Y23.9405 I11.7522 J25.8891
G3 X14.0022 Y25.8891 I11.7522 J25.8891
G3 X13.8264 Y26.7609 I11.7522 J25.8891
G2 X17.6696 Y29.7997 I25.5806 J15.8447
G3 X17.8714 Y29.6684 I18.9964 J31.6169
G3 X21.2464 Y31.6169 I18.9964 J31.6169
G3 X21.1151 Y32.3742 I18.9964 J31.6169
G2 X27.1659 Y29.0486 I16.0 J15.9
G3 X25.8862 Y28.2353 I27.6623 J26.854
G3 X20.0927 Y27.9993 I23.7184 J10.2239
G3 X18.67 Y28.7158 I18.4349 J26.4782
G3 X16.3794 Y25.563 I18.4349 J26.4782
G3 X20.2551 Y25.1556 I18.4349 J26.4782
G3 X20.6254 Y25.9643 I18.4349 J26.4782
G2 X25.5208 Y26.1637 I23.7184 J10.2239
G3 X25.6068 Y25.9389 I27.6623 J26.854
G3 X29.4826 Y25.5315 I27.6623 J26.854
G3 X29.8215 Y26.2213 I27.6623 J26.854
G2 X32.7619 Y19.9743 I16.0 J15.9
G3 X31.2486 Y20.0685 I31.8736 J17.9071
G3 X26.4229 Y23.2829 I18.908 J6.7712
G3 X25.6931 Y24.6988 I24.1875 J23.0267
G3 X21.9867 Y23.4945 I24.1875 J23.0267
G3 X24.8828 Y20.8869 I24.1875 J23.0267
G3 X25.6577 Y21.3235 I24.1875 J23.0267
G2 X29.7354 Y18.6073 I18.908 J6.7712
G3 X29.6728 Y18.3749 I31.8736 J17.9071
G3 X32.5689 Y15.7672 I31.8736 J17.9071
G3 X33.2485 Y16.126 I31.8736 J17.9071
G2 X33.25 Y15.9 I16.0 J15.9
G2 X31.9555 Y9.3438 I16.0 J15.9
G3 X30.7866 Y10.3095 I30.0218 J8.1935
G3 X28.7719 Y15.7465 I12.9868 J6.8054
G3 X29.0137 Y17.3209 I26.8128 J16.8531
G3 X25.3073 Y18.5252 I26.8128 J16.8531
G3 X26.1176 Y14.7133 I26.8128 J16.8531
G3 X27.0011 Y14.611 I26.8128 J16.8531
G2 X28.7035 Y10.0169 I12.9868 J6.8054
G3 X28.5162 Y9.8656 I30.0218 J8.1935
G3 X29.3265 Y6.0536 I30.0218 J8.1935
G3 X30.0872 Y5.9444 I30.0218 J8.1935
G2 X25.0546 Y1.2175 I16.0 J15.9
G3 X24.6766 Y2.6859 I22.8141 J1.4235
G3 X26.2424 Y8.2687 I8.2166 J10.3134
G3 X27.3635 Y9.4003 I25.308 J10.3155
G3 X25.0728 Y12.5532 I25.308 J10.3155
G3 X23.4877 Y8.993 I25.308 J10.3155
G3 X24.1424 Y8.3909 I25.308 J10.3155
G2 X22.8193 Y3.6735 I8.2166 J10.3134
G3 X22.5789 Y3.6612 I22.8141 J1.4235
G3 X20.9938 Y0.101 I22.8141 J1.4235
G3 X21.5451 Y-0.4345 I22.8141 J1.4235
G2 X14.6952 Y-1.3006 I16.0 J15.9
G3 X15.2524 Y0.1096 I13.0036 J0.1831
G3 X19.8007 Y3.7058 I6.4194 J15.9553
G3 X21.3728 Y3.9624 I20.2478 J5.9109
G3 Y7.8595 I20.2478 J5.9109
G3 X17.9978 Y5.9109 I20.2478 J5.9109
G3 X18.1736 Y5.0391 I20.2478 J5.9109
G2 X14.3304 Y2.0003 I6.4194 J15.9553
G3 X14.1286 Y2.1316 I13.0036 J0.1831
G3 X10.7536 Y0.1831 I13.0036 J0.1831
G3 X10.8849 Y-0.5742 I13.0036 J0.1831
G2 X7.375 Y0.9611 I16.0 J15.9
G2 X4.8341 Y2.7514 I16.0 J15.9
G3 X6.1138 Y3.5647 I4.3377 J4.946
G3 X8.1359 Y3.4353 I8.2816 J21.5761
G0 Z3.0
G0 X8.1251 Y2.0871
G0 Z-2.5
G1 F300.0 Z-4.0
G3 F800.0 X9.9987 Y2.1623 I8.2816 J21.5761
G3 X9.5984 Y1.3456 I13.0036 J0.1831
G2 X8.1251 Y2.0871 I16.0 J15.9
G1 F300.0 X8.1287 Y2.5371
G3 F800.0 X11.1965 Y2.7609 I8.2816 J21.5761
G3 X9.9032 Y0.7293 I13.0036 J0.1831
G2 X7.825 Y1.7405 I16.0 J15.9
G2 X6.4607 Y2.6213 I16.0 J15.9
G3 X6.4632 Y2.6235 I4.3377 J4.946
G3 X8.1287 Y2.5371 I8.2816 J21.5761
G0 Z3.0
G0 X10.0249 Y6.5336
G0 Z-2.5
G1 F300.0 Z-4.0
G3 F800.0 X10.8919 Y8.1187 I7.8125 J8.7733
