( Made using CamBam - http://www.cambam.co.uk )
( 1.5mm 12/16/2016 12:18:05 PM )
( T1 : 1.0 )
G21 G90 G64 G40
G0 Z3.0
( T1 : 1.0 )
T1 M6
( Contour1 )
G17
M3
G0 X162.0 Y71.0
G0 Z0.5
G1 F300.0 Z-2.0
G2 F600.0 X160.5 Y70.134 I161.0 J71.0
G2 Y71.866 I161.0 J71.0
G2 X162.0 Y71.0 I161.0 J71.0
G0 Z3.0
G0 X164.2
G0 Z0.5
G1 F300.0 Z-2.0
G2 F600.0 X164.35 Y71.2598 I164.5 J71.0
G2 X164.8 Y71.0 I164.5 J71.0
G2 X164.35 Y70.7402 I164.5 J71.0
G2 X164.2 Y71.0 I164.5 J71.0
G0 Z3.0
G0 X167.004 Y72.7362
G0 Z0.5
G1 F300.0 Z-2.0
G3 F600.0 X165.708 Y75.1106 I161.0 J71.0
G2 X166.0 Y75.366 I166.5 J74.5
G2 X166.5 Y75.5 I166.5 J74.5
G1 X169.5
G2 X170.0 Y75.0 I169.5 J75.0
G2 X169.9846 Y74.8769 I169.5 J75.0
G1 X169.0 Y71.0
G1 X167.004 Y72.7362
G0 Z3.0
G0 X161.2767 Y75.1341
G0 Z0.5
G1 F300.0 Z-2.0
G2 F600.0 X160.85 Y74.9902 I161.0 J75.25
G2 Y75.5098 I161.0 J75.25
G2 X161.3 Y75.25 I161.0 J75.25
G2 X161.2767 Y75.1341 I161.0 J75.25
G0 Z3.0
G0 X156.292 Y75.1106
G0 Z0.5
G1 F300.0 Z-2.0
G3 F600.0 X154.996 Y72.7362 I161.0 J71.0
G1 X153.0 Y71.0
G1 X152.0154 Y74.8769
G2 X152.0 Y75.0 I152.5 J75.0
G2 X152.5 Y75.5 I152.5 J75.0
G1 X155.5
G2 X156.0 Y75.366 I155.5 J74.5
G2 X156.292 Y75.1106 I155.5 J74.5
G0 Z3.0
G0 X157.4154 Y71.2878
G0 Z0.5
G1 F300.0 Z-2.0
G2 F600.0 X157.8 Y71.0 I157.5 J71.0
G2 X157.35 Y70.7402 I157.5 J71.0
G2 Y71.2598 I157.5 J71.0
G2 X157.4154 Y71.2878 I157.5 J71.0
G0 Z3.0
G0 X160.814 Y66.9854
G0 Z0.5
G1 F300.0 Z-2.0
G2 F600.0 X160.85 Y67.0098 I161.0 J66.75
G2 X161.3 Y66.75 I161.0 J66.75
G2 X160.85 Y66.4902 I161.0 J66.75
G2 X160.814 Y66.9854 I161.0 J66.75
G0 Z3.0
G0 X149.5583 Y77.4829
G0 Z0.5
G1 F300.0 Z-2.0
G2 F600.0 X149.5275 Y77.4783 I149.54 J77.5
G2 Y77.5217 I149.54 J77.5
G2 X149.565 Y77.5 I149.54 J77.5
G2 X149.5583 Y77.4829 I149.54 J77.5
G0 Z3.0
G0 X147.025 Y77.4998
G0 Z0.5
G1 F300.0 Z-2.0
G2 F600.0 X146.9875 Y77.4783 I147.0 J77.5
G2 Y77.5217 I147.0 J77.5
G2 X147.025 Y77.5 I147.0 J77.5
G1 Y77.4998
G0 Z3.0
G0 X144.485 Y77.5
G0 Z0.5
G1 F300.0 Z-2.0
G2 F600.0 X144.4475 Y77.4783 I144.46 J77.5
G2 Y77.5217 I144.46 J77.5
G2 X144.485 Y77.5 I144.46 J77.5
G0 Z3.0
G0 X132.9529 Y74.9277
G0 Z0.5
G1 F300.0 Z-2.0
G2 F600.0 X133.0 Y74.5 I131.0355 J74.5
G1 Y73.0
G2 X132.4142 Y71.5858 I131.0 J73.0
G1 X130.8284 Y70.0
G2 X126.0 Y68.0 I126.0 J74.8284
G3 X121.0 Y63.0 I126.0 J63.0
G1 Y59.5
G1 X119.5
G1 Y63.0
G3 X119.4885 Y63.1065 I119.0 J63.0
G1 X118.1155 Y69.4083
G1 X128.5104 Y79.8033
G1 X132.4246 Y75.8891
G2 X132.9529 Y74.9277 I131.0355 J74.5
G0 Z3.0
G0 X126.5261 Y81.3545
G0 Z0.5
G1 F300.0 Z-2.0
G1 F600.0 X117.4774 Y72.3058
G3 X114.9123 Y78.0808 I100.0 J68.0
G1 X118.15 Y90.1637
G1 X119.6673 Y88.6464
G3 X120.0208 Y88.5 I120.0208 J89.0
G1 X121.5
G1 Y87.0208
G3 X121.6464 Y86.6673 I122.0 J87.0208
G1 X126.7426 Y81.5711
G1 X126.5261 Y81.3545
G0 Z3.0
G0 X114.0939 Y84.6857
G0 Z0.5
G1 F300.0 Z-2.0
G1 F600.0 X112.9679 Y80.4833
G3 X109.0 Y83.5885 I100.0 J68.0
G3 X100.0 Y86.0 I100.0 J68.0
G3 X91.0 Y83.5885 I100.0 J68.0
G3 X87.0321 Y80.4833 I100.0 J68.0
G1 X83.8913 Y92.205
G1 X84.3431 Y92.6569
G2 X90.0 Y95.0 I90.0 J87.0
G1 X100.0
G1 X110.0
G2 X115.6569 Y92.6569 I110.0 J87.0
G1 X116.1087 Y92.205
G1 X114.0939 Y84.6857
G0 Z3.0
G0 X110.0019 Y79.8411
G0 Z0.5
G1 F300.0 Z-2.0
G2 F600.0 X115.1314 Y71.36 I100.0 J68.0
G1 X117.0 Y62.9452
G1 Y49.0
G1 X104.9
G3 X103.0333 Y47.718 I104.9 J47.0
G1 X103.0264 Y47.7
G1 X102.4
G3 X100.4 Y45.7 I102.4 J45.7
G1 Y40.3
G3 X102.4 Y38.3 I102.4 J40.3
G1 X103.0264
G1 X103.0333 Y38.282
G3 X104.9 Y37.0 I104.9 J39.0
G1 X117.0
G1 Y23.0548
G1 X115.1314 Y14.64
G2 X92.25 Y4.5766 I100.0 J18.0
G2 X84.8686 Y14.64 I100.0 J18.0
G1 X83.0 Y23.0548
G1 Y37.0
G1 X95.1
G3 X96.9667 Y38.282 I95.1 J39.0
G1 X96.9736 Y38.3
G1 X97.6
G3 X99.6 Y40.3 I97.6 J40.3
G1 Y45.7
G3 X97.6 Y47.7 I97.6 J45.7
G1 X96.9736
G1 X96.9667 Y47.718
G3 X95.1 Y49.0 I95.1 J47.0
G1 X83.0
G1 Y62.9452
G1 X84.8686 Y71.36
G2 X92.25 Y81.4234 I100.0 J68.0
G2 X110.0019 Y79.8411 I100.0 J68.0
G0 Z3.0
G0 X119.5 Y57.0
G0 Z0.5
G1 F300.0 Z-2.0
G1 F600.0 X121.0
G1 Y54.5
G3 X121.5 Y54.0 I121.5 J54.5
G1 Y48.0
G3 X121.0 Y47.5 I121.5 J47.5
G1 Y38.5
G3 X121.5 Y38.0 I121.5 J38.5
G1 Y32.0
G3 X121.0 Y31.5 I121.5 J31.5
G1 Y29.0
G1 X119.5
G1 Y31.5
G3 X119.0 Y32.0 I119.0 J31.5
G1 Y38.0
G3 X119.5 Y38.5 I119.0 J38.5
G1 Y47.5
G3 X119.0 Y48.0 I119.0 J47.5
G1 Y54.0
G3 X119.5 Y54.5 I119.0 J54.5
G1 Y57.0
G0 Z3.0
G0 X117.0 Y46.5
G0 Z0.5
G1 F300.0 Z-2.0
G1 F600.0 Y39.5
G1 X105.2434
G1 X104.8667 Y40.4795
G3 X104.4 Y40.8 I104.4 J40.3
G1 X102.9
G1 Y45.2
G1 X104.4
G3 X104.8667 Y45.5205 I104.4 J45.7
G1 X105.2434 Y46.5
G1 X117.0
G0 Z3.0
G0 X97.1 Y45.2
G0 Z0.5
G1 F300.0 Z-2.0
G1 F600.0 Y40.8
G1 X95.6
G3 X95.1333 Y40.4795 I95.6 J40.3
G1 X94.7566 Y39.5
G1 X83.0
G1 Y46.5
G1 X94.7566
G1 X95.1333 Y45.5205
G3 X95.6 Y45.2 I95.6 J45.7
G1 X97.1
G0 Z3.0
G0 X81.0 Y48.0
G0 Z0.5
G1 F300.0 Z-2.0
G3 F600.0 X80.5 Y47.5 I81.0 J47.5
G1 Y38.5
G3 X81.0 Y38.0 I81.0 J38.5
G1 Y32.0
G3 X80.5 Y31.5 I81.0 J31.5
G1 Y29.0
G1 X79.0
G1 Y31.5
G3 X78.5 Y32.0 I78.5 J31.5
G1 Y38.0
G3 X79.0 Y38.5 I78.5 J38.5
G1 Y47.5
G3 X78.5 Y48.0 I78.5 J47.5
G1 Y54.0
G3 X79.0 Y54.5 I78.5 J54.5
G1 Y57.0
G1 X80.5
G1 Y54.5
G3 X81.0 Y54.0 I81.0 J54.5
G1 Y48.0
G0 Z3.0
G0 X80.5 Y59.5
G0 Z0.5
G1 F300.0 Z-2.0
G1 F600.0 X79.0
G1 Y63.0
G3 X74.0 Y68.0 I74.0 J63.0
G2 X69.1716 Y70.0 I74.0 J74.8284
G1 X67.5858 Y71.5858
G2 X67.0 Y73.0 I69.0 J73.0
G1 Y74.5
G2 X67.5754 Y75.8891 I68.9645 J74.5
G1 X71.4896 Y79.8033
G1 X81.8845 Y69.4083
G1 X80.5115 Y63.1065
G3 X80.5 Y63.0 I81.0 J63.0
G1 Y59.5
G0 Z3.0
G0 X82.5226 Y72.3058
G0 Z0.5
G1 F300.0 Z-2.0
G1 F600.0 X73.2574 Y81.5711
G1 X78.3536 Y86.6673
G3 X78.5 Y87.0208 I78.0 J87.0208
G1 Y88.5
G1 X79.9792
G3 X80.3327 Y88.6464 I79.9792 J89.0
G1 X81.85 Y90.1637
G1 X85.0877 Y78.0808
G3 X82.5226 Y72.3058 I100.0 J68.0
G0 Z3.0
G0 X63.3935 Y57.3085
G0 Z0.5
G1 F300.0 Z-2.0
G2 F600.0 X63.433 Y57.25 I63.0 J57.0
G2 X63.5 Y57.0 I63.0 J57.0
G1 Y55.0
G2 X63.0 Y54.5 I63.0 J55.0
G2 X62.5 Y55.0 I63.0 J55.0
G1 Y57.0
G2 X62.567 Y57.25 I63.0 J57.0
G2 X63.3935 Y57.3085 I63.0 J57.0
G0 Z3.0
G0 X58.4267 Y57.9609
G0 Z0.5
G1 F300.0 Z-2.0
G2 F600.0 X57.7591 Y57.8661 I58.0797 J58.0065
G3 X52.9865 Y60.6216 I53.5 J56.0
G2 X52.9088 Y61.3172 I52.9478 J60.9694
G2 X58.4004 Y58.1467 I53.5 J56.0
G2 X58.4267 Y57.9609 I58.0797 J58.0065
G0 Z3.0
G0 X56.2873 Y57.1094
G0 Z0.5
G1 F300.0 Z-2.0
G2 F600.0 X56.5 Y56.0 I53.5 J56.0
G2 X52.0 Y53.4019 I53.5 J56.0
G2 Y58.5981 I53.5 J56.0
G2 X56.2873 Y57.1094 I53.5 J56.0
G0 Z3.0
G0 X57.9052 Y54.2969
G0 Z0.5
G1 F300.0 Z-2.0
G2 F600.0 X58.4004 Y53.8533 I58.0797 J53.9935
G2 X52.9088 Y50.6828 I53.5 J56.0
G2 X52.9865 Y51.3784 I52.9478 J51.0306
G3 X57.7591 Y54.1339 I53.5 J56.0
G2 X57.9052 Y54.2969 I58.0797 J53.9935
G0 Z3.0
G0 X53.2471 Y47.6639
G0 Z0.5
G1 F300.0 Z-2.0
G2 F600.0 X53.6183 Y47.2628 I52.5 J46.6
G2 X53.4867 Y45.7535 I52.5 J46.6
G1 X53.4797 Y45.7454
G1 X52.8731 Y45.0384
G3 X52.57 Y41.5541 I55.15 J43.085
G3 X52.5717 Y41.5513 I53.0 J41.8092
G2 X52.5995 Y40.3066 I51.4978 J40.9046
G1 X48.7204 Y36.4275
G2 X48.0 Y36.9353 I48.5584 J36.9625
G1 Y37.0
G1 Y49.0
G3 X47.9997 Y49.0177 I47.5 J49.0
G2 Y49.0572 I48.5584 J49.0375
G2 X48.7505 Y49.5624 I48.5584 J49.0375
G3 X51.1045 Y48.3671 I53.5 J56.0
G1 X53.1526 Y47.7243
G2 X53.2471 Y47.6639 I52.5 J46.6
G0 Z3.0
G0 X54.9581 Y43.5467
G0 Z0.5
G1 F300.0 Z-2.0
G2 F600.0 X55.65 Y43.085 I55.15 J43.085
G2 X54.9 Y42.652 I55.15 J43.085
G2 Y43.518 I55.15 J43.085
G2 X54.9581 Y43.5467 I55.15 J43.085
G0 Z3.0
G0 X55.878 Y39.1299
G0 Z0.5
G1 F300.0 Z-2.0
G2 F600.0 X56.0373 Y39.1095 I55.9281 J38.8894
G2 X57.0 Y36.7995 I53.3995 J36.6546
G1 Y36.5
G1 Y30.5
G1 Y30.3015
G2 X56.1741 Y28.3812 I54.133 J30.3968
G2 X56.1487 Y28.3558 I54.133 J30.3968
G3 X56.1464 Y28.3536 I56.5 J28.0
G1 X53.6644 Y25.8715
G2 X51.8356 I52.75 J27.0123
G1 X48.3801 Y29.327
G2 X48.0 Y30.5 I50.0 J30.5
G2 X48.3801 Y31.673 I50.0 J30.5
G1 X55.8143 Y39.1072
G2 X55.878 Y39.1299 I55.9281 J38.8894
G0 Z3.0
G0 X57.8547 Y26.647
G0 Z0.5
G1 F300.0 Z-2.0
G2 F600.0 X57.8564 Y26.6464 I57.855 J26.645
G3 X58.21 Y26.5 I58.21 J27.0
G1 X58.29
G3 X58.6436 Y26.6464 I58.29 J27.0
G2 X58.6464 Y26.6436 I58.645 J26.645
G3 X58.5 Y26.29 I59.0 J26.29
G1 Y24.21
G3 X58.6464 Y23.8564 I59.0 J24.21
G2 X58.6436 Y23.8536 I58.645 J23.855
G3 X58.29 Y24.0 I58.29 J23.5
G1 X58.21
G3 X57.8564 Y23.8536 I58.21 J23.5
G2 X57.8536 Y23.8564 I57.855 J23.855
G3 X58.0 Y24.21 I57.5 J24.21
G1 Y26.29
G3 X57.8536 Y26.6436 I57.5 J26.29
G2 X57.8547 Y26.647 I57.855 J26.645
G0 Z3.0
G0 X60.7997 Y25.5184
G0 Z0.5
G1 F300.0 Z-2.0
G2 F600.0 X61.5 Y26.0 I61.5 J25.25
G1 X62.5
G2 X62.875 Y25.8995 I62.5 J25.25
G2 Y24.6005 I62.5 J25.25
G2 X62.5 Y24.5 I62.5 J25.25
G1 X61.5
G2 X60.75 Y25.25 I61.5 J25.25
G2 X60.7997 Y25.5184 I61.5 J25.25
G0 Z3.0
G0 X51.2966 Y21.6791
G0 Z0.5
G1 F300.0 Z-2.0
G2 F600.0 X51.5 Y20.7335 I48.6788 J20.6215
G1 Y20.5
G1 Y13.7071
G1 X51.2929 Y13.5
G1 X48.7071
G1 X48.0 Y14.2071
G1 Y24.0
G1 Y24.0647
G2 X48.7204 Y24.5725 I48.5584 J24.0375
G1 X50.6464 Y22.6464
G3 X50.6508 Y22.6422 I51.0 J23.0
G2 X50.6994 Y22.5935 I48.6788 J20.6215
G2 X51.2966 Y21.6791 I48.6788 J20.6215
G0 Z3.0
G0 X38.75 Y21.5035
G0 Z0.5
G1 F300.0 Z-2.0
G2 F600.0 X38.7165 Y21.375 I38.5 J21.5
G2 X38.6667 Y21.3137 I38.5 J21.5
G3 X38.5 Y20.941 I39.0 J20.941
G1 Y19.059
G3 X38.6667 Y18.6863 I39.0 J19.059
G2 X38.7165 Y18.375 I38.5 J18.5
G2 X38.5 Y18.25 I38.5 J18.5
G1 X38.0
G2 X37.7835 Y18.375 I38.0 J18.5
G2 X37.8333 Y18.6863 I38.0 J18.5
G3 X38.0 Y19.059 I37.5 J19.059
G1 Y20.941
G3 X37.8333 Y21.3137 I37.5 J20.941
G2 X37.7835 Y21.375 I38.0 J21.5
G2 X38.0 Y21.75 I38.0 J21.5
G1 X38.5
G2 X38.75 Y21.5035 I38.5 J21.5
G0 Z3.0
G0 X35.6152 Y20.2683
G0 Z0.5
G1 F300.0 Z-2.0
G2 F600.0 X35.65 Y20.085 I35.15 J20.085
G2 X34.9 Y19.652 I35.15 J20.085
G2 Y20.518 I35.15 J20.085
G2 X35.6152 Y20.2683 I35.15 J20.085
G0 Z3.0
G0 X34.4833 Y27.0811
G0 Z0.5
G1 F300.0 Z-2.0
G2 F600.0 X28.3038 Y30.0 I33.5 J33.0
G2 X27.5 Y33.0 I33.5 J33.0
G2 X28.3038 Y36.0 I33.5 J33.0
G2 X38.6962 I33.5 J33.0
G2 X39.5 Y33.0 I33.5 J33.0
G2 X38.6962 Y30.0 I33.5 J33.0
G2 X34.4833 Y27.0811 I33.5 J33.0
G0 Z3.0
G0 X18.9909 Y24.1417
G0 Z0.5
G1 F300.0 Z-2.0
G2 F600.0 X19.0 Y24.0647 I18.4416 J24.0375
G1 Y24.0
G1 Y14.2071
G1 X18.2929 Y13.5
G1 X15.7071
G1 X15.5 Y13.7071
G1 Y20.5
G1 Y20.7335
G2 X16.3006 Y22.5935 I18.3212 J20.6215
G2 X16.3492 Y22.6422 I18.3212 J20.6215
G3 X16.3536 Y22.6464 I16.0 J23.0
G1 X18.2796 Y24.5725
G2 X18.9909 Y24.1417 I18.4416 J24.0375
G0 Z3.0
G0 X16.2127 Y26.9198
G0 Z0.5
G1 F300.0 Z-2.0
G1 F600.0 X15.1644 Y25.8715
G2 X13.3356 I14.25 J27.0123
G1 X10.8536 Y28.3536
G3 X10.8513 Y28.3558 I10.5 J28.0
G2 X10.8259 Y28.3812 I12.867 J30.3968
G2 X10.0 Y30.3015 I12.867 J30.3968
G1 Y30.5
G1 Y36.5
G1 Y36.7995
G2 X10.9627 Y39.1095 I13.6005 J36.6546
G2 X11.1857 Y39.1072 I11.0719 J38.8894
G1 X18.6199 Y31.673
G2 X19.0 Y30.5 I17.0 J30.5
G2 X18.6199 Y29.327 I17.0 J30.5
G1 X16.2127 Y26.9198
G0 Z3.0
G0 X9.147 Y26.6451
G0 Z0.5
G1 F300.0 Z-2.0
G2 F600.0 X9.1464 Y26.6436 I9.145 J26.645
G3 X9.0 Y26.29 I9.5 J26.29
G1 Y24.21
G3 X9.1464 Y23.8564 I9.5 J24.21
G2 X9.1436 Y23.8536 I9.145 J23.855
G3 X8.79 Y24.0 I8.79 J23.5
G1 X8.71
G3 X8.3564 Y23.8536 I8.71 J23.5
G2 X8.3536 Y23.8564 I8.355 J23.855
G3 X8.5 Y24.21 I8.0 J24.21
G1 Y26.29
G3 X8.3536 Y26.6436 I8.0 J26.29
G2 X8.3564 Y26.6464 I8.355 J26.645
G3 X8.71 Y26.5 I8.71 J27.0
G1 X8.79
G3 X9.1436 Y26.6464 I8.79 J27.0
G2 X9.147 Y26.6451 I9.145 J26.645
G0 Z3.0
G0 X6.2005 Y25.518
G0 Z0.5
G1 F300.0 Z-2.0
G2 F600.0 X6.25 Y25.25 I5.5 J25.25
G2 X5.5 Y24.5 I5.5 J25.25
G1 X4.5
G2 X4.125 Y24.6005 I4.5 J25.25
G2 Y25.8995 I4.5 J25.25
G2 X4.5 Y26.0 I4.5 J25.25
G1 X5.5
G2 X6.2005 Y25.518 I5.5 J25.25
G0 Z3.0
G0 X17.6948 Y37.0123
G0 Z0.5
G1 F300.0 Z-2.0
G1 F600.0 X14.4005 Y40.3066
G2 X14.4283 Y41.5513 I15.5022 J40.9046
G3 X14.43 Y41.5541 I14.0 J41.8092
G3 X14.1269 Y45.0384 I11.85 J43.085
G1 X13.5203 Y45.7454
G1 X13.5133 Y45.7535
G2 X13.3817 Y47.2628 I14.5 J46.6
G2 X13.8474 Y47.7243 I14.5 J46.6
G1 X15.8955 Y48.3671
G3 X18.2495 Y49.5624 I13.5 J56.0
G2 X19.0003 Y49.0572 I18.4416 J49.0375
G2 Y49.0177 I18.4416 J49.0375
G3 X19.0 Y49.0 I19.5 J49.0
G1 Y37.0
G1 Y36.9353
G2 X18.2796 Y36.4275 I18.4416 J36.9625
G1 X17.6948 Y37.0123
G0 Z3.0
G0 X12.1967 Y42.7247
G0 Z0.5
G1 F300.0 Z-2.0
G2 F600.0 X11.6 Y42.652 I11.85 J43.085
G2 Y43.518 I11.85 J43.085
G2 X12.35 Y43.085 I11.85 J43.085
G2 X12.1967 Y42.7247 I11.85 J43.085
G0 Z3.0
G0 X12.9773 Y50.6756
G0 Z0.5
G1 F300.0 Z-2.0
G2 F600.0 X8.5996 Y53.8533 I13.5 J56.0
G2 X9.2409 Y54.1339 I8.9203 J53.9935
G3 X14.0135 Y51.3784 I13.5 J56.0
G2 X14.0912 Y50.6828 I14.0522 J51.0306
G2 X12.9773 Y50.6756 I13.5 J56.0
G0 Z3.0
G0 X13.2069 Y53.0144
G0 Z0.5
G1 F300.0 Z-2.0
G2 F600.0 X12.0 Y53.4019 I13.5 J56.0
G2 Y58.5981 I13.5 J56.0
G2 X16.5 Y56.0 I13.5 J56.0
G2 X13.2069 Y53.0144 I13.5 J56.0
G0 Z3.0
G0 X17.1776 Y53.0353
G0 Z0.5
G1 F300.0 Z-2.0
G2 F600.0 X17.2456 Y53.2445 I17.5276 J53.0371
G3 Y58.7555 I13.5 J56.0
G2 X17.8093 Y59.1706 I17.5276 J58.9629
G2 Y52.8294 I13.5 J56.0
G2 X17.1776 Y53.0353 I17.5276 J53.0371
G0 Z3.0
G0 X14.1804 Y60.6438
G0 Z0.5
G1 F300.0 Z-2.0
G2 F600.0 X14.0135 Y60.6216 I14.0522 J60.9694
G3 X9.2409 Y57.8661 I13.5 J56.0
G2 X8.5996 Y58.1467 I8.9203 J58.0065
G2 X14.0912 Y61.3172 I13.5 J56.0
G2 X14.1804 Y60.6438 I14.0522 J60.9694
G0 Z3.0
G0 X15.1882 Y63.8549
G0 Z0.5
G1 F300.0 Z-2.0
G1 F600.0 X13.8474 Y64.2757
G2 X13.3817 Y64.7372 I14.5 J65.4
G2 X13.5133 Y66.2465 I14.5 J65.4
G1 X13.5203 Y66.2546
G1 X14.1269 Y66.9616
G3 X14.43 Y70.4459 I11.85 J68.915
G3 X14.4283 Y70.4487 I14.0 J70.1908
G2 X14.4005 Y71.6934 I15.5022 J71.0954
G1 X18.2796 Y75.5725
G2 X19.0 Y75.0647 I18.4416 J75.0375
G1 Y75.0
G1 Y63.0
G3 X19.0003 Y62.9823 I19.5 J63.0
G2 Y62.9428 I18.4416 J62.9625
G2 X18.2495 Y62.4376 I18.4416 J62.9625
G3 X15.8955 Y63.6329 I13.5 J56.0
G1 X15.1882 Y63.8549
G0 Z3.0
G0 X12.1253 Y68.4977
G0 Z0.5
G1 F300.0 Z-2.0
G2 F600.0 X11.6 Y68.482 I11.85 J68.915
G2 Y69.348 I11.85 J68.915
G2 X12.35 Y68.915 I11.85 J68.915
G2 X12.1253 Y68.4977 I11.85 J68.915
G0 Z3.0
G0 X11.1266 Y72.8711
G0 Z0.5
G1 F300.0 Z-2.0
G2 F600.0 X10.9627 Y72.8905 I11.0719 J73.1106
G2 X10.0 Y75.2005 I13.6005 J75.3454
G1 Y75.5
G1 Y83.5
G2 X14.0 Y87.5 I14.0 J83.5
G1 X15.0
G2 X19.0 Y83.5 I15.0 J83.5
G1 Y81.5
G2 X18.6199 Y80.327 I17.0 J81.5
G1 X11.1857 Y72.8928
G2 X11.1266 Y72.8711 I11.0719 J73.1106
G0 Z3.0
G0 X9.1453 Y87.853
G0 Z0.5
G1 F300.0 Z-2.0
G2 F600.0 X9.1436 Y87.8536 I9.145 J87.855
G3 X8.79 Y88.0 I8.79 J87.5
G1 X8.71
G3 X8.3564 Y87.8536 I8.71 J87.5
G2 X8.3536 Y87.8564 I8.355 J87.855
G3 X8.5 Y88.21 I8.0 J88.21
G1 Y90.29
G3 X8.3536 Y90.6436 I8.0 J90.29
G2 X8.3564 Y90.6464 I8.355 J90.645
G3 X8.71 Y90.5 I8.71 J91.0
G1 X8.79
G3 X9.1436 Y90.6464 I8.79 J91.0
G2 X9.1464 Y90.6436 I9.145 J90.645
G3 X9.0 Y90.29 I9.5 J90.29
G1 Y88.21
G3 X9.1464 Y87.8564 I9.5 J88.21
G2 X9.1453 Y87.853 I9.145 J87.855
G0 Z3.0
G0 X6.1469 Y88.8544
G0 Z0.5
G1 F300.0 Z-2.0
G2 F600.0 X6.1436 Y88.8536 I6.145 J88.855
G3 X5.79 Y89.0 I5.79 J88.5
G1 X4.21
G3 X3.8564 Y88.8536 I4.21 J88.5
G2 X3.8536 Y88.8564 I3.855 J88.855
G3 X4.0 Y89.21 I3.5 J89.21
G1 Y89.29
G3 X3.8536 Y89.6436 I3.5 J89.29
G2 X3.8564 Y89.6464 I3.855 J89.645
G3 X4.21 Y89.5 I4.21 J90.0
G1 X5.79
G3 X6.1436 Y89.6464 I5.79 J90.0
G2 X6.1464 Y89.6436 I6.145 J89.645
G3 X6.0 Y89.29 I6.5 J89.29
G1 Y89.21
G3 X6.1464 Y88.8564 I6.5 J89.21
G2 X6.1469 Y88.8544 I6.145 J88.855
G0 Z3.0
G0 X29.2563 Y83.5559
G0 Z0.5
G1 F300.0 Z-2.0
G2 F600.0 X29.2835 Y83.625 I29.5 J83.5
G2 X29.5 Y83.75 I29.5 J83.5
G1 X30.0
G2 X30.2165 Y83.625 I30.0 J83.5
G2 X30.1667 Y83.3137 I30.0 J83.5
G3 X30.0 Y82.941 I30.5 J82.941
G1 Y81.059
G3 X30.1667 Y80.6863 I30.5 J81.059
G2 X30.2165 Y80.625 I30.0 J80.5
G2 X30.0 Y80.25 I30.0 J80.5
G1 X29.5
G2 X29.2835 Y80.625 I29.5 J80.5
G2 X29.3333 Y80.6863 I29.5 J80.5
G3 X29.5 Y81.059 I29.0 J81.059
G1 Y82.941
G3 X29.3333 Y83.3137 I29.0 J82.941
G2 X29.2563 Y83.5559 I29.5 J83.5
G0 Z3.0
G0 X32.3952 Y82.1227
G0 Z0.5
G1 F300.0 Z-2.0
G2 F600.0 X32.6 Y82.348 I32.85 J81.915
G2 X33.35 Y81.915 I32.85 J81.915
G2 X32.6 Y81.482 I32.85 J81.915
G2 X32.3952 Y82.1227 I32.85 J81.915
G0 Z3.0
G0 X33.5498 Y74.9243
G0 Z0.5
G1 F300.0 Z-2.0
G2 F600.0 X39.6962 Y72.0 I34.5 J69.0
G2 X40.5 Y69.0 I34.5 J69.0
G2 X39.6962 Y66.0 I34.5 J69.0
G2 X29.3038 I34.5 J69.0
G2 X28.5 Y69.0 I34.5 J69.0
G2 X29.3038 Y72.0 I34.5 J69.0
G2 X33.5498 Y74.9243 I34.5 J69.0
G0 Z3.0
G0 X48.0
G0 Z0.5
G1 F300.0 Z-2.0
G1 F600.0 Y75.0
G1 Y75.0647
G2 X48.7204 Y75.5725 I48.5584 J75.0375
G1 X52.5995 Y71.6934
G2 X52.5717 Y70.4487 I51.4978 J71.0954
G3 X52.57 Y70.4459 I53.0 J70.1908
G3 X52.8731 Y66.9616 I55.15 J68.915
G1 X53.4797 Y66.2546
G1 X53.4867 Y66.2465
G2 X53.6183 Y64.7372 I52.5 J65.4
G2 X53.1526 Y64.2757 I52.5 J65.4
G1 X51.1045 Y63.6329
G3 X48.7505 Y62.4376 I53.5 J56.0
G2 X47.9997 Y62.9428 I48.5584 J62.9625
G2 Y62.9823 I48.5584 J62.9625
G3 X48.0 Y63.0 I47.5 J63.0
G1 Y74.9243
G0 Z3.0
G0 X50.8914 Y77.8157
G0 Z0.5
G1 F300.0 Z-2.0
G1 F600.0 X48.3801 Y80.327
G2 X48.0 Y81.5 I50.0 J81.5
G1 Y83.5
G2 X52.0 Y87.5 I52.0 J83.5
G1 X53.0
G2 X57.0 Y83.5 I53.0 J83.5
G1 Y75.5
G1 Y75.2005
G2 X56.0373 Y72.8905 I53.3995 J75.3454
G2 X55.8143 Y72.8928 I55.9281 J73.1106
G1 X50.8914 Y77.8157
G0 Z3.0
G0 X54.9342 Y69.3661
G0 Z0.5
G1 F300.0 Z-2.0
G2 F600.0 X55.65 Y68.915 I55.15 J68.915
G2 X54.9 Y68.482 I55.15 J68.915
G2 Y69.348 I55.15 J68.915
G2 X54.9342 Y69.3661 I55.15 J68.915
G0 Z3.0
G0 X49.6351 Y59.2728
G0 Z0.5
G1 F300.0 Z-2.0
G2 F600.0 X49.7544 Y58.7555 I49.4724 J58.9629
G3 Y53.2445 I53.5 J56.0
G2 X49.1907 Y52.8294 I49.4724 J53.0371
G2 Y59.1706 I53.5 J56.0
G2 X49.6351 Y59.2728 I49.4724 J58.9629
G0 Z3.0
G0 X38.6718 Y47.6816
G0 Z0.5
G1 F300.0 Z-2.0
G2 F600.0 X38.7165 Y47.625 I38.5 J47.5
G2 X38.6667 Y47.3137 I38.5 J47.5
G3 X38.5 Y46.941 I39.0 J46.941
G1 Y45.059
G3 X38.6667 Y44.6863 I39.0 J45.059
G2 X38.7165 Y44.625 I38.5 J44.5
G2 X38.5 Y44.25 I38.5 J44.5
G1 X38.0
G2 X37.7835 Y44.625 I38.0 J44.5
G2 X37.8333 Y44.6863 I38.0 J44.5
G3 X38.0 Y45.059 I37.5 J45.059
G1 Y46.941
G3 X37.8333 Y47.3137 I37.5 J46.941
G2 X37.7835 Y47.625 I38.0 J47.5
G2 X38.0 Y47.75 I38.0 J47.5
G1 X38.5
G2 X38.6718 Y47.6816 I38.5 J47.5
G0 Z3.0
G0 X35.5969 Y46.1392
G0 Z0.5
G1 F300.0 Z-2.0
G2 F600.0 X35.65 Y45.915 I35.15 J45.915
G2 X34.9 Y45.482 I35.15 J45.915
G2 Y46.348 I35.15 J45.915
G2 X35.5969 Y46.1392 I35.15 J45.915
G0 Z3.0
G0 X30.1391 Y54.2923
G0 Z0.5
G1 F300.0 Z-2.0
G2 F600.0 X30.0 Y54.25 I30.0 J54.5
G1 X29.5
G2 X29.2835 Y54.375 I29.5 J54.5
G2 X29.3333 Y54.6863 I29.5 J54.5
G3 X29.5 Y55.059 I29.0 J55.059
G1 Y56.941
G3 X29.3333 Y57.3137 I29.0 J56.941
G2 X29.2835 Y57.375 I29.5 J57.5
G2 X29.5 Y57.75 I29.5 J57.5
G1 X30.0
G2 X30.2165 Y57.375 I30.0 J57.5
G2 X30.1667 Y57.3137 I30.0 J57.5
G3 X30.0 Y56.941 I30.5 J56.941
G1 Y55.059
G3 X30.1667 Y54.6863 I30.5 J55.059
G2 X30.2165 Y54.375 I30.0 J54.5
G2 X30.1391 Y54.2923 I30.0 J54.5
G0 Z3.0
G0 X32.4329 Y55.8092
G0 Z0.5
G1 F300.0 Z-2.0
G2 F600.0 X32.6 Y56.518 I32.85 J56.085
G2 X33.35 Y56.085 I32.85 J56.085
G2 X32.6 Y55.652 I32.85 J56.085
G2 X32.4329 Y55.8092 I32.85 J56.085
G0 Z3.0
G0 X4.5
G0 Z0.5
G1 F300.0 Z-2.0
G1 F600.0 Y55.0
G2 X4.0 Y54.5 I4.0 J55.0
G2 X3.5 Y55.0 I4.0 J55.0
G1 Y57.0
G2 X3.567 Y57.25 I4.0 J57.0
G2 X4.433 I4.0 J57.0
G2 X4.5 Y57.0 I4.0 J57.0
G1 Y55.8092
G0 Z3.0
G0 X57.8532 Y87.8539
G0 Z0.5
G1 F300.0 Z-2.0
G2 F600.0 X57.8536 Y87.8564 I57.855 J87.855
G3 X58.0 Y88.21 I57.5 J88.21
G1 Y90.29
G3 X57.8536 Y90.6436 I57.5 J90.29
G2 X57.8564 Y90.6464 I57.855 J90.645
G3 X58.21 Y90.5 I58.21 J91.0
G1 X58.29
G3 X58.6436 Y90.6464 I58.29 J91.0
G2 X58.6464 Y90.6436 I58.645 J90.645
G3 X58.5 Y90.29 I59.0 J90.29
G1 Y88.21
G3 X58.6464 Y87.8564 I59.0 J88.21
G2 X58.6436 Y87.8536 I58.645 J87.855
G3 X58.29 Y88.0 I58.29 J87.5
G1 X58.21
G3 X57.8564 Y87.8536 I58.21 J87.5
G2 X57.8532 Y87.8539 I57.855 J87.855
G0 Z3.0
G0 X60.8531 Y88.8544
G0 Z0.5
G1 F300.0 Z-2.0
G2 F600.0 X60.8536 Y88.8564 I60.855 J88.855
G3 X61.0 Y89.21 I60.5 J89.21
G1 Y89.29
G3 X60.8536 Y89.6436 I60.5 J89.29
G2 X60.8564 Y89.6464 I60.855 J89.645
G3 X61.21 Y89.5 I61.21 J90.0
G1 X62.79
G3 X63.1436 Y89.6464 I62.79 J90.0
G2 X63.1464 Y89.6436 I63.145 J89.645
G3 X63.0 Y89.29 I63.5 J89.29
G1 Y89.21
G3 X63.1464 Y88.8564 I63.5 J89.21
G2 X63.1436 Y88.8536 I63.145 J88.855
G3 X62.79 Y89.0 I62.79 J88.5
G1 X61.21
G3 X60.8564 Y88.8536 I61.21 J88.5
G2 X60.8531 Y88.8544 I60.855 J88.855
G0 Z3.0
G0 X79.0 Y26.5
G0 Z0.5
G1 F300.0 Z-2.0
G1 F600.0 X80.5
G1 Y23.0
G3 X80.5115 Y22.8935 I81.0 J23.0
G1 X82.4126 Y14.168
G3 X84.8434 Y8.2904 I100.0 J18.0
G3 X85.0412 Y7.9884 I100.0 J18.0
G2 X85.15 Y7.5 I84.0 J7.5
G2 X83.6372 Y6.4087 I84.0 J7.5
G1 X83.2989 Y6.5813
G1 X79.645 Y8.4454
G3 X79.4178 Y8.5 I79.4178 J8.0
G1 X78.5
G1 Y8.7233
G3 X78.2272 Y9.1687 I78.0 J8.7233
G1 X77.2733 Y9.6553
G2 X74.0 Y15.0 I80.0 J15.0
G1 Y16.0
G2 X74.9459 Y17.3243 I75.4 J16.0
G3 X79.0 Y23.0 I73.0 J23.0
G1 Y26.5
G0 Z3.0
G0 X86.7845 Y5.5792
G0 Z0.5
G1 F300.0 Z-2.0
G2 F600.0 X87.618 Y5.0 I87.0 J5.0
G2 X86.691 Y4.4648 I87.0 J5.0
G2 Y5.5352 I87.0 J5.0
G2 X86.7845 Y5.5792 I87.0 J5.0
G0 Z3.0
G0 X90.7981 Y2.6475
G0 Z0.5
G1 F300.0 Z-2.0
G2 F600.0 X90.875 Y2.7165 I91.0 J2.5
G2 X91.25 Y2.5 I91.0 J2.5
G2 X90.875 Y2.2835 I91.0 J2.5
G2 X90.7981 Y2.6475 I91.0 J2.5
G0 Z3.0
G0 X108.75 Y2.502
G0 Z0.5
G1 F300.0 Z-2.0
G2 F600.0 X108.875 Y2.7165 I109.0 J2.5
G2 X109.25 Y2.5 I109.0 J2.5
G2 X108.875 Y2.2835 I109.0 J2.5
G2 X108.75 Y2.502 I109.0 J2.5
G0 Z3.0
G0 X112.4672 Y4.6868
G0 Z0.5
G1 F300.0 Z-2.0
G2 F600.0 X112.691 Y5.5352 I113.0 J5.0
G2 X113.618 Y5.0 I113.0 J5.0
G2 X112.691 Y4.4648 I113.0 J5.0
G2 X112.4672 Y4.6868 I113.0 J5.0
G0 Z3.0
G0 X115.1004 Y6.7836
G0 Z0.5
G1 F300.0 Z-2.0
G2 F600.0 X114.85 Y7.5 I116.0 J7.5
G2 X114.9588 Y7.9884 I116.0 J7.5
G3 X115.1566 Y8.2904 I100.0 J18.0
G3 X117.5874 Y14.168 I100.0 J18.0
G1 X119.4885 Y22.8935
G3 X119.5 Y23.0 I119.0 J23.0
G1 Y26.5
G1 X121.0
G1 Y23.0
G3 X125.0541 Y17.3243 I127.0 J23.0
G2 X126.0 Y16.0 I124.6 J16.0
G1 Y15.0
G2 X122.7267 Y9.6553 I120.0 J15.0
G1 X121.7728 Y9.1687
G3 X121.5 Y8.7233 I122.0 J8.7233
G1 Y8.5
G1 X120.5822
G3 X120.355 Y8.4454 I120.5822 J8.0
G1 X116.7011 Y6.5813
G1 X116.3628 Y6.4087
G2 X115.1004 Y6.7836 I116.0 J7.5
G0 Z3.0
G0 X144.4352 Y10.4969
G0 Z0.5
G1 F300.0 Z-2.0
G2 F600.0 X144.4475 Y10.5217 I144.46 J10.5
G2 X144.485 Y10.5 I144.46 J10.5
G2 X144.4475 Y10.4783 I144.46 J10.5
G2 X144.4352 Y10.4969 I144.46 J10.5
G0 Z3.0
G0 X146.975 Y10.5
G0 Z0.5
G1 F300.0 Z-2.0
G2 F600.0 X146.9875 Y10.5217 I147.0 J10.5
G2 X147.025 Y10.5 I147.0 J10.5
G2 X146.9875 Y10.4783 I147.0 J10.5
G2 X146.975 Y10.5 I147.0 J10.5
G0 Z3.0
G0 X149.515
G0 Z0.5
G1 F300.0 Z-2.0
G2 F600.0 X149.5275 Y10.5217 I149.54 J10.5
G2 X149.565 Y10.5 I149.54 J10.5
G2 X149.5275 Y10.4783 I149.54 J10.5
G2 X149.515 Y10.5 I149.54 J10.5
G0 Z3.0
G0 X152.2913 Y16.5456
G0 Z0.5
G1 F300.0 Z-2.0
G2 F600.0 X152.0 Y17.0 I152.5 J17.0
G2 X152.0154 Y17.1231 I152.5 J17.0
G1 X153.0 Y21.0
G1 X154.996 Y19.2638
G3 X156.292 Y16.8894 I161.0 J21.0
G2 X156.0 Y16.634 I155.5 J17.5
G2 X155.5 Y16.5 I155.5 J17.5
G1 X152.5
G2 X152.2913 Y16.5456 I152.5 J17.0
G0 Z3.0
G0 X157.272 Y20.805
G0 Z0.5
G1 F300.0 Z-2.0
G2 F600.0 X157.35 Y21.2598 I157.5 J21.0
G2 X157.8 Y21.0 I157.5 J21.0
G2 X157.35 Y20.7402 I157.5 J21.0
G2 X157.272 Y20.805 I157.5 J21.0
G0 Z3.0
G0 X160.0014 Y20.9478
G0 Z0.5
G1 F300.0 Z-2.0
G2 F600.0 X160.5 Y21.866 I161.0 J21.0
G2 X162.0 Y21.0 I161.0 J21.0
G2 X160.5 Y20.134 I161.0 J21.0
G2 X160.0014 Y20.9478 I161.0 J21.0
G0 Z3.0
G0 X160.9306 Y17.0419
G0 Z0.5
G1 F300.0 Z-2.0
G2 F600.0 X161.3 Y16.75 I161.0 J16.75
G2 X160.85 Y16.4902 I161.0 J16.75
G2 Y17.0098 I161.0 J16.75
G2 X160.9306 Y17.0419 I161.0 J16.75
G0 Z3.0
G0 X165.708 Y16.8894
G0 Z0.5
G1 F300.0 Z-2.0
G3 F600.0 X167.004 Y19.2638 I161.0 J21.0
G1 X169.0 Y21.0
G1 X169.9846 Y17.1231
G2 X170.0 Y17.0 I169.5 J17.0
G2 X169.5 Y16.5 I169.5 J17.0
G1 X166.5
G2 X166.0 Y16.634 I166.5 J17.5
G2 X165.708 Y16.8894 I166.5 J17.5
G0 Z3.0
G0 X164.5846 Y20.7122
G0 Z0.5
G1 F300.0 Z-2.0
G2 F600.0 X164.35 Y20.7402 I164.5 J21.0
G2 Y21.2598 I164.5 J21.0
G2 X164.8 Y21.0 I164.5 J21.0
G2 X164.5846 Y20.7122 I164.5 J21.0
G0 Z3.0
G0 X161.186 Y25.0146
G0 Z0.5
G1 F300.0 Z-2.0
G2 F600.0 X160.85 Y24.9902 I161.0 J25.25
G2 Y25.5098 I161.0 J25.25
G2 X161.3 Y25.25 I161.0 J25.25
G2 X161.186 Y25.0146 I161.0 J25.25
G0 Z3.0
G0 Y45.0
G0 Z0.5
G1 F300.0 Z-2.0
G1 F600.0 X157.0
G2 Y47.0 I157.0 J46.0
G1 X165.0
G2 Y45.0 I165.0 J46.0
G1 X161.186
G0 Z3.0
G0 X168.5072 Y45.8806
G0 Z0.5
G1 F300.0 Z-2.0
G2 F600.0 X169.5 Y47.0 I169.5 J46.0
G1 X177.5
G2 Y45.0 I177.5 J46.0
G1 X169.5
G2 X168.5072 Y45.8806 I169.5 J46.0
G0 Z3.0
G0 X153.5 Y45.9925
G0 Z0.5
G1 F300.0 Z-2.0
G2 F600.0 X152.5 Y45.0 I152.5 J46.0
G1 X144.5
G2 Y47.0 I144.5 J46.0
G1 X152.5
G2 X153.5 Y45.9925 I152.5 J46.0
( Contour3 )
G0 Z3.0
G0 X162.0 Y71.0
G0 Z-1.5
G1 F300.0 Z-2.0
G2 F600.0 X160.5 Y70.134 I161.0 J71.0
G2 Y71.866 I161.0 J71.0
G2 X162.0 Y71.0 I161.0 J71.0
G0 Z3.0
G0 X164.2
G0 Z-1.5
G1 F300.0 Z-2.0
G2 F600.0 X164.35 Y71.2598 I164.5 J71.0
G2 X164.8 Y71.0 I164.5 J71.0
G2 X164.35 Y70.7402 I164.5 J71.0
G2 X164.2 Y71.0 I164.5 J71.0
G0 Z3.0
G0 X167.004 Y72.7362
G0 Z-1.5
G1 F300.0 Z-2.0
G3 F600.0 X165.708 Y75.1106 I161.0 J71.0
G2 X166.0 Y75.366 I166.5 J74.5
G2 X166.5 Y75.5 I166.5 J74.5
G1 X169.5
G2 X170.0 Y75.0 I169.5 J75.0
G2 X169.9846 Y74.8769 I169.5 J75.0
G1 X169.0 Y71.0
G1 X167.004 Y72.7362
G0 Z3.0
G0 X161.2767 Y75.1341
G0 Z-1.5
G1 F300.0 Z-2.0
G2 F600.0 X160.85 Y74.9902 I161.0 J75.25
G2 Y75.5098 I161.0 J75.25
G2 X161.3 Y75.25 I161.0 J75.25
G2 X161.2767 Y75.1341 I161.0 J75.25
G0 Z3.0
G0 X156.292 Y75.1106
G0 Z-1.5
G1 F300.0 Z-2.0
G3 F600.0 X154.996 Y72.7362 I161.0 J71.0
G1 X153.0 Y71.0
G1 X152.0154 Y74.8769
G2 X152.0 Y75.0 I152.5 J75.0
G2 X152.5 Y75.5 I152.5 J75.0
G1 X155.5
G2 X156.0 Y75.366 I155.5 J74.5
G2 X156.292 Y75.1106 I155.5 J74.5
G0 Z3.0
G0 X157.4154 Y71.2878
G0 Z-1.5
G1 F300.0 Z-2.0
G2 F600.0 X157.8 Y71.0 I157.5 J71.0
G2 X157.35 Y70.7402 I157.5 J71.0
G2 Y71.2598 I157.5 J71.0
G2 X157.4154 Y71.2878 I157.5 J71.0
G0 Z3.0
G0 X160.814 Y66.9854
G0 Z-1.5
G1 F300.0 Z-2.0
G2 F600.0 X160.85 Y67.0098 I161.0 J66.75
G2 X161.3 Y66.75 I161.0 J66.75
G2 X160.85 Y66.4902 I161.0 J66.75
G2 X160.814 Y66.9854 I161.0 J66.75
G0 Z3.0
G0 X149.5583 Y77.4829
G0 Z-1.5
G1 F300.0 Z-2.0
G2 F600.0 X149.5275 Y77.4783 I149.54 J77.5
G2 Y77.5217 I149.54 J77.5
G2 X149.565 Y77.5 I149.54 J77.5
G2 X149.5583 Y77.4829 I149.54 J77.5
G0 Z3.0
G0 X147.025 Y77.4998
G0 Z-1.5
G1 F300.0 Z-2.0
G2 F600.0 X146.9875 Y77.4783 I147.0 J77.5
G2 Y77.5217 I147.0 J77.5
G2 X147.025 Y77.5 I147.0 J77.5
G1 Y77.4998
G0 Z3.0
G0 X144.485 Y77.5
G0 Z-1.5
G1 F300.0 Z-2.0
G2 F600.0 X144.4475 Y77.4783 I144.46 J77.5
G2 Y77.5217 I144.46 J77.5
G2 X144.485 Y77.5 I144.46 J77.5
G0 Z3.0
G0 X132.9529 Y74.9277
G0 Z-1.5
G1 F300.0 Z-2.0
G2 F600.0 X133.0 Y74.5 I131.0355 J74.5
G1 Y73.0
G2 X132.4142 Y71.5858 I131.0 J73.0
G1 X130.8284 Y70.0
G2 X126.0 Y68.0 I126.0 J74.8284
G3 X121.0 Y63.0 I126.0 J63.0
G1 Y59.5
G1 X119.5
G1 Y63.0
G3 X119.4885 Y63.1065 I119.0 J63.0
G1 X118.1155 Y69.4083
G1 X128.5104 Y79.8033
G1 X132.4246 Y75.8891
G2 X132.9529 Y74.9277 I131.0355 J74.5
G0 Z3.0
G0 X126.5261 Y81.3545
G0 Z-1.5
G1 F300.0 Z-2.0
G1 F600.0 X117.4774 Y72.3058
G3 X114.9123 Y78.0808 I100.0 J68.0
G1 X118.15 Y90.1637
G1 X119.6673 Y88.6464
G3 X120.0208 Y88.5 I120.0208 J89.0
G1 X121.5
G1 Y87.0208
G3 X121.6464 Y86.6673 I122.0 J87.0208
G1 X126.7426 Y81.5711
G1 X126.5261 Y81.3545
G0 Z3.0
G0 X114.0939 Y84.6857
G0 Z-1.5
G1 F300.0 Z-2.0
G1 F600.0 X112.9679 Y80.4833
G3 X109.0 Y83.5885 I100.0 J68.0
G3 X100.0 Y86.0 I100.0 J68.0
G3 X91.0 Y83.5885 I100.0 J68.0
G3 X87.0321 Y80.4833 I100.0 J68.0
G1 X83.8913 Y92.205
G1 X84.3431 Y92.6569
G2 X90.0 Y95.0 I90.0 J87.0
G1 X100.0
G1 X110.0
G2 X115.6569 Y92.6569 I110.0 J87.0
G1 X116.1087 Y92.205
G1 X114.0939 Y84.6857
G0 Z3.0
G0 X110.0019 Y79.8411
G0 Z-1.5
G1 F300.0 Z-2.0
G2 F600.0 X115.1314 Y71.36 I100.0 J68.0
G1 X117.0 Y62.9452
G1 Y49.0
G1 X104.9
G3 X103.0333 Y47.718 I104.9 J47.0
G1 X103.0264 Y47.7
G1 X102.4
G3 X100.4 Y45.7 I102.4 J45.7
G1 Y40.3
G3 X102.4 Y38.3 I102.4 J40.3
G1 X103.0264
G1 X103.0333 Y38.282
G3 X104.9 Y37.0 I104.9 J39.0
G1 X117.0
G1 Y23.0548
G1 X115.1314 Y14.64
G2 X92.25 Y4.5766 I100.0 J18.0
G2 X84.8686 Y14.64 I100.0 J18.0
G1 X83.0 Y23.0548
G1 Y37.0
G1 X95.1
G3 X96.9667 Y38.282 I95.1 J39.0
G1 X96.9736 Y38.3
G1 X97.6
G3 X99.6 Y40.3 I97.6 J40.3
G1 Y45.7
G3 X97.6 Y47.7 I97.6 J45.7
G1 X96.9736
G1 X96.9667 Y47.718
G3 X95.1 Y49.0 I95.1 J47.0
G1 X83.0
G1 Y62.9452
G1 X84.8686 Y71.36
G2 X92.25 Y81.4234 I100.0 J68.0
G2 X110.0019 Y79.8411 I100.0 J68.0
G0 Z3.0
G0 X119.5 Y57.0
G0 Z-1.5
G1 F300.0 Z-2.0
G1 F600.0 X121.0
G1 Y54.5
G3 X121.5 Y54.0 I121.5 J54.5
G1 Y48.0
G3 X121.0 Y47.5 I121.5 J47.5
G1 Y38.5
G3 X121.5 Y38.0 I121.5 J38.5
G1 Y32.0
G3 X121.0 Y31.5 I121.5 J31.5
G1 Y29.0
G1 X119.5
G1 Y31.5
G3 X119.0 Y32.0 I119.0 J31.5
G1 Y38.0
G3 X119.5 Y38.5 I119.0 J38.5
G1 Y47.5
G3 X119.0 Y48.0 I119.0 J47.5
G1 Y54.0
G3 X119.5 Y54.5 I119.0 J54.5
G1 Y57.0
G0 Z3.0
G0 X117.0 Y46.5
G0 Z-1.5
G1 F300.0 Z-2.0
G1 F600.0 Y39.5
G1 X105.2434
G1 X104.8667 Y40.4795
G3 X104.4 Y40.8 I104.4 J40.3
G1 X102.9
G1 Y45.2
G1 X104.4
G3 X104.8667 Y45.5205 I104.4 J45.7
G1 X105.2434 Y46.5
G1 X117.0
G0 Z3.0
G0 X97.1 Y45.2
G0 Z-1.5
G1 F300.0 Z-2.0
G1 F600.0 Y40.8
G1 X95.6
G3 X95.1333 Y40.4795 I95.6 J40.3
G1 X94.7566 Y39.5
G1 X83.0
G1 Y46.5
G1 X94.7566
G1 X95.1333 Y45.5205
G3 X95.6 Y45.2 I95.6 J45.7
G1 X97.1
G0 Z3.0
G0 X81.0 Y48.0
G0 Z-1.5
G1 F300.0 Z-2.0
G3 F600.0 X80.5 Y47.5 I81.0 J47.5
G1 Y38.5
G3 X81.0 Y38.0 I81.0 J38.5
G1 Y32.0
G3 X80.5 Y31.5 I81.0 J31.5
G1 Y29.0
G1 X79.0
G1 Y31.5
G3 X78.5 Y32.0 I78.5 J31.5
G1 Y38.0
G3 X79.0 Y38.5 I78.5 J38.5
G1 Y47.5
G3 X78.5 Y48.0 I78.5 J47.5
G1 Y54.0
G3 X79.0 Y54.5 I78.5 J54.5
G1 Y57.0
G1 X80.5
G1 Y54.5
G3 X81.0 Y54.0 I81.0 J54.5
G1 Y48.0
G0 Z3.0
G0 X80.5 Y59.5
G0 Z-1.5
G1 F300.0 Z-2.0
G1 F600.0 X79.0
G1 Y63.0
G3 X74.0 Y68.0 I74.0 J63.0
G2 X69.1716 Y70.0 I74.0 J74.8284
G1 X67.5858 Y71.5858
G2 X67.0 Y73.0 I69.0 J73.0
G1 Y74.5
G2 X67.5754 Y75.8891 I68.9645 J74.5
G1 X71.4896 Y79.8033
G1 X81.8845 Y69.4083
G1 X80.5115 Y63.1065
G3 X80.5 Y63.0 I81.0 J63.0
G1 Y59.5
G0 Z3.0
G0 X82.5226 Y72.3058
G0 Z-1.5
G1 F300.0 Z-2.0
G1 F600.0 X73.2574 Y81.5711
G1 X78.3536 Y86.6673
G3 X78.5 Y87.0208 I78.0 J87.0208
G1 Y88.5
G1 X79.9792
G3 X80.3327 Y88.6464 I79.9792 J89.0
G1 X81.85 Y90.1637
G1 X85.0877 Y78.0808
G3 X82.5226 Y72.3058 I100.0 J68.0
G0 Z3.0
G0 X63.3935 Y57.3085
G0 Z-1.5
G1 F300.0 Z-2.0
G2 F600.0 X63.433 Y57.25 I63.0 J57.0
G2 X63.5 Y57.0 I63.0 J57.0
G1 Y55.0
G2 X63.0 Y54.5 I63.0 J55.0
G2 X62.5 Y55.0 I63.0 J55.0
G1 Y57.0
G2 X62.567 Y57.25 I63.0 J57.0
G2 X63.3935 Y57.3085 I63.0 J57.0
G0 Z3.0
G0 X58.4267 Y57.9609
G0 Z-1.5
G1 F300.0 Z-2.0
G2 F600.0 X57.7591 Y57.8661 I58.0797 J58.0065
G3 X52.9865 Y60.6216 I53.5 J56.0
G2 X52.9088 Y61.3172 I52.9478 J60.9694
G2 X58.4004 Y58.1467 I53.5 J56.0
G2 X58.4267 Y57.9609 I58.0797 J58.0065
G0 Z3.0
G0 X56.2873 Y57.1094
G0 Z-1.5
G1 F300.0 Z-2.0
G2 F600.0 X56.5 Y56.0 I53.5 J56.0
G2 X52.0 Y53.4019 I53.5 J56.0
G2 Y58.5981 I53.5 J56.0
G2 X56.2873 Y57.1094 I53.5 J56.0
G0 Z3.0
G0 X57.9052 Y54.2969
G0 Z-1.5
G1 F300.0 Z-2.0
G2 F600.0 X58.4004 Y53.8533 I58.0797 J53.9935
G2 X52.9088 Y50.6828 I53.5 J56.0
G2 X52.9865 Y51.3784 I52.9478 J51.0306
G3 X57.7591 Y54.1339 I53.5 J56.0
G2 X57.9052 Y54.2969 I58.0797 J53.9935
G0 Z3.0
G0 X53.2471 Y47.6639
G0 Z-1.5
G1 F300.0 Z-2.0
G2 F600.0 X53.6183 Y47.2628 I52.5 J46.6
G2 X53.4867 Y45.7535 I52.5 J46.6
G1 X53.4797 Y45.7454
G1 X52.8731 Y45.0384
G3 X52.57 Y41.5541 I55.15 J43.085
G3 X52.5717 Y41.5513 I53.0 J41.8092
G2 X52.5995 Y40.3066 I51.4978 J40.9046
G1 X48.7204 Y36.4275
G2 X48.0 Y36.9353 I48.5584 J36.9625
G1 Y37.0
G1 Y49.0
G3 X47.9997 Y49.0177 I47.5 J49.0
G2 Y49.0572 I48.5584 J49.0375
G2 X48.7505 Y49.5624 I48.5584 J49.0375
G3 X51.1045 Y48.3671 I53.5 J56.0
G1 X53.1526 Y47.7243
G2 X53.2471 Y47.6639 I52.5 J46.6
G0 Z3.0
G0 X54.9581 Y43.5467
G0 Z-1.5
G1 F300.0 Z-2.0
G2 F600.0 X55.65 Y43.085 I55.15 J43.085
G2 X54.9 Y42.652 I55.15 J43.085
G2 Y43.518 I55.15 J43.085
G2 X54.9581 Y43.5467 I55.15 J43.085
G0 Z3.0
G0 X55.878 Y39.1299
G0 Z-1.5
G1 F300.0 Z-2.0
G2 F600.0 X56.0373 Y39.1095 I55.9281 J38.8894
G2 X57.0 Y36.7995 I53.3995 J36.6546
G1 Y36.5
G1 Y30.5
G1 Y30.3015
G2 X56.1741 Y28.3812 I54.133 J30.3968
G2 X56.1487 Y28.3558 I54.133 J30.3968
G3 X56.1464 Y28.3536 I56.5 J28.0
G1 X53.6644 Y25.8715
G2 X51.8356 I52.75 J27.0123
G1 X48.3801 Y29.327
G2 X48.0 Y30.5 I50.0 J30.5
G2 X48.3801 Y31.673 I50.0 J30.5
G1 X55.8143 Y39.1072
G2 X55.878 Y39.1299 I55.9281 J38.8894
G0 Z3.0
G0 X57.8547 Y26.647
G0 Z-1.5
G1 F300.0 Z-2.0
G2 F600.0 X57.8564 Y26.6464 I57.855 J26.645
G3 X58.21 Y26.5 I58.21 J27.0
G1 X58.29
G3 X58.6436 Y26.6464 I58.29 J27.0
G2 X58.6464 Y26.6436 I58.645 J26.645
G3 X58.5 Y26.29 I59.0 J26.29
G1 Y24.21
G3 X58.6464 Y23.8564 I59.0 J24.21
G2 X58.6436 Y23.8536 I58.645 J23.855
G3 X58.29 Y24.0 I58.29 J23.5
G1 X58.21
G3 X57.8564 Y23.8536 I58.21 J23.5
G2 X57.8536 Y23.8564 I57.855 J23.855
G3 X58.0 Y24.21 I57.5 J24.21
G1 Y26.29
G3 X57.8536 Y26.6436 I57.5 J26.29
G2 X57.8547 Y26.647 I57.855 J26.645
G0 Z3.0
G0 X60.7997 Y25.5184
G0 Z-1.5
G1 F300.0 Z-2.0
G2 F600.0 X61.5 Y26.0 I61.5 J25.25
G1 X62.5
G2 X62.875 Y25.8995 I62.5 J25.25
G2 Y24.6005 I62.5 J25.25
G2 X62.5 Y24.5 I62.5 J25.25
G1 X61.5
G2 X60.75 Y25.25 I61.5 J25.25
G2 X60.7997 Y25.5184 I61.5 J25.25
G0 Z3.0
G0 X51.2966 Y21.6791
G0 Z-1.5
G1 F300.0 Z-2.0
G2 F600.0 X51.5 Y20.7335 I48.6788 J20.6215
G1 Y20.5
G1 Y13.7071
G1 X51.2929 Y13.5
G1 X48.7071
G1 X48.0 Y14.2071
G1 Y24.0
G1 Y24.0647
G2 X48.7204 Y24.5725 I48.5584 J24.0375
G1 X50.6464 Y22.6464
G3 X50.6508 Y22.6422 I51.0 J23.0
G2 X50.6994 Y22.5935 I48.6788 J20.6215
G2 X51.2966 Y21.6791 I48.6788 J20.6215
G0 Z3.0
G0 X38.75 Y21.5035
G0 Z-1.5
G1 F300.0 Z-2.0
G2 F600.0 X38.7165 Y21.375 I38.5 J21.5
G2 X38.6667 Y21.3137 I38.5 J21.5
G3 X38.5 Y20.941 I39.0 J20.941
G1 Y19.059
G3 X38.6667 Y18.6863 I39.0 J19.059
G2 X38.7165 Y18.375 I38.5 J18.5
G2 X38.5 Y18.25 I38.5 J18.5
G1 X38.0
G2 X37.7835 Y18.375 I38.0 J18.5
G2 X37.8333 Y18.6863 I38.0 J18.5
G3 X38.0 Y19.059 I37.5 J19.059
G1 Y20.941
G3 X37.8333 Y21.3137 I37.5 J20.941
G2 X37.7835 Y21.375 I38.0 J21.5
G2 X38.0 Y21.75 I38.0 J21.5
G1 X38.5
G2 X38.75 Y21.5035 I38.5 J21.5
G0 Z3.0
G0 X35.6152 Y20.2683
G0 Z-1.5
G1 F300.0 Z-2.0
G2 F600.0 X35.65 Y20.085 I35.15 J20.085
G2 X34.9 Y19.652 I35.15 J20.085
G2 Y20.518 I35.15 J20.085
G2 X35.6152 Y20.2683 I35.15 J20.085
G0 Z3.0
G0 X34.4833 Y27.0811
G0 Z-1.5
G1 F300.0 Z-2.0
G2 F600.0 X28.3038 Y30.0 I33.5 J33.0
G2 X27.5 Y33.0 I33.5 J33.0
G2 X28.3038 Y36.0 I33.5 J33.0
G2 X38.6962 I33.5 J33.0
G2 X39.5 Y33.0 I33.5 J33.0
G2 X38.6962 Y30.0 I33.5 J33.0
G2 X34.4833 Y27.0811 I33.5 J33.0
G0 Z3.0
G0 X18.9909 Y24.1417
G0 Z-1.5
G1 F300.0 Z-2.0
G2 F600.0 X19.0 Y24.0647 I18.4416 J24.0375
G1 Y24.0
G1 Y14.2071
G1 X18.2929 Y13.5
G1 X15.7071
G1 X15.5 Y13.7071
G1 Y20.5
G1 Y20.7335
G2 X16.3006 Y22.5935 I18.3212 J20.6215
G2 X16.3492 Y22.6422 I18.3212 J20.6215
G3 X16.3536 Y22.6464 I16.0 J23.0
G1 X18.2796 Y24.5725
G2 X18.9909 Y24.1417 I18.4416 J24.0375
G0 Z3.0
G0 X16.2127 Y26.9198
G0 Z-1.5
G1 F300.0 Z-2.0
G1 F600.0 X15.1644 Y25.8715
G2 X13.3356 I14.25 J27.0123
G1 X10.8536 Y28.3536
G3 X10.8513 Y28.3558 I10.5 J28.0
G2 X10.8259 Y28.3812 I12.867 J30.3968
G2 X10.0 Y30.3015 I12.867 J30.3968
G1 Y30.5
G1 Y36.5
G1 Y36.7995
G2 X10.9627 Y39.1095 I13.6005 J36.6546
G2 X11.1857 Y39.1072 I11.0719 J38.8894
G1 X18.6199 Y31.673
G2 X19.0 Y30.5 I17.0 J30.5
G2 X18.6199 Y29.327 I17.0 J30.5
G1 X16.2127 Y26.9198
G0 Z3.0
G0 X9.147 Y26.6451
G0 Z-1.5
G1 F300.0 Z-2.0
G2 F600.0 X9.1464 Y26.6436 I9.145 J26.645
G3 X9.0 Y26.29 I9.5 J26.29
G1 Y24.21
G3 X9.1464 Y23.8564 I9.5 J24.21
G2 X9.1436 Y23.8536 I9.145 J23.855
G3 X8.79 Y24.0 I8.79 J23.5
G1 X8.71
G3 X8.3564 Y23.8536 I8.71 J23.5
G2 X8.3536 Y23.8564 I8.355 J23.855
G3 X8.5 Y24.21 I8.0 J24.21
G1 Y26.29
G3 X8.3536 Y26.6436 I8.0 J26.29
G2 X8.3564 Y26.6464 I8.355 J26.645
G3 X8.71 Y26.5 I8.71 J27.0
G1 X8.79
G3 X9.1436 Y26.6464 I8.79 J27.0
G2 X9.147 Y26.6451 I9.145 J26.645
G0 Z3.0
G0 X6.2005 Y25.518
G0 Z-1.5
G1 F300.0 Z-2.0
G2 F600.0 X6.25 Y25.25 I5.5 J25.25
G2 X5.5 Y24.5 I5.5 J25.25
G1 X4.5
G2 X4.125 Y24.6005 I4.5 J25.25
G2 Y25.8995 I4.5 J25.25
G2 X4.5 Y26.0 I4.5 J25.25
G1 X5.5
G2 X6.2005 Y25.518 I5.5 J25.25
G0 Z3.0
G0 X17.6948 Y37.0123
G0 Z-1.5
G1 F300.0 Z-2.0
G1 F600.0 X14.4005 Y40.3066
G2 X14.4283 Y41.5513 I15.5022 J40.9046
G3 X14.43 Y41.5541 I14.0 J41.8092
G3 X14.1269 Y45.0384 I11.85 J43.085
G1 X13.5203 Y45.7454
G1 X13.5133 Y45.7535
G2 X13.3817 Y47.2628 I14.5 J46.6
G2 X13.8474 Y47.7243 I14.5 J46.6
G1 X15.8955 Y48.3671
G3 X18.2495 Y49.5624 I13.5 J56.0
G2 X19.0003 Y49.0572 I18.4416 J49.0375
G2 Y49.0177 I18.4416 J49.0375
G3 X19.0 Y49.0 I19.5 J49.0
G1 Y37.0
G1 Y36.9353
G2 X18.2796 Y36.4275 I18.4416 J36.9625
G1 X17.6948 Y37.0123
G0 Z3.0
G0 X12.1967 Y42.7247
G0 Z-1.5
G1 F300.0 Z-2.0
G2 F600.0 X11.6 Y42.652 I11.85 J43.085
G2 Y43.518 I11.85 J43.085
G2 X12.35 Y43.085 I11.85 J43.085
G2 X12.1967 Y42.7247 I11.85 J43.085
G0 Z3.0
G0 X12.9773 Y50.6756
G0 Z-1.5
G1 F300.0 Z-2.0
G2 F600.0 X8.5996 Y53.8533 I13.5 J56.0
G2 X9.2409 Y54.1339 I8.9203 J53.9935
G3 X14.0135 Y51.3784 I13.5 J56.0
G2 X14.0912 Y50.6828 I14.0522 J51.0306
G2 X12.9773 Y50.6756 I13.5 J56.0
G0 Z3.0
G0 X13.2069 Y53.0144
G0 Z-1.5
G1 F300.0 Z-2.0
G2 F600.0 X12.0 Y53.4019 I13.5 J56.0
G2 Y58.5981 I13.5 J56.0
G2 X16.5 Y56.0 I13.5 J56.0
G2 X13.2069 Y53.0144 I13.5 J56.0
G0 Z3.0
G0 X17.1776 Y53.0353
G0 Z-1.5
G1 F300.0 Z-2.0
G2 F600.0 X17.2456 Y53.2445 I17.5276 J53.0371
G3 Y58.7555 I13.5 J56.0
G2 X17.8093 Y59.1706 I17.5276 J58.9629
G2 Y52.8294 I13.5 J56.0
G2 X17.1776 Y53.0353 I17.5276 J53.0371
G0 Z3.0
G0 X14.1804 Y60.6438
G0 Z-1.5
G1 F300.0 Z-2.0
G2 F600.0 X14.0135 Y60.6216 I14.0522 J60.9694
G3 X9.2409 Y57.8661 I13.5 J56.0
G2 X8.5996 Y58.1467 I8.9203 J58.0065
G2 X14.0912 Y61.3172 I13.5 J56.0
G2 X14.1804 Y60.6438 I14.0522 J60.9694
G0 Z3.0
G0 X15.1882 Y63.8549
G0 Z-1.5
G1 F300.0 Z-2.0
G1 F600.0 X13.8474 Y64.2757
G2 X13.3817 Y64.7372 I14.5 J65.4
G2 X13.5133 Y66.2465 I14.5 J65.4
G1 X13.5203 Y66.2546
G1 X14.1269 Y66.9616
G3 X14.43 Y70.4459 I11.85 J68.915
G3 X14.4283 Y70.4487 I14.0 J70.1908
G2 X14.4005 Y71.6934 I15.5022 J71.0954
G1 X18.2796 Y75.5725
G2 X19.0 Y75.0647 I18.4416 J75.0375
G1 Y75.0
G1 Y63.0
G3 X19.0003 Y62.9823 I19.5 J63.0
G2 Y62.9428 I18.4416 J62.9625
G2 X18.2495 Y62.4376 I18.4416 J62.9625
G3 X15.8955 Y63.6329 I13.5 J56.0
G1 X15.1882 Y63.8549
G0 Z3.0
G0 X12.1253 Y68.4977
G0 Z-1.5
G1 F300.0 Z-2.0
G2 F600.0 X11.6 Y68.482 I11.85 J68.915
G2 Y69.348 I11.85 J68.915
G2 X12.35 Y68.915 I11.85 J68.915
G2 X12.1253 Y68.4977 I11.85 J68.915
G0 Z3.0
G0 X11.1266 Y72.8711
G0 Z-1.5
G1 F300.0 Z-2.0
G2 F600.0 X10.9627 Y72.8905 I11.0719 J73.1106
G2 X10.0 Y75.2005 I13.6005 J75.3454
G1 Y75.5
G1 Y83.5
G2 X14.0 Y87.5 I14.0 J83.5
G1 X15.0
G2 X19.0 Y83.5 I15.0 J83.5
G1 Y81.5
G2 X18.6199 Y80.327 I17.0 J81.5
G1 X11.1857 Y72.8928
G2 X11.1266 Y72.8711 I11.0719 J73.1106
G0 Z3.0
G0 X9.1453 Y87.853
G0 Z-1.5
G1 F300.0 Z-2.0
G2 F600.0 X9.1436 Y87.8536 I9.145 J87.855
G3 X8.79 Y88.0 I8.79 J87.5
G1 X8.71
G3 X8.3564 Y87.8536 I8.71 J87.5
G2 X8.3536 Y87.8564 I8.355 J87.855
G3 X8.5 Y88.21 I8.0 J88.21
G1 Y90.29
G3 X8.3536 Y90.6436 I8.0 J90.29
G2 X8.3564 Y90.6464 I8.355 J90.645
G3 X8.71 Y90.5 I8.71 J91.0
G1 X8.79
G3 X9.1436 Y90.6464 I8.79 J91.0
G2 X9.1464 Y90.6436 I9.145 J90.645
G3 X9.0 Y90.29 I9.5 J90.29
G1 Y88.21
G3 X9.1464 Y87.8564 I9.5 J88.21
G2 X9.1453 Y87.853 I9.145 J87.855
G0 Z3.0
G0 X6.1469 Y88.8544
G0 Z-1.5
G1 F300.0 Z-2.0
G2 F600.0 X6.1436 Y88.8536 I6.145 J88.855
G3 X5.79 Y89.0 I5.79 J88.5
G1 X4.21
G3 X3.8564 Y88.8536 I4.21 J88.5
G2 X3.8536 Y88.8564 I3.855 J88.855
G3 X4.0 Y89.21 I3.5 J89.21
G1 Y89.29
G3 X3.8536 Y89.6436 I3.5 J89.29
G2 X3.8564 Y89.6464 I3.855 J89.645
G3 X4.21 Y89.5 I4.21 J90.0
G1 X5.79
G3 X6.1436 Y89.6464 I5.79 J90.0
G2 X6.1464 Y89.6436 I6.145 J89.645
G3 X6.0 Y89.29 I6.5 J89.29
G1 Y89.21
G3 X6.1464 Y88.8564 I6.5 J89.21
G2 X6.1469 Y88.8544 I6.145 J88.855
G0 Z3.0
G0 X29.2563 Y83.5559
G0 Z-1.5
G1 F300.0 Z-2.0
G2 F600.0 X29.2835 Y83.625 I29.5 J83.5
G2 X29.5 Y83.75 I29.5 J83.5
G1 X30.0
G2 X30.2165 Y83.625 I30.0 J83.5
G2 X30.1667 Y83.3137 I30.0 J83.5
G3 X30.0 Y82.941 I30.5 J82.941
G1 Y81.059
G3 X30.1667 Y80.6863 I30.5 J81.059
G2 X30.2165 Y80.625 I30.0 J80.5
G2 X30.0 Y80.25 I30.0 J80.5
G1 X29.5
G2 X29.2835 Y80.625 I29.5 J80.5
G2 X29.3333 Y80.6863 I29.5 J80.5
G3 X29.5 Y81.059 I29.0 J81.059
G1 Y82.941
G3 X29.3333 Y83.3137 I29.0 J82.941
G2 X29.2563 Y83.5559 I29.5 J83.5
G0 Z3.0
G0 X32.3952 Y82.1227
G0 Z-1.5
G1 F300.0 Z-2.0
G2 F600.0 X32.6 Y82.348 I32.85 J81.915
G2 X33.35 Y81.915 I32.85 J81.915
G2 X32.6 Y81.482 I32.85 J81.915
G2 X32.3952 Y82.1227 I32.85 J81.915
G0 Z3.0
G0 X33.5498 Y74.9243
G0 Z-1.5
G1 F300.0 Z-2.0
G2 F600.0 X39.6962 Y72.0 I34.5 J69.0
G2 X40.5 Y69.0 I34.5 J69.0
G2 X39.6962 Y66.0 I34.5 J69.0
G2 X29.3038 I34.5 J69.0
G2 X28.5 Y69.0 I34.5 J69.0
G2 X29.3038 Y72.0 I34.5 J69.0
G2 X33.5498 Y74.9243 I34.5 J69.0
G0 Z3.0
G0 X48.0
G0 Z-1.5
G1 F300.0 Z-2.0
G1 F600.0 Y75.0
G1 Y75.0647
G2 X48.7204 Y75.5725 I48.5584 J75.0375
G1 X52.5995 Y71.6934
G2 X52.5717 Y70.4487 I51.4978 J71.0954
G3 X52.57 Y70.4459 I53.0 J70.1908
G3 X52.8731 Y66.9616 I55.15 J68.915
G1 X53.4797 Y66.2546
G1 X53.4867 Y66.2465
G2 X53.6183 Y64.7372 I52.5 J65.4
G2 X53.1526 Y64.2757 I52.5 J65.4
G1 X51.1045 Y63.6329
G3 X48.7505 Y62.4376 I53.5 J56.0
G2 X47.9997 Y62.9428 I48.5584 J62.9625
G2 Y62.9823 I48.5584 J62.9625
G3 X48.0 Y63.0 I47.5 J63.0
G1 Y74.9243
G0 Z3.0
G0 X50.8914 Y77.8157
G0 Z-1.5
G1 F300.0 Z-2.0
G1 F600.0 X48.3801 Y80.327
G2 X48.0 Y81.5 I50.0 J81.5
G1 Y83.5
G2 X52.0 Y87.5 I52.0 J83.5
G1 X53.0
G2 X57.0 Y83.5 I53.0 J83.5
G1 Y75.5
G1 Y75.2005
G2 X56.0373 Y72.8905 I53.3995 J75.3454
G2 X55.8143 Y72.8928 I55.9281 J73.1106
G1 X50.8914 Y77.8157
G0 Z3.0
G0 X54.9342 Y69.3661
G0 Z-1.5
G1 F300.0 Z-2.0
G2 F600.0 X55.65 Y68.915 I55.15 J68.915
G2 X54.9 Y68.482 I55.15 J68.915
G2 Y69.348 I55.15 J68.915
G2 X54.9342 Y69.3661 I55.15 J68.915
G0 Z3.0
G0 X49.6351 Y59.2728
G0 Z-1.5
G1 F300.0 Z-2.0
G2 F600.0 X49.7544 Y58.7555 I49.4724 J58.9629
G3 Y53.2445 I53.5 J56.0
G2 X49.1907 Y52.8294 I49.4724 J53.0371
G2 Y59.1706 I53.5 J56.0
G2 X49.6351 Y59.2728 I49.4724 J58.9629
G0 Z3.0
G0 X38.6718 Y47.6816
G0 Z-1.5
G1 F300.0 Z-2.0
G2 F600.0 X38.7165 Y47.625 I38.5 J47.5
G2 X38.6667 Y47.3137 I38.5 J47.5
G3 X38.5 Y46.941 I39.0 J46.941
G1 Y45.059
G3 X38.6667 Y44.6863 I39.0 J45.059
G2 X38.7165 Y44.625 I38.5 J44.5
G2 X38.5 Y44.25 I38.5 J44.5
G1 X38.0
G2 X37.7835 Y44.625 I38.0 J44.5
G2 X37.8333 Y44.6863 I38.0 J44.5
G3 X38.0 Y45.059 I37.5 J45.059
G1 Y46.941
G3 X37.8333 Y47.3137 I37.5 J46.941
G2 X37.7835 Y47.625 I38.0 J47.5
G2 X38.0 Y47.75 I38.0 J47.5
G1 X38.5
G2 X38.6718 Y47.6816 I38.5 J47.5
G0 Z3.0
G0 X35.5969 Y46.1392
G0 Z-1.5
G1 F300.0 Z-2.0
G2 F600.0 X35.65 Y45.915 I35.15 J45.915
G2 X34.9 Y45.482 I35.15 J45.915
G2 Y46.348 I35.15 J45.915
G2 X35.5969 Y46.1392 I35.15 J45.915
G0 Z3.0
G0 X30.1391 Y54.2923
G0 Z-1.5
G1 F300.0 Z-2.0
G2 F600.0 X30.0 Y54.25 I30.0 J54.5
G1 X29.5
G2 X29.2835 Y54.375 I29.5 J54.5
G2 X29.3333 Y54.6863 I29.5 J54.5
G3 X29.5 Y55.059 I29.0 J55.059
G1 Y56.941
G3 X29.3333 Y57.3137 I29.0 J56.941
G2 X29.2835 Y57.375 I29.5 J57.5
G2 X29.5 Y57.75 I29.5 J57.5
G1 X30.0
G2 X30.2165 Y57.375 I30.0 J57.5
G2 X30.1667 Y57.3137 I30.0 J57.5
G3 X30.0 Y56.941 I30.5 J56.941
G1 Y55.059
G3 X30.1667 Y54.6863 I30.5 J55.059
G2 X30.2165 Y54.375 I30.0 J54.5
G2 X30.1391 Y54.2923 I30.0 J54.5
G0 Z3.0
G0 X32.4329 Y55.8092
G0 Z-1.5
G1 F300.0 Z-2.0
G2 F600.0 X32.6 Y56.518 I32.85 J56.085
G2 X33.35 Y56.085 I32.85 J56.085
G2 X32.6 Y55.652 I32.85 J56.085
G2 X32.4329 Y55.8092 I32.85 J56.085
G0 Z3.0
G0 X4.5
G0 Z-1.5
G1 F300.0 Z-2.0
G1 F600.0 Y55.0
G2 X4.0 Y54.5 I4.0 J55.0
G2 X3.5 Y55.0 I4.0 J55.0
G1 Y57.0
G2 X3.567 Y57.25 I4.0 J57.0
G2 X4.433 I4.0 J57.0
G2 X4.5 Y57.0 I4.0 J57.0
G1 Y55.8092
G0 Z3.0
G0 X57.8532 Y87.8539
G0 Z-1.5
G1 F300.0 Z-2.0
G2 F600.0 X57.8536 Y87.8564 I57.855 J87.855
G3 X58.0 Y88.21 I57.5 J88.21
G1 Y90.29
G3 X57.8536 Y90.6436 I57.5 J90.29
G2 X57.8564 Y90.6464 I57.855 J90.645
G3 X58.21 Y90.5 I58.21 J91.0
G1 X58.29
G3 X58.6436 Y90.6464 I58.29 J91.0
G2 X58.6464 Y90.6436 I58.645 J90.645
G3 X58.5 Y90.29 I59.0 J90.29
G1 Y88.21
G3 X58.6464 Y87.8564 I59.0 J88.21
G2 X58.6436 Y87.8536 I58.645 J87.855
G3 X58.29 Y88.0 I58.29 J87.5
G1 X58.21
G3 X57.8564 Y87.8536 I58.21 J87.5
G2 X57.8532 Y87.8539 I57.855 J87.855
G0 Z3.0
G0 X60.8531 Y88.8544
G0 Z-1.5
G1 F300.0 Z-2.0
G2 F600.0 X60.8536 Y88.8564 I60.855 J88.855
G3 X61.0 Y89.21 I60.5 J89.21
G1 Y89.29
G3 X60.8536 Y89.6436 I60.5 J89.29
G2 X60.8564 Y89.6464 I60.855 J89.645
G3 X61.21 Y89.5 I61.21 J90.0
G1 X62.79
G3 X63.1436 Y89.6464 I62.79 J90.0
G2 X63.1464 Y89.6436 I63.145 J89.645
G3 X63.0 Y89.29 I63.5 J89.29
G1 Y89.21
G3 X63.1464 Y88.8564 I63.5 J89.21
G2 X63.1436 Y88.8536 I63.145 J88.855
G3 X62.79 Y89.0 I62.79 J88.5
G1 X61.21
G3 X60.8564 Y88.8536 I61.21 J88.5
G2 X60.8531 Y88.8544 I60.855 J88.855
G0 Z3.0
G0 X79.0 Y26.5
G0 Z-1.5
G1 F300.0 Z-2.0
G1 F600.0 X80.5
G1 Y23.0
G3 X80.5115 Y22.8935 I81.0 J23.0
G1 X82.4126 Y14.168
G3 X84.8434 Y8.2904 I100.0 J18.0
G3 X85.0412 Y7.9884 I100.0 J18.0
G2 X85.15 Y7.5 I84.0 J7.5
G2 X83.6372 Y6.4087 I84.0 J7.5
G1 X83.2989 Y6.5813
G1 X79.645 Y8.4454
G3 X79.4178 Y8.5 I79.4178 J8.0
G1 X78.5
G1 Y8.7233
G3 X78.2272 Y9.1687 I78.0 J8.7233
G1 X77.2733 Y9.6553
G2 X74.0 Y15.0 I80.0 J15.0
G1 Y16.0
G2 X74.9459 Y17.3243 I75.4 J16.0
G3 X79.0 Y23.0 I73.0 J23.0
G1 Y26.5
G0 Z3.0
G0 X86.7845 Y5.5792
G0 Z-1.5
G1 F300.0 Z-2.0
G2 F600.0 X87.618 Y5.0 I87.0 J5.0
G2 X86.691 Y4.4648 I87.0 J5.0
G2 Y5.5352 I87.0 J5.0
G2 X86.7845 Y5.5792 I87.0 J5.0
G0 Z3.0
G0 X90.7981 Y2.6475
G0 Z-1.5
G1 F300.0 Z-2.0
G2 F600.0 X90.875 Y2.7165 I91.0 J2.5
G2 X91.25 Y2.5 I91.0 J2.5
G2 X90.875 Y2.2835 I91.0 J2.5
G2 X90.7981 Y2.6475 I91.0 J2.5
G0 Z3.0
G0 X108.75 Y2.502
G0 Z-1.5
G1 F300.0 Z-2.0
G2 F600.0 X108.875 Y2.7165 I109.0 J2.5
G2 X109.25 Y2.5 I109.0 J2.5
G2 X108.875 Y2.2835 I109.0 J2.5
G2 X108.75 Y2.502 I109.0 J2.5
G0 Z3.0
G0 X112.4672 Y4.6868
G0 Z-1.5
G1 F300.0 Z-2.0
G2 F600.0 X112.691 Y5.5352 I113.0 J5.0
G2 X113.618 Y5.0 I113.0 J5.0
G2 X112.691 Y4.4648 I113.0 J5.0
G2 X112.4672 Y4.6868 I113.0 J5.0
G0 Z3.0
G0 X115.1004 Y6.7836
G0 Z-1.5
G1 F300.0 Z-2.0
G2 F600.0 X114.85 Y7.5 I116.0 J7.5
G2 X114.9588 Y7.9884 I116.0 J7.5
G3 X115.1566 Y8.2904 I100.0 J18.0
G3 X117.5874 Y14.168 I100.0 J18.0
G1 X119.4885 Y22.8935
G3 X119.5 Y23.0 I119.0 J23.0
G1 Y26.5
G1 X121.0
G1 Y23.0
G3 X125.0541 Y17.3243 I127.0 J23.0
G2 X126.0 Y16.0 I124.6 J16.0
G1 Y15.0
G2 X122.7267 Y9.6553 I120.0 J15.0
G1 X121.7728 Y9.1687
G3 X121.5 Y8.7233 I122.0 J8.7233
G1 Y8.5
G1 X120.5822
G3 X120.355 Y8.4454 I120.5822 J8.0
G1 X116.7011 Y6.5813
G1 X116.3628 Y6.4087
G2 X115.1004 Y6.7836 I116.0 J7.5
G0 Z3.0
G0 X144.4352 Y10.4969
G0 Z-1.5
G1 F300.0 Z-2.0
G2 F600.0 X144.4475 Y10.5217 I144.46 J10.5
G2 X144.485 Y10.5 I144.46 J10.5
G2 X144.4475 Y10.4783 I144.46 J10.5
G2 X144.4352 Y10.4969 I144.46 J10.5
G0 Z3.0
G0 X146.975 Y10.5
G0 Z-1.5
G1 F300.0 Z-2.0
G2 F600.0 X146.9875 Y10.5217 I147.0 J10.5
G2 X147.025 Y10.5 I147.0 J10.5
G2 X146.9875 Y10.4783 I147.0 J10.5
G2 X146.975 Y10.5 I147.0 J10.5
G0 Z3.0
G0 X149.515
G0 Z-1.5
G1 F300.0 Z-2.0
G2 F600.0 X149.5275 Y10.5217 I149.54 J10.5
G2 X149.565 Y10.5 I149.54 J10.5
G2 X149.5275 Y10.4783 I149.54 J10.5
G2 X149.515 Y10.5 I149.54 J10.5
G0 Z3.0
G0 X152.2913 Y16.5456
G0 Z-1.5
G1 F300.0 Z-2.0
G2 F600.0 X152.0 Y17.0 I152.5 J17.0
G2 X152.0154 Y17.1231 I152.5 J17.0
G1 X153.0 Y21.0
G1 X154.996 Y19.2638
G3 X156.292 Y16.8894 I161.0 J21.0
G2 X156.0 Y16.634 I155.5 J17.5
G2 X155.5 Y16.5 I155.5 J17.5
G1 X152.5
G2 X152.2913 Y16.5456 I152.5 J17.0
G0 Z3.0
G0 X157.272 Y20.805
G0 Z-1.5
G1 F300.0 Z-2.0
G2 F600.0 X157.35 Y21.2598 I157.5 J21.0
G2 X157.8 Y21.0 I157.5 J21.0
G2 X157.35 Y20.7402 I157.5 J21.0
G2 X157.272 Y20.805 I157.5 J21.0
G0 Z3.0
G0 X160.0014 Y20.9478
G0 Z-1.5
G1 F300.0 Z-2.0
G2 F600.0 X160.5 Y21.866 I161.0 J21.0
G2 X162.0 Y21.0 I161.0 J21.0
G2 X160.5 Y20.134 I161.0 J21.0
G2 X160.0014 Y20.9478 I161.0 J21.0
G0 Z3.0
G0 X160.9306 Y17.0419
G0 Z-1.5
G1 F300.0 Z-2.0
G2 F600.0 X161.3 Y16.75 I161.0 J16.75
G2 X160.85 Y16.4902 I161.0 J16.75
G2 Y17.0098 I161.0 J16.75
G2 X160.9306 Y17.0419 I161.0 J16.75
G0 Z3.0
G0 X165.708 Y16.8894
G0 Z-1.5
G1 F300.0 Z-2.0
G3 F600.0 X167.004 Y19.2638 I161.0 J21.0
G1 X169.0 Y21.0
G1 X169.9846 Y17.1231
G2 X170.0 Y17.0 I169.5 J17.0
G2 X169.5 Y16.5 I169.5 J17.0
G1 X166.5
G2 X166.0 Y16.634 I166.5 J17.5
G2 X165.708 Y16.8894 I166.5 J17.5
G0 Z3.0
G0 X164.5846 Y20.7122
G0 Z-1.5
G1 F300.0 Z-2.0
G2 F600.0 X164.35 Y20.7402 I164.5 J21.0
G2 Y21.2598 I164.5 J21.0
G2 X164.8 Y21.0 I164.5 J21.0
G2 X164.5846 Y20.7122 I164.5 J21.0
G0 Z3.0
G0 X161.186 Y25.0146
G0 Z-1.5
G1 F300.0 Z-2.0
G2 F600.0 X160.85 Y24.9902 I161.0 J25.25
G2 Y25.5098 I161.0 J25.25
G2 X161.3 Y25.25 I161.0 J25.25
G2 X161.186 Y25.0146 I161.0 J25.25
G0 Z3.0
G0 Y45.0
G0 Z-1.5
G1 F300.0 Z-2.0
G1 F600.0 X157.0
G2 Y47.0 I157.0 J46.0
G1 X165.0
G2 Y45.0 I165.0 J46.0
G1 X161.186
G0 Z3.0
G0 X168.5072 Y45.8806
G0 Z-1.5
G1 F300.0 Z-2.0
G2 F600.0 X169.5 Y47.0 I169.5 J46.0
G1 X177.5
G2 Y45.0 I177.5 J46.0
G1 X169.5
G2 X168.5072 Y45.8806 I169.5 J46.0
G0 Z3.0
G0 X153.5 Y45.9925
G0 Z-1.5
G1 F300.0 Z-2.0
G2 F600.0 X152.5 Y45.0 I152.5 J46.0
G1 X144.5
G2 Y47.0 I144.5 J46.0
G1 X152.5
G2 X153.5 Y45.9925 I152.5 J46.0
( Contour2 )
G0 Z3.0
G0 X1.3 Y55.5
G0 Z0.5
G1 F300.0 Z-2.0
G1 F600.0 Y55.0
G1 Y54.5
G2 X0.8 Y54.0 I0.8 J54.5
G1 X0.5
G2 X-0.5 Y55.0 I0.5 J55.0
G1 Y57.0
G2 X0.5 Y58.0 I0.5 J57.0
G1 X1.29
G2 X1.6436 Y57.8536 I1.29 J57.5
G3 X1.6464 Y57.8564 I1.645 J57.855
G2 X1.5 Y58.21 I2.0 J58.21
G1 Y59.0
G2 X2.0 Y59.5 I2.0 J59.0
G1 X5.2084
G2 X5.7058 Y60.5 I13.5 J56.0
G2 X7.5 Y62.7082 I13.5 J56.0
G1 Y67.0
G2 X8.0 Y67.5 I8.0 J67.0
G1 X8.79
G2 X9.1436 Y67.3536 I8.79 J67.0
G3 X9.1464 Y67.3564 I9.145 J67.355
G2 X9.0 Y67.71 I9.5 J67.71
G1 Y70.29
G2 X9.1464 Y70.6436 I9.5 J70.29
G3 X9.1436 Y70.6464 I9.145 J70.645
G2 X8.79 Y70.5 I8.79 J71.0
G1 X8.0
G2 X7.5 Y71.0 I8.0 J71.0
G1 Y85.79
G2 X7.6464 Y86.1436 I8.0 J85.79
G3 X7.6436 Y86.1464 I7.645 J86.145
G2 X7.29 Y86.0 I7.29 J86.5
G1 X0.5
G2 X-0.5 Y87.0 I0.5 J87.0
G1 Y89.0
G2 X0.5 Y90.0 I0.5 J89.0
G1 X0.8
G2 X1.3 Y89.5 I0.8 J89.5
G2 X1.8 Y90.0 I1.8 J89.5
G1 X2.0
G2 X1.5 Y90.5 I2.0 J90.5
G1 Y92.0
G2 X2.0 Y92.5 I2.0 J92.0
G1 X7.5
G1 X10.0
G2 X10.3536 Y92.3536 I10.0 J92.0
G1 X12.2071 Y90.5
G1 X17.7929
G1 X19.6464 Y92.3536
G2 X20.0 Y92.5 I20.0 J92.0
G1 X21.0
G2 X21.5 Y92.0 I21.0 J92.0
G1 Y90.5
G2 X21.0 Y90.0 I21.0 J90.5
G1 X21.2
G2 X21.7 Y89.5 I21.2 J89.5
G2 X22.2 Y90.0 I22.2 J89.5
G1 X22.5
G2 X23.5 Y89.0 I22.5 J89.0
G1 Y87.0
G2 X22.5 Y86.0 I22.5 J87.0
G1 X21.71
G2 X21.3564 Y86.1464 I21.71 J86.5
G3 X21.3536 Y86.1436 I21.355 J86.145
G2 X21.5 Y85.79 I21.0 J85.79
G1 Y66.21
G2 X21.3536 Y65.8564 I21.0 J66.21
G3 X21.3564 Y65.8536 I21.355 J65.855
G2 X21.71 Y66.0 I21.71 J65.5
G1 X22.5
G2 X23.5 Y65.0 I22.5 J65.0
G1 Y63.0
G2 X22.5 Y62.0 I22.5 J63.0
G1 X22.2
G2 X21.7 Y62.5 I22.2 J62.5
G1 Y63.5
G1 Y62.5
G2 X21.2 Y62.0 I21.2 J62.5
G1 X21.0
G2 X21.5 Y61.5 I21.0 J61.5
G1 Y56.0
G1 Y50.5
G2 X21.0 Y50.0 I21.0 J50.5
G1 X21.2
G2 X21.7 Y49.5 I21.2 J49.5
G2 X22.2 Y50.0 I22.2 J49.5
G1 X22.5
G2 X23.5 Y49.0 I22.5 J49.0
G1 Y47.0
G2 X22.5 Y46.0 I22.5 J47.0
G1 X21.71
G2 X21.3564 Y46.1464 I21.71 J46.5
G3 X21.3536 Y46.1436 I21.355 J46.145
G2 X21.5 Y45.79 I21.0 J45.79
G1 Y15.71
G2 X21.3536 Y15.3564 I21.0 J15.71
G3 X21.3564 Y15.3536 I21.355 J15.355
G2 X21.71 Y15.5 I21.71 J15.0
G1 X22.5
G2 X23.5 Y14.5 I22.5 J14.5
G1 Y12.5
G2 X22.5 Y11.5 I22.5 J12.5
G1 X22.2
G2 X21.7 Y12.0 I22.2 J12.0
G1 Y13.0
G1 Y12.0
G2 X21.2 Y11.5 I21.2 J12.0
G1 X21.0
G2 X21.5 Y11.0 I21.0 J11.0
G1 Y9.5
G2 X21.0 Y9.0 I21.0 J9.5
G1 X20.0
G2 X19.6464 Y9.1464 I20.0 J9.5
G1 X18.2929 Y10.5
G1 X15.7071
G1 X14.3536 Y9.1464
G2 X14.0 Y9.0 I14.0 J9.5
G1 X13.0
G2 X12.5 Y9.5 I13.0 J9.5
G1 Y21.5
G2 X13.0 Y22.0 I13.0 J21.5
G1 X7.5
G1 X2.0
G2 X1.5 Y22.5 I2.0 J22.5
G1 Y24.0
G2 X2.0 Y24.5 I2.0 J24.0
G1 X1.8
G2 X1.3 Y25.0 I1.8 J25.0
G1 Y26.0
G1 Y25.0
G2 X0.8 Y24.5 I0.8 J25.0
G1 X0.5
G2 X-0.5 Y25.5 I0.5 J25.5
G1 Y27.5
G2 X0.5 Y28.5 I0.5 J27.5
G1 X2.0
G1 X7.29
G2 X7.6436 Y28.3536 I7.29 J28.0
G3 X7.6464 Y28.3564 I7.645 J28.355
G2 X7.5 Y28.71 I8.0 J28.71
G1 Y41.0
G2 X8.0 Y41.5 I8.0 J41.0
G1 X8.79
G2 X9.1436 Y41.3536 I8.79 J41.0
G3 X9.1464 Y41.3564 I9.145 J41.355
G2 X9.0 Y41.71 I9.5 J41.71
G1 Y44.29
G2 X9.1464 Y44.6436 I9.5 J44.29
G3 X9.1436 Y44.6464 I9.145 J44.645
G2 X8.79 Y44.5 I8.79 J45.0
G1 X8.0
G2 X7.5 Y45.0 I8.0 J45.0
G1 Y49.2918
G2 X5.7058 Y51.5 I13.5 J56.0
G2 X5.2084 Y52.5 I13.5 J56.0
G1 X3.5
G1 X2.0
G2 X1.5 Y53.0 I2.0 J53.0
G1 Y54.0
G2 X2.0 Y54.5 I2.0 J54.0
G1 X1.8
G2 X1.3 Y55.0 I1.8 J55.0
G0 Z3.0
G0 X27.0
G0 Z0.5
G1 F300.0 Z-2.0
G1 F600.0 Y54.0
G3 X29.0 Y52.0 I29.0 J54.0
G1 X30.5
G3 X31.2821 Y52.1593 I30.5 J54.0
G1 X34.0231 Y53.3239
G3 X35.1269 Y58.0384 I32.85 J56.085
G1 X34.5133 Y58.7535
G2 X34.3817 Y60.2628 I35.5 J59.6
G2 X34.8474 Y60.7243 I35.5 J59.6
G1 X36.8955 Y61.3671
G3 X41.4282 Y65.0 I34.5 J69.0
G3 X42.5 Y69.0 I34.5 J69.0
G3 X41.4282 Y73.0 I34.5 J69.0
G3 X36.8955 Y76.6329 I34.5 J69.0
G1 X34.8474 Y77.2757
G2 X34.3817 Y77.7372 I35.5 J78.4
G2 X34.5133 Y79.2465 I35.5 J78.4
G1 X35.1269 Y79.9616
G3 X34.0231 Y84.6761 I32.85 J81.915
G1 X31.2821 Y85.8407
G3 X30.5 Y86.0 I30.5 J84.0
G1 X29.0
G3 X27.0 Y84.0 I29.0 J84.0
G1 Y80.0
G3 X27.1736 Y79.1849 I29.0 J80.0
G1 X28.4132 Y76.4076
G2 X28.5 Y76.0 I27.5 J76.0
G1 Y75.7555
G2 X28.4623 Y75.6743 I28.3421 J75.7794
G3 X26.7058 Y73.5 I34.5 J69.0
G3 X25.5 Y69.0 I34.5 J69.0
G3 X26.7058 Y64.5 I34.5 J69.0
G3 X28.4623 Y62.3257 I34.5 J69.0
G2 X28.5 Y62.2445 I28.3421 J62.2206
G1 Y62.0
G2 X28.4132 Y61.5924 I27.5 J62.0
G1 X27.1736 Y58.8151
G3 X27.0 Y58.0 I29.0 J58.0
G1 Y55.0
G0 Z3.0
G0 X33.1467 Y48.1481
G0 Z0.5
G1 F300.0 Z-2.0
G3 F600.0 X32.8731 Y43.9616 I35.15 J45.915
G1 X33.4867 Y43.2465
G2 X33.6183 Y41.7372 I32.5 J42.4
G2 X33.1526 Y41.2757 I32.5 J42.4
G1 X31.1045 Y40.6329
G3 X26.5718 Y37.0 I33.5 J33.0
G3 X25.5 Y33.0 I33.5 J33.0
G3 X26.5718 Y29.0 I33.5 J33.0
G3 X31.1045 Y25.3671 I33.5 J33.0
G1 X33.1526 Y24.7243
G2 X33.6183 Y24.2628 I32.5 J23.6
G2 X33.4867 Y22.7535 I32.5 J23.6
G1 X32.8731 Y22.0384
G3 X33.9769 Y17.3239 I35.15 J20.085
G1 X36.7179 Y16.1593
G3 X37.5 Y16.0 I37.5 J18.0
G1 X39.0
G3 X41.0 Y18.0 I39.0 J18.0
G1 Y22.0
G3 X40.8264 Y22.8151 I39.0 J22.0
G1 X39.5868 Y25.5924
G2 X39.5 Y26.0 I40.5 J26.0
G1 Y26.2445
G2 X39.5377 Y26.3257 I39.6579 J26.2206
G3 X41.2942 Y28.5 I33.5 J33.0
G3 X42.5 Y33.0 I33.5 J33.0
G3 X41.2942 Y37.5 I33.5 J33.0
G3 X39.5377 Y39.6743 I33.5 J33.0
G2 X39.5 Y39.7555 I39.6579 J39.7794
G1 Y40.0
G2 X39.5868 Y40.4076 I40.5 J40.0
G1 X40.8264 Y43.1849
G3 X41.0 Y44.0 I39.0 J44.0
G1 Y48.0
G3 X39.0 Y50.0 I39.0 J48.0
G1 X37.5
G3 X36.7179 Y49.8407 I37.5 J48.0
G1 X33.9769 Y48.6761
G3 X33.1467 Y48.1481 I35.15 J45.915
G0 Z3.0
G0 X45.3 Y49.5
G0 Z0.5
G1 F300.0 Z-2.0
G3 F600.0 X44.8 Y50.0 I44.8 J49.5
G1 X44.5
G3 X43.5 Y49.0 I44.5 J49.0
G1 Y47.0
G3 X44.5 Y46.0 I44.5 J47.0
G1 X45.29
G3 X45.6436 Y46.1464 I45.29 J46.5
G2 X45.6464 Y46.1436 I45.645 J46.145
G3 X45.5 Y45.79 I46.0 J45.79
G1 Y15.71
G3 X45.6464 Y15.3564 I46.0 J15.71
G2 X45.6436 Y15.3536 I45.645 J15.355
G3 X45.29 Y15.5 I45.29 J15.0
G1 X44.5
G3 X43.5 Y14.5 I44.5 J14.5
G1 Y12.5
G3 X44.5 Y11.5 I44.5 J12.5
G1 X44.8
G3 X45.3 Y12.0 I44.8 J12.0
G1 Y13.0
G1 Y12.0
G3 X45.8 Y11.5 I45.8 J12.0
G1 X46.0
G3 X45.5 Y11.0 I46.0 J11.0
G1 Y9.5
G3 X46.0 Y9.0 I46.0 J9.5
G1 X47.0
G3 X47.3536 Y9.1464 I47.0 J9.5
G1 X48.7071 Y10.5
G1 X51.2929
G1 X52.6464 Y9.1464
G3 X53.0 Y9.0 I53.0 J9.5
G1 X54.0
G3 X54.5 Y9.5 I54.0 J9.5
G1 Y21.5
G3 X54.0 Y22.0 I54.0 J21.5
G1 X59.5
G1 X65.0
G3 X65.5 Y22.5 I65.0 J22.5
G1 Y24.0
G3 X65.0 Y24.5 I65.0 J24.0
G1 X65.2
G3 X65.7 Y25.0 I65.2 J25.0
G1 Y26.0
G1 Y25.0
G3 X66.2 Y24.5 I66.2 J25.0
G1 X66.5
G3 X67.5 Y25.5 I66.5 J25.5
G1 Y27.5
G3 X66.5 Y28.5 I66.5 J27.5
G1 X65.0
G1 X59.71
G3 X59.3564 Y28.3536 I59.71 J28.0
G2 X59.3536 Y28.3564 I59.355 J28.355
G3 X59.5 Y28.71 I59.0 J28.71
G1 Y41.0
G3 X59.0 Y41.5 I59.0 J41.0
G1 X58.21
G3 X57.8564 Y41.3536 I58.21 J41.0
G2 X57.8536 Y41.3564 I57.855 J41.355
G3 X58.0 Y41.71 I57.5 J41.71
G1 Y44.29
G3 X57.8536 Y44.6436 I57.5 J44.29
G2 X57.8564 Y44.6464 I57.855 J44.645
G3 X58.21 Y44.5 I58.21 J45.0
G1 X59.0
G3 X59.5 Y45.0 I59.0 J45.0
G1 Y49.2918
G3 X61.2942 Y51.5 I53.5 J56.0
G3 X61.7916 Y52.5 I53.5 J56.0
G1 X63.5
G1 X65.0
G3 X65.5 Y53.0 I65.0 J53.0
G1 Y54.0
G3 X65.0 Y54.5 I65.0 J54.0
G1 X65.2
G3 X65.7 Y55.0 I65.2 J55.0
G1 Y54.5
G3 X66.2 Y54.0 I66.2 J54.5
G1 X66.5
G3 X67.5 Y55.0 I66.5 J55.0
G1 Y57.0
G3 X66.5 Y58.0 I66.5 J57.0
G1 X65.71
G3 X65.3564 Y57.8536 I65.71 J57.5
G2 X65.3536 Y57.8564 I65.355 J57.855
G3 X65.5 Y58.21 I65.0 J58.21
G1 Y59.0
G3 X65.0 Y59.5 I65.0 J59.0
G1 X61.7916
G3 X61.2942 Y60.5 I53.5 J56.0
G3 X59.5 Y62.7082 I53.5 J56.0
G1 Y67.0
G3 X59.0 Y67.5 I59.0 J67.0
G1 X58.21
G3 X57.8564 Y67.3536 I58.21 J67.0
G2 X57.8536 Y67.3564 I57.855 J67.355
G3 X58.0 Y67.71 I57.5 J67.71
G1 Y70.29
G3 X57.8536 Y70.6436 I57.5 J70.29
G2 X57.8564 Y70.6464 I57.855 J70.645
G3 X58.21 Y70.5 I58.21 J71.0
G1 X59.0
G3 X59.5 Y71.0 I59.0 J71.0
G1 Y85.79
G3 X59.3536 Y86.1436 I59.0 J85.79
G2 X59.3564 Y86.1464 I59.355 J86.145
G3 X59.71 Y86.0 I59.71 J86.5
G1 X66.5
G3 X67.5 Y87.0 I66.5 J87.0
G1 Y89.0
G3 X66.5 Y90.0 I66.5 J89.0
G1 X66.2
G3 X65.7 Y89.5 I66.2 J89.5
G3 X65.2 Y90.0 I65.2 J89.5
G1 X65.0
G3 X65.5 Y90.5 I65.0 J90.5
G1 Y92.0
G3 X65.0 Y92.5 I65.0 J92.0
G1 X59.5
G1 X57.0
G3 X56.6464 Y92.3536 I57.0 J92.0
G1 X54.7929 Y90.5
G1 X49.2071
G1 X47.3536 Y92.3536
G3 X47.0 Y92.5 I47.0 J92.0
G1 X46.0
G3 X45.5 Y92.0 I46.0 J92.0
G1 Y90.5
G3 X46.0 Y90.0 I46.0 J90.5
G1 X45.8
G3 X45.3 Y89.5 I45.8 J89.5
G3 X44.8 Y90.0 I44.8 J89.5
G1 X44.5
G3 X43.5 Y89.0 I44.5 J89.0
G1 Y87.0
G3 X44.5 Y86.0 I44.5 J87.0
G1 X45.29
G3 X45.6436 Y86.1464 I45.29 J86.5
G2 X45.6464 Y86.1436 I45.645 J86.145
G3 X45.5 Y85.79 I46.0 J85.79
G1 Y66.21
G3 X45.6464 Y65.8564 I46.0 J66.21
G2 X45.6436 Y65.8536 I45.645 J65.855
G3 X45.29 Y66.0 I45.29 J65.5
G1 X44.5
G3 X43.5 Y65.0 I44.5 J65.0
G1 Y63.0
G3 X44.5 Y62.0 I44.5 J63.0
G1 X44.8
G3 X45.3 Y62.5 I44.8 J62.5
G1 Y63.5
G1 Y62.5
G3 X45.8 Y62.0 I45.8 J62.5
G1 X46.0
G3 X45.5 Y61.5 I46.0 J61.5
G1 Y56.0
G1 Y50.5
G3 X46.0 Y50.0 I46.0 J50.5
G1 X45.8
G3 X45.3 Y49.5 I45.8 J49.5
G1 Y48.5
G0 Z3.0
G0 X66.218 Y69.418
G0 Z0.5
G1 F300.0 Z-2.0
G1 F600.0 X67.4038 Y68.2322
G3 X74.0 Y65.5 I74.0 J74.8284
G2 X76.5 Y63.0 I74.0 J63.0
G1 Y23.0
G2 X74.1351 Y19.6892 I73.0 J23.0
G3 X71.5 Y16.0 I75.4 J16.0
G1 Y15.0
G3 X76.1372 Y7.4284 I80.0 J15.0
G1 X90.5006 Y0.1007
G3 X93.0 Y-0.5 I93.0 J5.0
G1 X107.0
G3 X109.4884 Y0.0951 I107.0 J5.0
G1 X109.4889 Y0.0954
G3 X109.4997 Y0.1009 I106.995 J4.9975
G1 X123.8628 Y7.4284
G3 X128.5 Y15.0 I120.0 J15.0
G1 Y16.0
G3 X125.8649 Y19.6892 I124.6 J16.0
G2 X123.5 Y23.0 I127.0 J23.0
G1 Y63.0
G2 X126.0 Y65.5 I126.0 J63.0
G3 X132.5962 Y68.2322 I126.0 J74.8284
G1 X133.3891 Y69.0252
G1 X134.182 Y69.818
G3 X135.5 Y73.0 I131.0 J73.0
G1 Y74.5
G3 X134.1924 Y77.6569 I131.0355 J74.5
G1 X117.4246 Y94.4246
G3 X113.1373 Y97.0204 I110.0 J87.0
G3 X110.0 Y97.5 I110.0 J87.0
G1 X90.0
G3 X82.5754 Y94.4246 I90.0 J87.0
G1 X65.8076 Y77.6569
G3 X64.5 Y74.5 I68.9645 J74.5
G1 Y73.0
G3 X65.818 Y69.818 I69.0 J73.0
G1 X66.218 Y69.418
G0 Z3.0
G0 X138.0034 Y61.0578
G0 Z0.5
G1 F300.0 Z-2.0
G3 F600.0 X138.0 Y61.0 I138.5 J61.0
G1 Y57.0
G3 X138.5 Y56.5 I138.5 J57.0
G1 X141.5
G2 Y56.0 I141.5 J56.25
G3 X141.0 Y55.5 I141.5 J55.5
G1 Y54.5
G3 X141.1464 Y54.1464 I141.5 J54.5
G1 X141.6464 Y53.6464
G3 X142.0 Y53.5 I142.0 J54.0
G1 X150.75
G3 X151.25 Y54.0 I150.75 J54.0
G1 Y64.5
G1 X151.5
G3 X151.8613 Y64.6544 I151.5 J65.0
G2 X156.2594 Y66.927 I157.3713 J59.3831
G3 X157.875 Y65.5873 I161.0 J71.0
G3 X158.5 Y65.2718 I161.0 J71.0
G1 Y65.0
G3 X159.0 Y64.5 I159.0 J65.0
G1 X163.0
G3 X163.5 Y65.0 I163.0 J65.0
G1 Y65.2718
G3 X164.125 Y65.5873 I161.0 J71.0
G3 X165.7406 Y66.927 I161.0 J71.0
G2 X170.1387 Y64.6544 I164.6287 J59.3831
G3 X170.5 Y64.5 I170.5 J65.0
G1 X170.75
G1 Y54.0
G3 X171.25 Y53.5 I171.25 J54.0
G1 X180.0
G3 X180.3536 Y53.6464 I180.0 J54.0
G1 X180.8536 Y54.1464
G3 X181.0 Y54.5 I180.5 J54.5
G1 Y55.5
G3 X180.5 Y56.0 I180.5 J55.5
G2 Y56.5 I180.5 J56.25
G1 X183.5
G3 X184.0 Y57.0 I183.5 J57.0
G1 Y61.0
G3 X183.5 Y61.5 I183.5 J61.0
G1 X180.5
G2 X180.2701 Y61.6517 I180.5 J61.75
G3 X175.8807 Y70.3241 I160.1075 J56.8937
G3 X175.8253 Y70.3797 I175.5 J70.0
G2 X176.5324 Y72.501 I176.6106 J71.2965
G3 X176.562 Y72.5039 I176.5 J73.0
G1 X180.562 Y73.0039
G3 X181.0 Y73.5 I180.5 J73.5
G1 Y74.0
G3 X180.5 Y74.5 I180.5 J74.0
G1 X182.0
G3 X182.5 Y75.0 I182.0 J75.0
G1 Y78.5
G3 X182.0 Y79.0 I182.0 J78.5
G1 X180.5811
G1 X179.1581 Y79.4743
G3 X179.0 Y79.5 I179.0 J79.0
G1 X175.8333
G1 X164.9023
G3 X164.6833 Y79.4495 I164.9023 J79.0
G2 X157.3167 I161.0 J87.011
G3 X157.0977 Y79.5 I157.0977 J79.0
G1 X146.1667
G1 X143.0
G3 X142.8419 Y79.4743 I143.0 J79.0
G1 X141.4189 Y79.0
G1 X140.0
G3 X139.5 Y78.5 I140.0 J78.5
G1 Y75.0
G3 X140.0 Y74.5 I140.0 J75.0
G1 X141.5
G3 X141.0 Y74.0 I141.5 J74.0
G1 Y73.5
G3 X141.438 Y73.0039 I141.5 J73.5
G1 X145.438 Y72.5039
G3 X145.4676 Y72.501 I145.5 J73.0
G2 X146.1747 Y70.3797 I145.3894 J71.2965
G3 X146.1193 Y70.3241 I146.5 J70.0
G3 X141.7299 Y61.6517 I161.8925 J56.8937
G2 X141.5 Y61.5 I141.5 J61.75
G1 X138.5
G3 X138.0034 Y61.0578 I138.5 J61.0
G0 Z3.0
G0 X141.3607 Y49.4802
G0 Z0.5
G1 F300.0 Z-2.0
G3 F600.0 X141.0 Y49.0 I141.5 J49.0
G1 Y48.5
G3 X141.5 Y48.0 I141.5 J48.5
G1 X140.0
G3 X139.5 Y47.5 I140.0 J47.5
G1 Y44.5
G3 X140.0 Y44.0 I140.0 J44.5
G1 X141.5
G3 X141.0 Y43.5 I141.5 J43.5
G1 Y43.0
G3 X141.5 Y42.5 I141.5 J43.0
G1 X143.5
G3 X143.8536 Y42.6464 I143.5 J43.0
G1 X144.2071 Y43.0
G1 X159.2929
G1 X159.6464 Y42.6464
G3 X160.0 Y42.5 I160.0 J43.0
G1 X161.0
G1 X162.0
G3 X162.3536 Y42.6464 I162.0 J43.0
G1 X162.7071 Y43.0
G1 X177.7929
G1 X178.1464 Y42.6464
G3 X178.5 Y42.5 I178.5 J43.0
G1 X180.5
G3 X181.0 Y43.0 I180.5 J43.0
G1 Y43.5
G3 X180.5 Y44.0 I180.5 J43.5
G1 X182.0
G3 X182.5 Y44.5 I182.0 J44.5
G1 Y47.5
G3 X182.0 Y48.0 I182.0 J47.5
G1 X180.5
G3 X181.0 Y48.5 I180.5 J48.5
G1 Y49.0
G3 X180.5 Y49.5 I180.5 J49.0
G1 X178.5
G3 X178.1464 Y49.3536 I178.5 J49.0
G1 X177.7929 Y49.0
G1 X162.7071
G1 X162.3536 Y49.3536
G3 X162.0 Y49.5 I162.0 J49.0
G1 X161.0
G1 X160.0
G3 X159.6464 Y49.3536 I160.0 J49.0
G1 X159.2929 Y49.0
G1 X144.2071
G1 X143.8536 Y49.3536
G3 X143.5 Y49.5 I143.5 J49.0
G1 X141.5
G3 X141.3607 Y49.4802 I141.5 J49.0
G0 Z3.0
G0 X141.9722 Y38.4992
G0 Z0.5
G1 F300.0 Z-2.0
G3 F600.0 X141.6464 Y38.3536 I142.0 J38.0
G1 X141.1464 Y37.8536
G3 X141.0 Y37.5 I141.5 J37.5
G1 Y36.5
G3 X141.5 Y36.0 I141.5 J36.5
G2 Y35.5 I141.5 J35.75
G1 X138.5
G3 X138.0 Y35.0 I138.5 J35.0
G1 Y31.0
G3 X138.5 Y30.5 I138.5 J31.0
G1 X141.5
G2 X141.7299 Y30.3483 I141.5 J30.25
G3 X146.0971 Y21.702 I161.8925 J35.1063
G2 X144.3834 Y17.4862 I143.7304 J20.2078
G3 X144.3419 Y17.4743 I144.5 J17.0
G1 X141.3419 Y16.4743
G3 X141.0 Y16.0 I141.5 J16.0
G1 Y15.5
G3 X141.5 Y15.0 I141.5 J15.5
G1 X140.0
G3 X139.5 Y14.5 I140.0 J14.5
G1 Y12.0
G1 Y11.0
G3 X140.0 Y10.5 I140.0 J11.0
G1 X141.2589
G1 X142.7009 Y8.6886
G1 X143.1825 Y8.0835
G3 X144.5462 Y7.5021 I144.4022 J9.0545
G3 X144.5707 Y7.505 I144.5 J8.0
G1 X151.5707 Y8.505
G3 X151.8629 Y8.656 I151.5 J9.0
G2 X155.8886 Y11.5 I161.0 J-0.0066
G1 X166.1114
G2 X170.1371 Y8.656 I161.0 J-0.0066
G3 X170.4293 Y8.505 I170.5 J9.0
G1 X177.4293 Y7.505
G3 X177.4538 Y7.5021 I177.5 J8.0
G3 X178.8175 Y8.0835 I177.5978 J9.0545
G1 X179.2991 Y8.6886
G1 X180.7411 Y10.5
G1 X182.0
G3 X182.5 Y11.0 I182.0 J11.0
G1 Y12.0
G1 Y14.5
G3 X182.0 Y15.0 I182.0 J14.5
G1 X180.5
G3 X181.0 Y15.5 I180.5 J15.5
G1 Y16.0
G3 X180.6581 Y16.4743 I180.5 J16.0
G1 X177.6581 Y17.4743
G3 X177.6166 Y17.4862 I177.5 J17.0
G2 X175.9029 Y21.702 I178.2696 J20.2078
G3 X180.2701 Y30.3483 I160.1075 J35.1063
G2 X180.5 Y30.5 I180.5 J30.25
G1 X183.5
G3 X184.0 Y31.0 I183.5 J31.0
G1 Y35.0
G3 X183.5 Y35.5 I183.5 J35.0
G1 X180.5
G2 Y36.0 I180.5 J35.75
G3 X181.0 Y36.5 I180.5 J36.5
G1 Y37.5
G3 X180.8536 Y37.8536 I180.5 J37.5
G1 X180.3536 Y38.3536
G3 X180.0 Y38.5 I180.0 J38.0
G1 X171.25
G3 X170.75 Y38.0 I171.25 J38.0
G1 Y27.5
G1 X170.5
G3 X170.1387 Y27.3456 I170.5 J27.0
G2 X165.7406 Y25.073 I164.6287 J32.6169
G3 X164.125 Y26.4127 I161.0 J21.0
G3 X163.5 Y26.7282 I161.0 J21.0
G1 Y27.0
G3 X163.0 Y27.5 I163.0 J27.0
G1 X159.0
G3 X158.5 Y27.0 I159.0 J27.0
G1 Y26.7282
G3 X157.875 Y26.4127 I161.0 J21.0
G3 X156.2594 Y25.073 I161.0 J21.0
G2 X151.8613 Y27.3456 I157.3713 J32.6169
G3 X151.5 Y27.5 I151.5 J27.0
G1 X151.25
G1 Y38.0
G3 X150.75 Y38.5 I150.75 J38.0
G1 X142.0
G3 X141.9722 Y38.4992 I142.0 J38.0
G0 Z3.0
M5
M30
