( Made using CamBam - http://www.cambam.co.uk )
( entretoisesInternes 12/16/2016 2:32:57 PM )
( T4 : 1.0 )
G21 G90 G64 G40
G0 Z3.0
( T4 : 1.0 )
T4 M6
( Contour1 )
G17
M3
G0 X40.0 Y37.5
G0 Z0.5
G1 F300.0 Z-2.0
G2 F600.0 X35.5 Y34.9019 I37.0 J37.5
G2 Y40.0981 I37.0 J37.5
G2 X40.0 Y37.5 I37.0 J37.5
G0 Z3.0
G0 X41.65
G0 Z0.5
G1 F300.0 Z-2.0
G3 F600.0 X38.8661 Y41.7591 I37.0 J37.5
G2 X39.1467 Y42.4004 I39.0065 J42.0797
G2 X42.3172 Y36.9088 I37.0 J37.5
G2 X41.6216 Y36.9865 I41.9694 J36.9478
G3 X41.65 Y37.5 I37.0 J37.5
G0 Z3.0
G0 X45.0499 Y36.433
G0 Z0.5
G1 F300.0 Z-2.0
G1 F600.0 X45.2757 Y37.1526
G2 X45.7372 Y37.6183 I46.4 J36.5
G2 X47.2465 Y37.4867 I46.4 J36.5
G1 X47.2546 Y37.4797
G1 X47.9616 Y36.8731
G3 X51.4459 Y36.57 I49.915 J39.15
G3 X51.4487 Y36.5717 I51.1908 J37.0
G2 X52.6934 Y36.5995 I52.0954 J35.4978
G1 X56.5725 Y32.7204
G2 X56.0647 Y32.0 I56.0375 J32.5584
G1 X56.0
G1 X44.0
G3 X43.9823 Y31.9997 I44.0 J31.5
G2 X43.9428 I43.9625 J32.5584
G2 X43.4376 Y32.7505 I43.9625 J32.5584
G3 X44.6329 Y35.1045 I37.0 J37.5
G1 X45.0499 Y36.433
G0 Z3.0
G0 X49.4785 Y38.9062
G0 Z0.5
G1 F300.0 Z-2.0
G2 F600.0 X49.665 Y39.583 I49.915 J39.15
G2 X50.415 Y39.15 I49.915 J39.15
G2 X49.665 Y38.717 I49.915 J39.15
G2 X49.4785 Y38.9062 I49.915 J39.15
G0 Z3.0
G0 X53.8707 Y39.8751
G0 Z0.5
G1 F300.0 Z-2.0
G2 F600.0 X53.8905 Y40.0373 I54.1106 J39.9281
G2 X56.2005 Y41.0 I56.3454 J37.3995
G1 X56.5
G1 X62.5
G1 X62.6985
G2 X64.6188 Y40.1741 I62.6032 J38.133
G2 X64.6442 Y40.1487 I62.6032 J38.133
G3 X64.6464 Y40.1464 I65.0 J40.5
G1 X67.1285 Y37.6644
G2 Y35.8356 I65.9877 J36.75
G1 X63.673 Y32.3801
G2 X62.5 Y32.0 I62.5 J34.0
G2 X61.327 Y32.3801 I62.5 J34.0
G1 X53.8928 Y39.8143
G2 X53.8707 Y39.8751 I54.1106 J39.9281
G0 Z3.0
G0 X66.353 Y41.8547
G0 Z0.5
G1 F300.0 Z-2.0
G2 F600.0 X66.3536 Y41.8564 I66.355 J41.855
G3 X66.5 Y42.21 I66.0 J42.21
G1 Y42.29
G3 X66.3536 Y42.6436 I66.0 J42.29
G2 X66.3564 Y42.6464 I66.355 J42.645
G3 X66.71 Y42.5 I66.71 J43.0
G1 X68.79
G3 X69.1436 Y42.6464 I68.79 J43.0
G2 X69.1464 Y42.6436 I69.145 J42.645
G3 X69.0 Y42.29 I69.5 J42.29
G1 Y42.21
G3 X69.1464 Y41.8564 I69.5 J42.21
G2 X69.1436 Y41.8536 I69.145 J41.855
G3 X68.79 Y42.0 I68.79 J41.5
G1 X66.71
G3 X66.3564 Y41.8536 I66.71 J41.5
G2 X66.353 Y41.8547 I66.355 J41.855
G0 Z3.0
G0 X67.4816 Y44.7997
G0 Z0.5
G1 F300.0 Z-2.0
G2 F600.0 X67.0 Y45.5 I67.75 J45.5
G1 Y46.5
G2 X67.1005 Y46.875 I67.75 J46.5
G2 X68.3995 I67.75 J46.5
G2 X68.5 Y46.5 I67.75 J46.5
G1 Y45.5
G2 X67.75 Y44.75 I67.75 J45.5
G2 X67.4816 Y44.7997 I67.75 J45.5
G0 Z3.0
G0 X71.3209 Y35.2966
G0 Z0.5
G1 F300.0 Z-2.0
G2 F600.0 X72.2665 Y35.5 I72.3785 J32.6788
G1 X72.5
G1 X79.2929
G1 X79.5 Y35.2929
G1 Y32.7071
G1 X78.7929 Y32.0
G1 X69.0
G1 X68.9353
G2 X68.4275 Y32.7204 I68.9625 J32.5584
G1 X70.3536 Y34.6464
G3 X70.3578 Y34.6508 I70.0 J35.0
G2 X70.4065 Y34.6994 I72.3785 J32.6788
G2 X71.3209 Y35.2966 I72.3785 J32.6788
G0 Z3.0
G0 Y20.0
G0 Z0.5
G1 F300.0 Z-2.0
G1 F600.0 X78.7929
G1 X79.5 Y19.2929
G1 Y16.7071
G1 X79.2929 Y16.5
G1 X72.5
G1 X72.2665
G2 X70.4065 Y17.3006 I72.3785 J19.3212
G2 X70.3578 Y17.3492 I72.3785 J19.3212
G3 X70.3536 Y17.3536 I70.0 J17.0
G1 X68.4275 Y19.2796
G2 X68.9353 Y20.0 I68.9625 J19.4416
G1 X69.0
G1 X71.3209
G0 Z3.0
G0 X67.1285 Y16.1644
G0 Z0.5
G1 F300.0 Z-2.0
G2 F600.0 Y14.3356 I65.9877 J15.25
G1 X64.6464 Y11.8536
G3 X64.6442 Y11.8513 I65.0 J11.5
G2 X64.6188 Y11.8259 I62.6032 J13.867
G2 X62.6985 Y11.0 I62.6032 J13.867
G1 X62.5
G1 X56.5
G1 X56.2005
G2 X53.8905 Y11.9627 I56.3454 J14.6005
G2 X53.8928 Y12.1857 I54.1106 J12.0719
G1 X61.327 Y19.6199
G2 X62.5 Y20.0 I62.5 J18.0
G2 X63.673 Y19.6199 I62.5 J18.0
G1 X67.1285 Y16.1644
G0 Z3.0
G0 X66.3553 Y10.147
G0 Z0.5
G1 F300.0 Z-2.0
G2 F600.0 X66.3564 Y10.1464 I66.355 J10.145
G3 X66.71 Y10.0 I66.71 J10.5
G1 X68.79
G3 X69.1436 Y10.1464 I68.79 J10.5
G2 X69.1464 Y10.1436 I69.145 J10.145
G3 X69.0 Y9.79 I69.5 J9.79
G1 Y9.71
G3 X69.1464 Y9.3564 I69.5 J9.71
G2 X69.1436 Y9.3536 I69.145 J9.355
G3 X68.79 Y9.5 I68.79 J9.0
G1 X66.71
G3 X66.3564 Y9.3536 I66.71 J9.0
G2 X66.3536 Y9.3564 I66.355 J9.355
G3 X66.5 Y9.71 I66.0 J9.71
G1 Y9.79
G3 X66.3536 Y10.1436 I66.0 J9.79
G2 X66.3553 Y10.147 I66.355 J10.145
G0 Z3.0
G0 X67.4821 Y7.2005
G0 Z0.5
G1 F300.0 Z-2.0
G2 F600.0 X67.75 Y7.25 I67.75 J6.5
G2 X68.5 Y6.5 I67.75 J6.5
G1 Y5.5
G2 X68.3995 Y5.125 I67.75 J5.5
G2 X67.1005 I67.75 J5.5
G2 X67.0 Y5.5 I67.75 J5.5
G1 Y6.5
G2 X67.4821 Y7.2005 I67.75 J6.5
G0 Z3.0
G0 X55.9878 Y18.6949
G0 Z0.5
G1 F300.0 Z-2.0
G1 F600.0 X52.6934 Y15.4005
G2 X51.4487 Y15.4283 I52.0954 J16.5022
G3 X51.4459 Y15.43 I51.1908 J15.0
G3 X47.9616 Y15.1269 I49.915 J12.85
G1 X47.2546 Y14.5203
G1 X47.2465 Y14.5133
G2 X45.7372 Y14.3817 I46.4 J15.5
G2 X45.2757 Y14.8474 I46.4 J15.5
G1 X44.6329 Y16.8955
G3 X43.4376 Y19.2495 I37.0 J14.5
G2 X43.9428 Y20.0003 I43.9625 J19.4416
G2 X43.9823 I43.9625 J19.4416
G3 X44.0 Y20.0 I44.0 J20.5
G1 X56.0
G1 X56.0647
G2 X56.5725 Y19.2796 I56.0375 J19.4416
G1 X55.9878 Y18.6949
G0 Z3.0
G0 X50.2753 Y13.1967
G0 Z0.5
G1 F300.0 Z-2.0
G2 F600.0 X50.415 Y12.85 I49.915 J12.85
G2 X49.665 Y12.417 I49.915 J12.85
G2 Y13.283 I49.915 J12.85
G2 X50.2753 Y13.1967 I49.915 J12.85
G0 Z3.0
G0 X42.3244 Y13.9773
G0 Z0.5
G1 F300.0 Z-2.0
G2 F600.0 X39.1467 Y9.5996 I37.0 J14.5
G2 X38.8661 Y10.2409 I39.0065 J9.9203
G3 X41.6216 Y15.0135 I37.0 J14.5
G2 X42.3172 Y15.0912 I41.9694 J15.0522
G2 X42.3244 Y13.9773 I37.0 J14.5
G0 Z3.0
G0 X39.9856 Y14.2069
G0 Z0.5
G1 F300.0 Z-2.0
G2 F600.0 X35.5 Y11.9019 I37.0 J14.5
G2 Y17.0981 I37.0 J14.5
G2 X40.0 Y14.5 I37.0 J14.5
G2 X39.9856 Y14.2069 I37.0 J14.5
G0 Z3.0
G0 X39.9647 Y18.1776
G0 Z0.5
G1 F300.0 Z-2.0
G2 F600.0 X39.7555 Y18.2456 I39.9629 J18.5276
G3 X34.2445 I37.0 J14.5
G2 X33.8294 Y18.8093 I34.0371 J18.5276
G2 X40.1706 I37.0 J14.5
G2 X39.9647 Y18.1776 I39.9629 J18.5276
G0 Z3.0
G0 X32.3562 Y15.1804
G0 Z0.5
G1 F300.0 Z-2.0
G2 F600.0 X32.3784 Y15.0135 I32.0306 J15.0522
G3 X35.1339 Y10.2409 I37.0 J14.5
G2 X34.8533 Y9.5996 I34.9935 J9.9203
G2 X31.6828 Y15.0912 I37.0 J14.5
G2 X32.3562 Y15.1804 I32.0306 J15.0522
G0 Z3.0
G0 X29.1451 Y16.1882
G0 Z0.5
G1 F300.0 Z-2.0
G1 F600.0 X28.7243 Y14.8474
G2 X28.2628 Y14.3817 I27.6 J15.5
G2 X26.7535 Y14.5133 I27.6 J15.5
G1 X26.7454 Y14.5203
G1 X26.0384 Y15.1269
G3 X22.5541 Y15.43 I24.085 J12.85
G3 X22.5513 Y15.4283 I22.8092 J15.0
G2 X21.3066 Y15.4005 I21.9046 J16.5022
G1 X17.4275 Y19.2796
G2 X17.9353 Y20.0 I17.9625 J19.4416
G1 X18.0
G1 X30.0
G3 X30.0177 Y20.0003 I30.0 J20.5
G2 X30.0572 I30.0375 J19.4416
G2 X30.5624 Y19.2495 I30.0375 J19.4416
G3 X29.3671 Y16.8955 I37.0 J14.5
G1 X29.1451 Y16.1882
G0 Z3.0
G0 X24.5023 Y13.1253
G0 Z0.5
G1 F300.0 Z-2.0
G2 F600.0 X24.585 Y12.85 I24.085 J12.85
G2 X23.835 Y12.417 I24.085 J12.85
G2 Y13.283 I24.085 J12.85
G2 X24.5023 Y13.1253 I24.085 J12.85
G0 Z3.0
G0 X20.1289 Y12.1266
G0 Z0.5
G1 F300.0 Z-2.0
G2 F600.0 X20.1095 Y11.9627 I19.8894 J12.0719
G2 X17.7995 Y11.0 I17.6546 J14.6005
G1 X17.5
G1 X9.5
G2 X5.5 Y15.0 I9.5 J15.0
G1 Y16.0
G2 X9.5 Y20.0 I9.5 J16.0
G1 X11.5
G2 X12.673 Y19.6199 I11.5 J18.0
G1 X20.1072 Y12.1857
G2 X20.1289 Y12.1266 I19.8894 J12.0719
G0 Z3.0
G0 X5.147 Y10.1453
G0 Z0.5
G1 F300.0 Z-2.0
G2 F600.0 X5.1464 Y10.1436 I5.145 J10.145
G3 X5.0 Y9.79 I5.5 J9.79
G1 Y9.71
G3 X5.1464 Y9.3564 I5.5 J9.71
G2 X5.1436 Y9.3536 I5.145 J9.355
G3 X4.79 Y9.5 I4.79 J9.0
G1 X2.71
G3 X2.3564 Y9.3536 I2.71 J9.0
G2 X2.3536 Y9.3564 I2.355 J9.355
G3 X2.5 Y9.71 I2.0 J9.71
G1 Y9.79
G3 X2.3536 Y10.1436 I2.0 J9.79
G2 X2.3564 Y10.1464 I2.355 J10.145
G3 X2.71 Y10.0 I2.71 J10.5
G1 X4.79
G3 X5.1436 Y10.1464 I4.79 J10.5
G2 X5.147 Y10.1453 I5.145 J10.145
G0 Z3.0
G0 X4.1456 Y7.1469
G0 Z0.5
G1 F300.0 Z-2.0
G2 F600.0 X4.1464 Y7.1436 I4.145 J7.145
G3 X4.0 Y6.79 I4.5 J6.79
G1 Y5.21
G3 X4.1464 Y4.8564 I4.5 J5.21
G2 X4.1436 Y4.8536 I4.145 J4.855
G3 X3.79 Y5.0 I3.79 J4.5
G1 X3.71
G3 X3.3564 Y4.8536 I3.71 J4.5
G2 X3.3536 Y4.8564 I3.355 J4.855
G3 X3.5 Y5.21 I3.0 J5.21
G1 Y6.79
G3 X3.3536 Y7.1436 I3.0 J6.79
G2 X3.3564 Y7.1464 I3.355 J7.145
G3 X3.71 Y7.0 I3.71 J7.5
G1 X3.79
G3 X4.1436 Y7.1464 I3.79 J7.5
G2 X4.1456 Y7.1469 I4.145 J7.145
G0 Z3.0
G0 X8.7702 Y32.0671
G0 Z0.5
G1 F300.0 Z-2.0
G2 F600.0 X5.5 Y36.0 I9.5 J36.0
G1 Y37.0
G2 X9.5 Y41.0 I9.5 J37.0
G1 X17.5
G1 X17.7995
G2 X20.1095 Y40.0373 I17.6546 J37.3995
G2 X20.1072 Y39.8143 I19.8894 J39.9281
G1 X12.673 Y32.3801
G2 X11.5 Y32.0 I11.5 J34.0
G1 X9.5
G2 X8.7702 Y32.0671 I9.5 J36.0
G0 Z3.0
G0 X17.4043 Y32.5285
G0 Z0.5
G1 F300.0 Z-2.0
G2 F600.0 X17.4275 Y32.7204 I17.9625 J32.5584
G1 X21.3066 Y36.5995
G2 X22.5513 Y36.5717 I21.9046 J35.4978
G3 X22.5541 Y36.57 I22.8092 J37.0
G3 X26.0384 Y36.8731 I24.085 J39.15
G1 X26.7454 Y37.4797
G1 X26.7535 Y37.4867
G2 X28.2628 Y37.6183 I27.6 J36.5
G2 X28.7243 Y37.1526 I27.6 J36.5
G1 X29.3671 Y35.1045
G3 X30.5624 Y32.7505 I37.0 J37.5
G2 X30.0572 Y31.9997 I30.0375 J32.5584
G2 X30.0177 I30.0375 J32.5584
G3 X30.0 Y32.0 I30.0 J31.5
G1 X18.0
G1 X17.9353
G2 X17.4043 Y32.5285 I17.9625 J32.5584
G0 Z3.0
G0 X23.7299 Y38.798
G0 Z0.5
G1 F300.0 Z-2.0
G2 F600.0 X23.835 Y39.583 I24.085 J39.15
G2 X24.585 Y39.15 I24.085 J39.15
G2 X23.835 Y38.717 I24.085 J39.15
G2 X23.7299 Y38.798 I24.085 J39.15
G0 Z3.0
G0 X31.6754 Y38.0208
G0 Z0.5
G1 F300.0 Z-2.0
G2 F600.0 X34.8533 Y42.4004 I37.0 J37.5
G2 X35.1339 Y41.7591 I34.9935 J42.0797
G3 X32.3784 Y36.9865 I37.0 J37.5
G2 X31.6828 Y36.9088 I32.0306 J36.9478
G2 X31.6754 Y38.0208 I37.0 J37.5
G0 Z3.0
G0 X33.8758 Y33.7831
G0 Z0.5
G1 F300.0 Z-2.0
G2 F600.0 X34.2445 Y33.7544 I34.0371 J33.4724
G3 X39.7555 I37.0 J37.5
G2 X40.1706 Y33.1907 I39.9629 J33.4724
G2 X33.8294 I37.0 J37.5
G2 X33.8758 Y33.7831 I34.0371 J33.4724
G0 Z3.0
G0 X35.9207 Y46.5063
G0 Z0.5
G1 F300.0 Z-2.0
G2 F600.0 X35.75 Y46.567 I36.0 J47.0
G2 Y47.433 I36.0 J47.0
G2 X36.0 Y47.5 I36.0 J47.0
G1 X38.0
G2 X38.5 Y47.0 I38.0 J47.0
G2 X38.0 Y46.5 I38.0 J47.0
G1 X36.0
G2 X35.9207 Y46.5063 I36.0 J47.0
G0 Z3.0
G0 X5.147 Y42.6453
G0 Z0.5
G1 F300.0 Z-2.0
G2 F600.0 X5.1464 Y42.6436 I5.145 J42.645
G3 X5.0 Y42.29 I5.5 J42.29
G1 Y42.21
G3 X5.1464 Y41.8564 I5.5 J42.21
G2 X5.1436 Y41.8536 I5.145 J41.855
G3 X4.79 Y42.0 I4.79 J41.5
G1 X2.71
G3 X2.3564 Y41.8536 I2.71 J41.5
G2 X2.3536 Y41.8564 I2.355 J41.855
G3 X2.5 Y42.21 I2.0 J42.21
G1 Y42.29
G3 X2.3536 Y42.6436 I2.0 J42.29
G2 X2.3564 Y42.6464 I2.355 J42.645
G3 X2.71 Y42.5 I2.71 J43.0
G1 X4.79
G3 X5.1436 Y42.6464 I4.79 J43.0
G2 X5.147 Y42.6453 I5.145 J42.645
G0 Z3.0
G0 X4.1458 Y44.8531
G0 Z0.5
G1 F300.0 Z-2.0
G2 F600.0 X4.1436 Y44.8536 I4.145 J44.855
G3 X3.79 Y45.0 I3.79 J44.5
G1 X3.71
G3 X3.3564 Y44.8536 I3.71 J44.5
G2 X3.3536 Y44.8564 I3.355 J44.855
G3 X3.5 Y45.21 I3.0 J45.21
G1 Y46.79
G3 X3.3536 Y47.1436 I3.0 J46.79
G2 X3.3564 Y47.1464 I3.355 J47.145
G3 X3.71 Y47.0 I3.71 J47.5
G1 X3.79
G3 X4.1436 Y47.1464 I3.79 J47.5
G2 X4.1464 Y47.1436 I4.145 J47.145
G3 X4.0 Y46.79 I4.5 J46.79
G1 Y45.21
G3 X4.1464 Y44.8564 I4.5 J45.21
G2 X4.1458 Y44.8531 I4.145 J44.855
G0 Z3.0
G0 X35.6878 Y5.3906
G0 Z0.5
G1 F300.0 Z-2.0
G2 F600.0 X35.75 Y5.433 I36.0 J5.0
G2 X36.0 Y5.5 I36.0 J5.0
G1 X38.0
G2 X38.5 Y5.0 I38.0 J5.0
G2 X38.0 Y4.5 I38.0 J5.0
G1 X36.0
G2 X35.75 Y4.567 I36.0 J5.0
G2 X35.6878 Y5.3906 I36.0 J5.0
( Contour3 )
G0 Z3.0
G0 X40.0 Y37.5
G0 Z-1.5
G1 F300.0 Z-2.0
G2 F600.0 X35.5 Y34.9019 I37.0 J37.5
G2 Y40.0981 I37.0 J37.5
G2 X40.0 Y37.5 I37.0 J37.5
G0 Z3.0
G0 X41.65
G0 Z-1.5
G1 F300.0 Z-2.0
G3 F600.0 X38.8661 Y41.7591 I37.0 J37.5
G2 X39.1467 Y42.4004 I39.0065 J42.0797
G2 X42.3172 Y36.9088 I37.0 J37.5
G2 X41.6216 Y36.9865 I41.9694 J36.9478
G3 X41.65 Y37.5 I37.0 J37.5
G0 Z3.0
G0 X45.0499 Y36.433
G0 Z-1.5
G1 F300.0 Z-2.0
G1 F600.0 X45.2757 Y37.1526
G2 X45.7372 Y37.6183 I46.4 J36.5
G2 X47.2465 Y37.4867 I46.4 J36.5
G1 X47.2546 Y37.4797
G1 X47.9616 Y36.8731
G3 X51.4459 Y36.57 I49.915 J39.15
G3 X51.4487 Y36.5717 I51.1908 J37.0
G2 X52.6934 Y36.5995 I52.0954 J35.4978
G1 X56.5725 Y32.7204
G2 X56.0647 Y32.0 I56.0375 J32.5584
G1 X56.0
G1 X44.0
G3 X43.9823 Y31.9997 I44.0 J31.5
G2 X43.9428 I43.9625 J32.5584
G2 X43.4376 Y32.7505 I43.9625 J32.5584
G3 X44.6329 Y35.1045 I37.0 J37.5
G1 X45.0499 Y36.433
G0 Z3.0
G0 X49.4785 Y38.9062
G0 Z-1.5
G1 F300.0 Z-2.0
G2 F600.0 X49.665 Y39.583 I49.915 J39.15
G2 X50.415 Y39.15 I49.915 J39.15
G2 X49.665 Y38.717 I49.915 J39.15
G2 X49.4785 Y38.9062 I49.915 J39.15
G0 Z3.0
G0 X53.8707 Y39.8751
G0 Z-1.5
G1 F300.0 Z-2.0
G2 F600.0 X53.8905 Y40.0373 I54.1106 J39.9281
G2 X56.2005 Y41.0 I56.3454 J37.3995
G1 X56.5
G1 X62.5
G1 X62.6985
G2 X64.6188 Y40.1741 I62.6032 J38.133
G2 X64.6442 Y40.1487 I62.6032 J38.133
G3 X64.6464 Y40.1464 I65.0 J40.5
G1 X67.1285 Y37.6644
G2 Y35.8356 I65.9877 J36.75
G1 X63.673 Y32.3801
G2 X62.5 Y32.0 I62.5 J34.0
G2 X61.327 Y32.3801 I62.5 J34.0
G1 X53.8928 Y39.8143
G2 X53.8707 Y39.8751 I54.1106 J39.9281
G0 Z3.0
G0 X66.353 Y41.8547
G0 Z-1.5
G1 F300.0 Z-2.0
G2 F600.0 X66.3536 Y41.8564 I66.355 J41.855
G3 X66.5 Y42.21 I66.0 J42.21
G1 Y42.29
G3 X66.3536 Y42.6436 I66.0 J42.29
G2 X66.3564 Y42.6464 I66.355 J42.645
G3 X66.71 Y42.5 I66.71 J43.0
G1 X68.79
G3 X69.1436 Y42.6464 I68.79 J43.0
G2 X69.1464 Y42.6436 I69.145 J42.645
G3 X69.0 Y42.29 I69.5 J42.29
G1 Y42.21
G3 X69.1464 Y41.8564 I69.5 J42.21
G2 X69.1436 Y41.8536 I69.145 J41.855
G3 X68.79 Y42.0 I68.79 J41.5
G1 X66.71
G3 X66.3564 Y41.8536 I66.71 J41.5
G2 X66.353 Y41.8547 I66.355 J41.855
G0 Z3.0
G0 X67.4816 Y44.7997
G0 Z-1.5
G1 F300.0 Z-2.0
G2 F600.0 X67.0 Y45.5 I67.75 J45.5
G1 Y46.5
G2 X67.1005 Y46.875 I67.75 J46.5
G2 X68.3995 I67.75 J46.5
G2 X68.5 Y46.5 I67.75 J46.5
G1 Y45.5
G2 X67.75 Y44.75 I67.75 J45.5
G2 X67.4816 Y44.7997 I67.75 J45.5
G0 Z3.0
G0 X71.3209 Y35.2966
G0 Z-1.5
G1 F300.0 Z-2.0
G2 F600.0 X72.2665 Y35.5 I72.3785 J32.6788
G1 X72.5
G1 X79.2929
G1 X79.5 Y35.2929
G1 Y32.7071
G1 X78.7929 Y32.0
G1 X69.0
G1 X68.9353
G2 X68.4275 Y32.7204 I68.9625 J32.5584
G1 X70.3536 Y34.6464
G3 X70.3578 Y34.6508 I70.0 J35.0
G2 X70.4065 Y34.6994 I72.3785 J32.6788
G2 X71.3209 Y35.2966 I72.3785 J32.6788
G0 Z3.0
G0 Y20.0
G0 Z-1.5
G1 F300.0 Z-2.0
G1 F600.0 X78.7929
G1 X79.5 Y19.2929
G1 Y16.7071
G1 X79.2929 Y16.5
G1 X72.5
G1 X72.2665
G2 X70.4065 Y17.3006 I72.3785 J19.3212
G2 X70.3578 Y17.3492 I72.3785 J19.3212
G3 X70.3536 Y17.3536 I70.0 J17.0
G1 X68.4275 Y19.2796
G2 X68.9353 Y20.0 I68.9625 J19.4416
G1 X69.0
G1 X71.3209
G0 Z3.0
G0 X67.1285 Y16.1644
G0 Z-1.5
G1 F300.0 Z-2.0
G2 F600.0 Y14.3356 I65.9877 J15.25
G1 X64.6464 Y11.8536
G3 X64.6442 Y11.8513 I65.0 J11.5
G2 X64.6188 Y11.8259 I62.6032 J13.867
G2 X62.6985 Y11.0 I62.6032 J13.867
G1 X62.5
G1 X56.5
G1 X56.2005
G2 X53.8905 Y11.9627 I56.3454 J14.6005
G2 X53.8928 Y12.1857 I54.1106 J12.0719
G1 X61.327 Y19.6199
G2 X62.5 Y20.0 I62.5 J18.0
G2 X63.673 Y19.6199 I62.5 J18.0
G1 X67.1285 Y16.1644
G0 Z3.0
G0 X66.3553 Y10.147
G0 Z-1.5
G1 F300.0 Z-2.0
G2 F600.0 X66.3564 Y10.1464 I66.355 J10.145
G3 X66.71 Y10.0 I66.71 J10.5
G1 X68.79
G3 X69.1436 Y10.1464 I68.79 J10.5
G2 X69.1464 Y10.1436 I69.145 J10.145
G3 X69.0 Y9.79 I69.5 J9.79
G1 Y9.71
G3 X69.1464 Y9.3564 I69.5 J9.71
G2 X69.1436 Y9.3536 I69.145 J9.355
G3 X68.79 Y9.5 I68.79 J9.0
G1 X66.71
G3 X66.3564 Y9.3536 I66.71 J9.0
G2 X66.3536 Y9.3564 I66.355 J9.355
G3 X66.5 Y9.71 I66.0 J9.71
G1 Y9.79
G3 X66.3536 Y10.1436 I66.0 J9.79
G2 X66.3553 Y10.147 I66.355 J10.145
G0 Z3.0
G0 X67.4821 Y7.2005
G0 Z-1.5
G1 F300.0 Z-2.0
G2 F600.0 X67.75 Y7.25 I67.75 J6.5
G2 X68.5 Y6.5 I67.75 J6.5
G1 Y5.5
G2 X68.3995 Y5.125 I67.75 J5.5
G2 X67.1005 I67.75 J5.5
G2 X67.0 Y5.5 I67.75 J5.5
G1 Y6.5
G2 X67.4821 Y7.2005 I67.75 J6.5
G0 Z3.0
G0 X55.9878 Y18.6949
G0 Z-1.5
G1 F300.0 Z-2.0
G1 F600.0 X52.6934 Y15.4005
G2 X51.4487 Y15.4283 I52.0954 J16.5022
G3 X51.4459 Y15.43 I51.1908 J15.0
G3 X47.9616 Y15.1269 I49.915 J12.85
G1 X47.2546 Y14.5203
G1 X47.2465 Y14.5133
G2 X45.7372 Y14.3817 I46.4 J15.5
G2 X45.2757 Y14.8474 I46.4 J15.5
G1 X44.6329 Y16.8955
G3 X43.4376 Y19.2495 I37.0 J14.5
G2 X43.9428 Y20.0003 I43.9625 J19.4416
G2 X43.9823 I43.9625 J19.4416
G3 X44.0 Y20.0 I44.0 J20.5
G1 X56.0
G1 X56.0647
G2 X56.5725 Y19.2796 I56.0375 J19.4416
G1 X55.9878 Y18.6949
G0 Z3.0
G0 X50.2753 Y13.1967
G0 Z-1.5
G1 F300.0 Z-2.0
G2 F600.0 X50.415 Y12.85 I49.915 J12.85
G2 X49.665 Y12.417 I49.915 J12.85
G2 Y13.283 I49.915 J12.85
G2 X50.2753 Y13.1967 I49.915 J12.85
G0 Z3.0
G0 X42.3244 Y13.9773
G0 Z-1.5
G1 F300.0 Z-2.0
G2 F600.0 X39.1467 Y9.5996 I37.0 J14.5
G2 X38.8661 Y10.2409 I39.0065 J9.9203
G3 X41.6216 Y15.0135 I37.0 J14.5
G2 X42.3172 Y15.0912 I41.9694 J15.0522
G2 X42.3244 Y13.9773 I37.0 J14.5
G0 Z3.0
G0 X39.9856 Y14.2069
G0 Z-1.5
G1 F300.0 Z-2.0
G2 F600.0 X35.5 Y11.9019 I37.0 J14.5
G2 Y17.0981 I37.0 J14.5
G2 X40.0 Y14.5 I37.0 J14.5
G2 X39.9856 Y14.2069 I37.0 J14.5
G0 Z3.0
G0 X39.9647 Y18.1776
G0 Z-1.5
G1 F300.0 Z-2.0
G2 F600.0 X39.7555 Y18.2456 I39.9629 J18.5276
G3 X34.2445 I37.0 J14.5
G2 X33.8294 Y18.8093 I34.0371 J18.5276
G2 X40.1706 I37.0 J14.5
G2 X39.9647 Y18.1776 I39.9629 J18.5276
G0 Z3.0
G0 X32.3562 Y15.1804
G0 Z-1.5
G1 F300.0 Z-2.0
G2 F600.0 X32.3784 Y15.0135 I32.0306 J15.0522
G3 X35.1339 Y10.2409 I37.0 J14.5
G2 X34.8533 Y9.5996 I34.9935 J9.9203
G2 X31.6828 Y15.0912 I37.0 J14.5
G2 X32.3562 Y15.1804 I32.0306 J15.0522
G0 Z3.0
G0 X29.1451 Y16.1882
G0 Z-1.5
G1 F300.0 Z-2.0
G1 F600.0 X28.7243 Y14.8474
G2 X28.2628 Y14.3817 I27.6 J15.5
G2 X26.7535 Y14.5133 I27.6 J15.5
G1 X26.7454 Y14.5203
G1 X26.0384 Y15.1269
G3 X22.5541 Y15.43 I24.085 J12.85
G3 X22.5513 Y15.4283 I22.8092 J15.0
G2 X21.3066 Y15.4005 I21.9046 J16.5022
G1 X17.4275 Y19.2796
G2 X17.9353 Y20.0 I17.9625 J19.4416
G1 X18.0
G1 X30.0
G3 X30.0177 Y20.0003 I30.0 J20.5
G2 X30.0572 I30.0375 J19.4416
G2 X30.5624 Y19.2495 I30.0375 J19.4416
G3 X29.3671 Y16.8955 I37.0 J14.5
G1 X29.1451 Y16.1882
G0 Z3.0
G0 X24.5023 Y13.1253
G0 Z-1.5
G1 F300.0 Z-2.0
G2 F600.0 X24.585 Y12.85 I24.085 J12.85
G2 X23.835 Y12.417 I24.085 J12.85
G2 Y13.283 I24.085 J12.85
G2 X24.5023 Y13.1253 I24.085 J12.85
G0 Z3.0
G0 X20.1289 Y12.1266
G0 Z-1.5
G1 F300.0 Z-2.0
G2 F600.0 X20.1095 Y11.9627 I19.8894 J12.0719
G2 X17.7995 Y11.0 I17.6546 J14.6005
G1 X17.5
G1 X9.5
G2 X5.5 Y15.0 I9.5 J15.0
G1 Y16.0
G2 X9.5 Y20.0 I9.5 J16.0
G1 X11.5
G2 X12.673 Y19.6199 I11.5 J18.0
G1 X20.1072 Y12.1857
G2 X20.1289 Y12.1266 I19.8894 J12.0719
G0 Z3.0
G0 X5.147 Y10.1453
G0 Z-1.5
G1 F300.0 Z-2.0
G2 F600.0 X5.1464 Y10.1436 I5.145 J10.145
G3 X5.0 Y9.79 I5.5 J9.79
G1 Y9.71
G3 X5.1464 Y9.3564 I5.5 J9.71
G2 X5.1436 Y9.3536 I5.145 J9.355
G3 X4.79 Y9.5 I4.79 J9.0
G1 X2.71
G3 X2.3564 Y9.3536 I2.71 J9.0
G2 X2.3536 Y9.3564 I2.355 J9.355
G3 X2.5 Y9.71 I2.0 J9.71
G1 Y9.79
G3 X2.3536 Y10.1436 I2.0 J9.79
G2 X2.3564 Y10.1464 I2.355 J10.145
G3 X2.71 Y10.0 I2.71 J10.5
G1 X4.79
G3 X5.1436 Y10.1464 I4.79 J10.5
G2 X5.147 Y10.1453 I5.145 J10.145
G0 Z3.0
G0 X4.1456 Y7.1469
G0 Z-1.5
G1 F300.0 Z-2.0
G2 F600.0 X4.1464 Y7.1436 I4.145 J7.145
G3 X4.0 Y6.79 I4.5 J6.79
G1 Y5.21
G3 X4.1464 Y4.8564 I4.5 J5.21
G2 X4.1436 Y4.8536 I4.145 J4.855
G3 X3.79 Y5.0 I3.79 J4.5
G1 X3.71
G3 X3.3564 Y4.8536 I3.71 J4.5
G2 X3.3536 Y4.8564 I3.355 J4.855
G3 X3.5 Y5.21 I3.0 J5.21
G1 Y6.79
G3 X3.3536 Y7.1436 I3.0 J6.79
G2 X3.3564 Y7.1464 I3.355 J7.145
G3 X3.71 Y7.0 I3.71 J7.5
G1 X3.79
G3 X4.1436 Y7.1464 I3.79 J7.5
G2 X4.1456 Y7.1469 I4.145 J7.145
G0 Z3.0
G0 X8.7702 Y32.0671
G0 Z-1.5
G1 F300.0 Z-2.0
G2 F600.0 X5.5 Y36.0 I9.5 J36.0
G1 Y37.0
G2 X9.5 Y41.0 I9.5 J37.0
G1 X17.5
G1 X17.7995
G2 X20.1095 Y40.0373 I17.6546 J37.3995
G2 X20.1072 Y39.8143 I19.8894 J39.9281
G1 X12.673 Y32.3801
G2 X11.5 Y32.0 I11.5 J34.0
G1 X9.5
G2 X8.7702 Y32.0671 I9.5 J36.0
G0 Z3.0
G0 X17.4043 Y32.5285
G0 Z-1.5
G1 F300.0 Z-2.0
G2 F600.0 X17.4275 Y32.7204 I17.9625 J32.5584
G1 X21.3066 Y36.5995
G2 X22.5513 Y36.5717 I21.9046 J35.4978
G3 X22.5541 Y36.57 I22.8092 J37.0
G3 X26.0384 Y36.8731 I24.085 J39.15
G1 X26.7454 Y37.4797
G1 X26.7535 Y37.4867
G2 X28.2628 Y37.6183 I27.6 J36.5
G2 X28.7243 Y37.1526 I27.6 J36.5
G1 X29.3671 Y35.1045
G3 X30.5624 Y32.7505 I37.0 J37.5
G2 X30.0572 Y31.9997 I30.0375 J32.5584
G2 X30.0177 I30.0375 J32.5584
G3 X30.0 Y32.0 I30.0 J31.5
G1 X18.0
G1 X17.9353
G2 X17.4043 Y32.5285 I17.9625 J32.5584
G0 Z3.0
G0 X23.7299 Y38.798
G0 Z-1.5
G1 F300.0 Z-2.0
G2 F600.0 X23.835 Y39.583 I24.085 J39.15
G2 X24.585 Y39.15 I24.085 J39.15
G2 X23.835 Y38.717 I24.085 J39.15
G2 X23.7299 Y38.798 I24.085 J39.15
G0 Z3.0
G0 X31.6754 Y38.0208
G0 Z-1.5
G1 F300.0 Z-2.0
G2 F600.0 X34.8533 Y42.4004 I37.0 J37.5
G2 X35.1339 Y41.7591 I34.9935 J42.0797
G3 X32.3784 Y36.9865 I37.0 J37.5
G2 X31.6828 Y36.9088 I32.0306 J36.9478
G2 X31.6754 Y38.0208 I37.0 J37.5
G0 Z3.0
G0 X33.8758 Y33.7831
G0 Z-1.5
G1 F300.0 Z-2.0
G2 F600.0 X34.2445 Y33.7544 I34.0371 J33.4724
G3 X39.7555 I37.0 J37.5
G2 X40.1706 Y33.1907 I39.9629 J33.4724
G2 X33.8294 I37.0 J37.5
G2 X33.8758 Y33.7831 I34.0371 J33.4724
G0 Z3.0
G0 X35.9207 Y46.5063
G0 Z-1.5
G1 F300.0 Z-2.0
G2 F600.0 X35.75 Y46.567 I36.0 J47.0
G2 Y47.433 I36.0 J47.0
G2 X36.0 Y47.5 I36.0 J47.0
G1 X38.0
G2 X38.5 Y47.0 I38.0 J47.0
G2 X38.0 Y46.5 I38.0 J47.0
G1 X36.0
G2 X35.9207 Y46.5063 I36.0 J47.0
G0 Z3.0
G0 X5.147 Y42.6453
G0 Z-1.5
G1 F300.0 Z-2.0
G2 F600.0 X5.1464 Y42.6436 I5.145 J42.645
G3 X5.0 Y42.29 I5.5 J42.29
G1 Y42.21
G3 X5.1464 Y41.8564 I5.5 J42.21
G2 X5.1436 Y41.8536 I5.145 J41.855
G3 X4.79 Y42.0 I4.79 J41.5
G1 X2.71
G3 X2.3564 Y41.8536 I2.71 J41.5
G2 X2.3536 Y41.8564 I2.355 J41.855
G3 X2.5 Y42.21 I2.0 J42.21
G1 Y42.29
G3 X2.3536 Y42.6436 I2.0 J42.29
G2 X2.3564 Y42.6464 I2.355 J42.645
G3 X2.71 Y42.5 I2.71 J43.0
G1 X4.79
G3 X5.1436 Y42.6464 I4.79 J43.0
G2 X5.147 Y42.6453 I5.145 J42.645
G0 Z3.0
G0 X4.1458 Y44.8531
G0 Z-1.5
G1 F300.0 Z-2.0
G2 F600.0 X4.1436 Y44.8536 I4.145 J44.855
G3 X3.79 Y45.0 I3.79 J44.5
G1 X3.71
G3 X3.3564 Y44.8536 I3.71 J44.5
G2 X3.3536 Y44.8564 I3.355 J44.855
G3 X3.5 Y45.21 I3.0 J45.21
G1 Y46.79
G3 X3.3536 Y47.1436 I3.0 J46.79
G2 X3.3564 Y47.1464 I3.355 J47.145
G3 X3.71 Y47.0 I3.71 J47.5
G1 X3.79
G3 X4.1436 Y47.1464 I3.79 J47.5
G2 X4.1464 Y47.1436 I4.145 J47.145
G3 X4.0 Y46.79 I4.5 J46.79
G1 Y45.21
G3 X4.1464 Y44.8564 I4.5 J45.21
G2 X4.1458 Y44.8531 I4.145 J44.855
G0 Z3.0
G0 X35.6878 Y5.3906
G0 Z-1.5
G1 F300.0 Z-2.0
G2 F600.0 X35.75 Y5.433 I36.0 J5.0
G2 X36.0 Y5.5 I36.0 J5.0
G1 X38.0
G2 X38.5 Y5.0 I38.0 J5.0
G2 X38.0 Y4.5 I38.0 J5.0
G1 X36.0
G2 X35.75 Y4.567 I36.0 J5.0
G2 X35.6878 Y5.3906 I36.0 J5.0
( Contour2 )
G0 Z3.0
G0 X38.0 Y49.695
G0 Z0.5
G1 F300.0 Z-2.0
G1 F600.0 X37.5
G2 Y49.705 I37.5 J49.7
G1 X38.5
G3 X38.995 Y50.2 I38.5 J50.2
G1 Y50.5
G3 X38.0 Y51.495 I38.0 J50.5
G1 X36.0
G3 X35.005 Y50.5 I36.0 J50.5
G1 Y49.71
G3 X35.15 Y49.36 I35.5 J49.71
G2 X35.14 Y49.35 I35.145 J49.355
G3 X34.79 Y49.495 I34.79 J49.0
G1 X34.0
G3 X33.505 Y49.0 I34.0 J49.0
G1 Y45.7882
G3 X32.5025 Y45.2899 I37.0 J37.5
G3 X30.294 Y43.495 I37.0 J37.5
G1 X26.0
G3 X25.505 Y43.0 I26.0 J43.0
G1 Y42.21
G3 X25.65 Y41.86 I26.0 J42.21
G2 X25.64 Y41.85 I25.645 J41.855
G3 X25.29 Y41.995 I25.29 J41.5
G1 X22.71
G3 X22.36 Y41.85 I22.71 J41.5
G2 X22.35 Y41.86 I22.355 J41.855
G3 X22.495 Y42.21 I22.0 J42.21
G1 Y43.0
G3 X22.0 Y43.495 I22.0 J43.0
G1 X7.21
G3 X6.86 Y43.35 I7.21 J43.0
G2 X6.85 Y43.36 I6.855 J43.355
G3 X6.995 Y43.71 I6.5 J43.71
G1 Y50.5
G3 X6.0 Y51.495 I6.0 J50.5
G1 X4.0
G3 X3.005 Y50.5 I4.0 J50.5
G1 Y50.2
G3 X3.5 Y49.705 I3.5 J50.2
G1 X4.5
G2 Y49.695 I4.5 J49.7
G1 X3.5
G3 X3.005 Y49.2 I3.5 J49.2
G1 Y49.0
G2 X2.995 I3.0 J49.0
G3 X2.5 Y49.495 I2.5 J49.0
G1 X1.0
G3 X0.505 Y49.0 I1.0 J49.0
G1 Y43.5
G1 Y41.0
G3 X0.65 Y40.65 I1.0 J41.0
G1 X2.505 Y38.795
G1 Y33.205
G1 X0.65 Y31.35
G3 X0.505 Y31.0 I1.0 J31.0
G1 Y30.0
G3 X1.0 Y29.505 I1.0 J30.0
G1 X2.5
G3 X2.995 Y30.0 I2.5 J30.0
G2 X3.005 I3.0 J30.0
G1 Y29.8
G3 X3.5 Y29.305 I3.5 J29.8
G1 X4.5
G2 Y29.295 I4.5 J29.3
G1 X3.5
G3 X3.005 Y28.8 I3.5 J28.8
G1 Y28.5
G3 X4.0 Y27.505 I4.0 J28.5
G1 X6.0
G3 X6.995 Y28.5 I6.0 J28.5
G1 Y29.29
G3 X6.85 Y29.64 I6.5 J29.29
G2 X6.86 Y29.65 I6.855 J29.645
G3 X7.21 Y29.505 I7.21 J30.0
G1 X26.79
G3 X27.14 Y29.65 I26.79 J30.0
G2 X27.15 Y29.64 I27.145 J29.645
G3 X27.005 Y29.29 I27.5 J29.29
G1 Y28.5
G3 X28.0 Y27.505 I28.0 J28.5
G1 X30.0
G3 X30.995 Y28.5 I30.0 J28.5
G1 Y28.8
G3 X30.5 Y29.295 I30.5 J28.8
G1 X29.5
G2 Y29.305 I29.5 J29.3
G1 X30.5
G3 X30.995 Y29.8 I30.5 J29.8
G1 Y30.0
G2 X31.005 I31.0 J30.0
G3 X31.5 Y29.505 I31.5 J30.0
G1 X37.0
G1 X42.5
G3 X42.995 Y30.0 I42.5 J30.0
G2 X43.005 I43.0 J30.0
G1 Y29.8
G3 X43.5 Y29.305 I43.5 J29.8
G1 X44.5
G2 Y29.295 I44.5 J29.3
G1 X43.5
G3 X43.005 Y28.8 I43.5 J28.8
G1 Y28.5
G3 X44.0 Y27.505 I44.0 J28.5
G1 X46.0
G3 X46.995 Y28.5 I46.0 J28.5
G1 Y29.29
G3 X46.85 Y29.64 I46.5 J29.29
G2 X46.86 Y29.65 I46.855 J29.645
G3 X47.21 Y29.505 I47.21 J30.0
G1 X77.29
G3 X77.64 Y29.65 I77.29 J30.0
G2 X77.65 Y29.64 I77.645 J29.645
G3 X77.505 Y29.29 I78.0 J29.29
G1 Y28.5
G3 X78.5 Y27.505 I78.5 J28.5
G1 X80.5
G3 X81.495 Y28.5 I80.5 J28.5
G1 Y28.8
G3 X81.0 Y29.295 I81.0 J28.8
G1 X80.0
G2 Y29.305 I80.0 J29.3
G1 X81.0
G3 X81.495 Y29.8 I81.0 J29.8
G1 Y30.0
G2 X81.505 I81.5 J30.0
G3 X82.0 Y29.505 I82.0 J30.0
G1 X83.5
G3 X83.995 Y30.0 I83.5 J30.0
G1 Y31.0
G3 X83.85 Y31.35 I83.5 J31.0
G1 X82.495 Y32.705
G1 Y35.295
G1 X83.85 Y36.65
G3 X83.995 Y37.0 I83.5 J37.0
G1 Y38.0
G3 X83.5 Y38.495 I83.5 J38.0
G1 X71.5
G3 X71.005 Y38.0 I71.5 J38.0
G2 X70.995 I71.0 J38.0
G1 Y43.5
G1 Y49.0
G3 X70.5 Y49.495 I70.5 J49.0
G1 X69.0
G3 X68.505 Y49.0 I69.0 J49.0
G2 X68.495 I68.5 J49.0
G1 Y49.2
G3 X68.0 Y49.695 I68.0 J49.2
G1 X67.0
G2 Y49.705 I67.0 J49.7
G1 X68.0
G3 X68.495 Y50.2 I68.0 J50.2
G1 Y50.5
G3 X67.5 Y51.495 I67.5 J50.5
G1 X65.5
G3 X64.505 Y50.5 I65.5 J50.5
G1 Y49.0
G1 Y43.71
G3 X64.65 Y43.36 I65.0 J43.71
G2 X64.64 Y43.35 I64.645 J43.355
G3 X64.29 Y43.495 I64.29 J43.0
G1 X52.0
G3 X51.505 Y43.0 I52.0 J43.0
G1 Y42.21
G3 X51.65 Y41.86 I52.0 J42.21
G2 X51.64 Y41.85 I51.645 J41.855
G3 X51.29 Y41.995 I51.29 J41.5
G1 X48.71
G3 X48.36 Y41.85 I48.71 J41.5
G2 X48.35 Y41.86 I48.355 J41.855
G3 X48.495 Y42.21 I48.0 J42.21
G1 Y43.0
G3 X48.0 Y43.495 I48.0 J43.0
G1 X43.706
G3 X41.4975 Y45.2899 I37.0 J37.5
G3 X40.495 Y45.7882 I37.0 J37.5
G1 Y47.5
G1 Y49.0
G3 X40.0 Y49.495 I40.0 J49.0
G1 X39.0
G3 X38.505 Y49.0 I39.0 J49.0
G2 X38.495 I38.5 J49.0
G1 Y49.2
G3 X38.0 Y49.695 I38.0 J49.2
G0 Z3.0
G0 X43.7778 Y24.4699
G0 Z0.5
G1 F300.0 Z-2.0
G3 F600.0 X43.005 Y23.5 I44.0 J23.5
G1 Y23.2
G3 X43.5 Y22.705 I43.5 J23.2
G1 X44.5
G2 Y22.695 I44.5 J22.7
G1 X43.5
G3 X43.005 Y22.2 I43.5 J22.2
G1 Y22.0
G2 X42.995 I43.0 J22.0
G3 X42.5 Y22.495 I42.5 J22.0
G1 X37.0
G1 X31.5
G3 X31.005 Y22.0 I31.5 J22.0
G2 X30.995 I31.0 J22.0
G1 Y22.2
G3 X30.5 Y22.695 I30.5 J22.2
G1 X29.5
G2 Y22.705 I29.5 J22.7
G1 X30.5
G3 X30.995 Y23.2 I30.5 J23.2
G1 Y23.5
G3 X30.0 Y24.495 I30.0 J23.5
G1 X28.0
G3 X27.005 Y23.5 I28.0 J23.5
G1 Y22.71
G3 X27.15 Y22.36 I27.5 J22.71
G2 X27.14 Y22.35 I27.145 J22.355
G3 X26.79 Y22.495 I26.79 J22.0
G1 X7.21
G3 X6.86 Y22.35 I7.21 J22.0
G2 X6.85 Y22.36 I6.855 J22.355
G3 X6.995 Y22.71 I6.5 J22.71
G1 Y23.5
G3 X6.0 Y24.495 I6.0 J23.5
G1 X4.0
G3 X3.005 Y23.5 I4.0 J23.5
G1 Y23.2
G3 X3.5 Y22.705 I3.5 J23.2
G1 X4.5
G2 Y22.695 I4.5 J22.7
G1 X3.5
G3 X3.005 Y22.2 I3.5 J22.2
G1 Y22.0
G2 X2.995 I3.0 J22.0
G3 X2.5 Y22.495 I2.5 J22.0
G1 X1.0
G3 X0.505 Y22.0 I1.0 J22.0
G1 Y21.0
G3 X0.65 Y20.65 I1.0 J21.0
G1 X2.505 Y18.795
G1 Y13.205
G1 X0.65 Y11.35
G3 X0.505 Y11.0 I1.0 J11.0
G1 Y8.5
G1 Y3.0
G3 X1.0 Y2.505 I1.0 J3.0
G1 X2.5
G3 X2.995 Y3.0 I2.5 J3.0
G2 X3.005 I3.0 J3.0
G1 Y2.8
G3 X3.5 Y2.305 I3.5 J2.8
G1 X4.5
G2 Y2.295 I4.5 J2.3
G1 X3.5
G3 X3.005 Y1.8 I3.5 J1.8
G1 Y1.5
G3 X4.0 Y0.505 I4.0 J1.5
G1 X6.0
G3 X6.995 Y1.5 I6.0 J1.5
G1 Y8.29
G3 X6.85 Y8.64 I6.5 J8.29
G2 X6.86 Y8.65 I6.855 J8.645
G3 X7.21 Y8.505 I7.21 J9.0
G1 X22.0
G3 X22.495 Y9.0 I22.0 J9.0
G1 Y9.79
G3 X22.35 Y10.14 I22.0 J9.79
G2 X22.36 Y10.15 I22.355 J10.145
G3 X22.71 Y10.005 I22.71 J10.5
G1 X25.29
G3 X25.64 Y10.15 I25.29 J10.5
G2 X25.65 Y10.14 I25.645 J10.145
G3 X25.505 Y9.79 I26.0 J9.79
G1 Y9.0
G3 X26.0 Y8.505 I26.0 J9.0
G1 X30.294
G3 X32.5025 Y6.7101 I37.0 J14.5
G3 X33.505 Y6.2118 I37.0 J14.5
G1 Y3.0
G3 X34.0 Y2.505 I34.0 J3.0
G1 X34.79
G3 X35.14 Y2.65 I34.79 J3.0
G2 X35.15 Y2.64 I35.145 J2.645
G3 X35.005 Y2.29 I35.5 J2.29
G1 Y1.5
G3 X36.0 Y0.505 I36.0 J1.5
G1 X38.0
G3 X38.995 Y1.5 I38.0 J1.5
G1 Y1.8
G3 X38.5 Y2.295 I38.5 J1.8
G1 X37.5
G2 Y2.305 I37.5 J2.3
G1 X38.0
G3 X38.495 Y2.8 I38.0 J2.8
G1 Y3.0
G2 X38.505 I38.5 J3.0
G3 X39.0 Y2.505 I39.0 J3.0
G1 X40.0
G3 X40.495 Y3.0 I40.0 J3.0
G1 Y4.5
G1 Y6.2118
G3 X41.4975 Y6.7101 I37.0 J14.5
G3 X43.706 Y8.505 I37.0 J14.5
G1 X48.0
G3 X48.495 Y9.0 I48.0 J9.0
G1 Y9.79
G3 X48.35 Y10.14 I48.0 J9.79
G2 X48.36 Y10.15 I48.355 J10.145
G3 X48.71 Y10.005 I48.71 J10.5
G1 X51.29
G3 X51.64 Y10.15 I51.29 J10.5
G2 X51.65 Y10.14 I51.645 J10.145
G3 X51.505 Y9.79 I52.0 J9.79
G1 Y9.0
G3 X52.0 Y8.505 I52.0 J9.0
G1 X64.29
G3 X64.64 Y8.65 I64.29 J9.0
G2 X64.65 Y8.64 I64.645 J8.645
G3 X64.505 Y8.29 I65.0 J8.29
G1 Y3.0
G1 Y1.5
G3 X65.5 Y0.505 I65.5 J1.5
G1 X67.5
G3 X68.495 Y1.5 I67.5 J1.5
G1 Y1.8
G3 X68.0 Y2.295 I68.0 J1.8
G1 X67.0
G2 Y2.305 I67.0 J2.3
G1 X68.0
G3 X68.495 Y2.8 I68.0 J2.8
G1 Y3.0
G2 X68.505 I68.5 J3.0
G3 X69.0 Y2.505 I69.0 J3.0
G1 X70.5
G3 X70.995 Y3.0 I70.5 J3.0
G1 Y8.5
G1 Y14.0
G2 X71.005 I71.0 J14.0
G3 X71.5 Y13.505 I71.5 J14.0
G1 X83.5
G3 X83.995 Y14.0 I83.5 J14.0
G1 Y15.0
G3 X83.85 Y15.35 I83.5 J15.0
G1 X82.495 Y16.705
G1 Y19.295
G1 X83.85 Y20.65
G3 X83.995 Y21.0 I83.5 J21.0
G1 Y22.0
G3 X83.5 Y22.495 I83.5 J22.0
G1 X82.0
G3 X81.505 Y22.0 I82.0 J22.0
G2 X81.495 I81.5 J22.0
G1 Y22.2
G3 X81.0 Y22.695 I81.0 J22.2
G1 X80.0
G2 Y22.705 I80.0 J22.7
G1 X81.0
G3 X81.495 Y23.2 I81.0 J23.2
G1 Y23.5
G3 X80.5 Y24.495 I80.5 J23.5
G1 X78.5
G3 X77.505 Y23.5 I78.5 J23.5
G1 Y22.71
G3 X77.65 Y22.36 I78.0 J22.71
G2 X77.64 Y22.35 I77.645 J22.355
G3 X77.29 Y22.495 I77.29 J22.0
G1 X47.21
G3 X46.86 Y22.35 I47.21 J22.0
G2 X46.85 Y22.36 I46.855 J22.355
G3 X46.995 Y22.71 I46.5 J22.71
G1 Y23.5
G3 X46.0 Y24.495 I46.0 J23.5
G1 X44.0
G3 X43.7778 Y24.4699 I44.0 J23.5
G0 Z3.0
M5
M30
