( Made using CamBam - http://www.cambam.co.uk )
( jupe 12/16/2016 12:51:46 PM )
( T4 : 1.0 )
G21 G90 G64 G40
G0 Z3.0
( T4 : 1.0 )
T4 M6
( Contour1 )
G17
M3
G0 X30.1333 Y40.4795
G0 Z0.5
G1 F300.0 Z-2.0
G1 F600.0 X29.7566 Y39.5
G1 X18.0
G1 Y46.5
G1 X29.7566
G1 X30.1333 Y45.5205
G3 X30.6 Y45.2 I30.6 J45.7
G1 X32.1
G1 Y40.8
G1 X30.6
G3 X30.1333 Y40.4795 I30.6 J40.3
G0 Z3.0
G0 X31.9736 Y38.3
G0 Z0.5
G1 F300.0 Z-2.0
G1 F600.0 X32.6
G3 X34.6 Y40.3 I32.6 J40.3
G1 Y41.75
G1 X35.4
G1 Y40.3
G3 X37.4 Y38.3 I37.4 J40.3
G1 X38.0264
G1 X38.0333 Y38.282
G3 X39.9 Y37.0 I39.9 J39.0
G1 X52.0
G1 Y23.0548
G1 X50.1314 Y14.64
G2 X27.25 Y4.5766 I35.0 J18.0
G2 X19.8686 Y14.64 I35.0 J18.0
G1 X18.0 Y23.0548
G1 Y37.0
G1 X30.1
G3 X31.9667 Y38.282 I30.1 J39.0
G1 X31.9736 Y38.3
G0 Z3.0
G0 X37.9 Y40.8
G0 Z0.5
G1 F300.0 Z-2.0
G1 F600.0 Y45.2
G1 X39.4
G3 X39.8667 Y45.5205 I39.4 J45.7
G1 X40.2434 Y46.5
G1 X52.0
G1 Y39.5
G1 X40.2434
G1 X39.8667 Y40.4795
G3 X39.4 Y40.8 I39.4 J40.3
G1 X37.9
G0 Z3.0
G0 X35.4 Y44.25
G0 Z0.5
G1 F300.0 Z-2.0
G1 F600.0 X34.6
G1 Y45.7
G3 X32.6 Y47.7 I32.6 J45.7
G1 X31.9736
G1 X31.9667 Y47.718
G3 X30.1 Y49.0 I30.1 J47.0
G1 X18.0
G1 Y62.9452
G1 X19.8686 Y71.36
G2 X27.25 Y81.4234 I35.0 J68.0
G2 X50.1314 Y71.36 I35.0 J68.0
G1 X52.0 Y62.9452
G1 Y49.0
G1 X39.9
G3 X38.0333 Y47.718 I39.9 J47.0
G1 X38.0264 Y47.7
G1 X37.4
G3 X35.4 Y45.7 I37.4 J45.7
G1 Y44.25
G0 Z3.0
G0 X54.0 Y48.0
G0 Z0.5
G1 F300.0 Z-2.0
G1 F600.0 Y54.0
G3 X54.5 Y54.5 I54.0 J54.5
G1 Y57.0
G1 X56.0
G1 Y54.5
G3 X56.5 Y54.0 I56.5 J54.5
G1 Y48.0
G3 X56.0 Y47.5 I56.5 J47.5
G1 Y38.5
G3 X56.5 Y38.0 I56.5 J38.5
G1 Y32.0
G3 X56.0 Y31.5 I56.5 J31.5
G1 Y29.0
G1 X54.5
G1 Y31.5
G3 X54.0 Y32.0 I54.0 J31.5
G1 Y38.0
G3 X54.5 Y38.5 I54.0 J38.5
G1 Y47.5
G3 X54.0 Y48.0 I54.0 J47.5
G0 Z3.0
G0 X54.5 Y59.5
G0 Z0.5
G1 F300.0 Z-2.0
G1 F600.0 Y63.0
G3 X54.4885 Y63.1065 I54.0 J63.0
G1 X53.1155 Y69.4083
G1 X63.5104 Y79.8033
G1 X67.4246 Y75.8891
G2 X68.0 Y74.5 I66.0355 J74.5
G1 Y73.0
G2 X67.4142 Y71.5858 I66.0 J73.0
G1 X65.8284 Y70.0
G2 X61.0 Y68.0 I61.0 J74.8284
G3 X56.0 Y63.0 I61.0 J63.0
G1 Y59.5
G1 X54.5
G0 Z3.0
G0 X52.4774 Y72.3058
G0 Z0.5
G1 F300.0 Z-2.0
G3 F600.0 X49.9123 Y78.0808 I35.0 J68.0
G1 X53.15 Y90.1637
G1 X54.6673 Y88.6464
G3 X55.0208 Y88.5 I55.0208 J89.0
G1 X56.5
G1 Y87.0208
G3 X56.6464 Y86.6673 I57.0 J87.0208
G1 X61.7426 Y81.5711
G1 X52.4774 Y72.3058
G0 Z3.0
G0 X47.9679 Y80.4833
G0 Z0.5
G1 F300.0 Z-2.0
G3 F600.0 X44.0 Y83.5885 I35.0 J68.0
G3 X35.0 Y86.0 I35.0 J68.0
G3 X26.0 Y83.5885 I35.0 J68.0
G3 X22.0321 Y80.4833 I35.0 J68.0
G1 X18.8913 Y92.205
G1 X19.3431 Y92.6569
G2 X25.0 Y95.0 I25.0 J87.0
G1 X35.0
G1 X45.0
G2 X50.6569 Y92.6569 I45.0 J87.0
G1 X51.1087 Y92.205
G1 X47.9679 Y80.4833
G0 Z3.0
G0 X20.0877 Y78.0808
G0 Z0.5
G1 F300.0 Z-2.0
G3 F600.0 X17.5226 Y72.3058 I35.0 J68.0
G1 X8.2574 Y81.5711
G1 X13.3536 Y86.6673
G3 X13.5 Y87.0208 I13.0 J87.0208
G1 Y88.5
G1 X14.9792
G3 X15.3327 Y88.6464 I14.9792 J89.0
G1 X16.85 Y90.1637
G1 X20.0877 Y78.0808
G0 Z3.0
G0 X14.1499 Y72.143
G0 Z0.5
G1 F300.0 Z-2.0
G1 F600.0 X16.8845 Y69.4083
G1 X15.5115 Y63.1065
G3 X15.5 Y63.0 I16.0 J63.0
G1 Y59.5
G1 X14.0
G1 Y63.0
G3 X9.0 Y68.0 I9.0 J63.0
G2 X4.1716 Y70.0 I9.0 J74.8284
G1 X2.5858 Y71.5858
G2 X2.0 Y73.0 I4.0 J73.0
G1 Y74.5
G2 X2.5754 Y75.8891 I3.9645 J74.5
G1 X6.4896 Y79.8033
G1 X14.1499 Y72.143
G0 Z3.0
G0 Y57.0
G0 Z0.5
G1 F300.0 Z-2.0
G1 F600.0 X15.5
G1 Y54.5
G3 X16.0 Y54.0 I16.0 J54.5
G1 Y48.0
G3 X15.5 Y47.5 I16.0 J47.5
G1 Y38.5
G3 X16.0 Y38.0 I16.0 J38.5
G1 Y32.0
G3 X15.5 Y31.5 I16.0 J31.5
G1 Y29.0
G1 X14.0
G1 Y31.5
G3 X13.5 Y32.0 I13.5 J31.5
G1 Y38.0
G3 X14.0 Y38.5 I13.5 J38.5
G1 Y47.5
G3 X13.5 Y48.0 I13.5 J47.5
G1 Y54.0
G3 X14.0 Y54.5 I13.5 J54.5
G1 Y57.0
G1 X14.1499
G0 Z3.0
G0 Y26.5
G0 Z0.5
G1 F300.0 Z-2.0
G1 F600.0 X15.5
G1 Y23.0
G3 X15.5115 Y22.8935 I16.0 J23.0
G1 X17.4126 Y14.168
G3 X19.8434 Y8.2904 I35.0 J18.0
G3 X20.0412 Y7.9884 I35.0 J18.0
G2 X20.15 Y7.5 I19.0 J7.5
G2 X18.6372 Y6.4087 I19.0 J7.5
G1 X18.2989 Y6.5813
G1 X14.645 Y8.4454
G3 X14.4178 Y8.5 I14.4178 J8.0
G1 X13.5
G1 Y8.7233
G3 X13.2272 Y9.1687 I13.0 J8.7233
G1 X12.2733 Y9.6553
G2 X9.0 Y15.0 I15.0 J15.0
G1 Y16.0
G2 X9.9459 Y17.3243 I10.4 J16.0
G3 X14.0 Y23.0 I8.0 J23.0
G1 Y26.5
G1 X14.1499
G0 Z3.0
G0 X21.788 Y5.5805
G0 Z0.5
G1 F300.0 Z-2.0
G2 F600.0 X22.618 Y5.0 I22.0 J5.0
G2 X21.691 Y4.4648 I22.0 J5.0
G2 Y5.5352 I22.0 J5.0
G2 X21.788 Y5.5805 I22.0 J5.0
G0 Z3.0
G0 X25.7982 Y2.6476
G0 Z0.5
G1 F300.0 Z-2.0
G2 F600.0 X25.875 Y2.7165 I26.0 J2.5
G2 X26.25 Y2.5 I26.0 J2.5
G2 X25.875 Y2.2835 I26.0 J2.5
G2 X25.7982 Y2.6476 I26.0 J2.5
G0 Z3.0
G0 X43.75 Y2.502
G0 Z0.5
G1 F300.0 Z-2.0
G2 F600.0 X43.875 Y2.7165 I44.0 J2.5
G2 X44.25 Y2.5 I44.0 J2.5
G2 X43.875 Y2.2835 I44.0 J2.5
G2 X43.75 Y2.502 I44.0 J2.5
G0 Z3.0
G0 X47.4672 Y4.6868
G0 Z0.5
G1 F300.0 Z-2.0
G2 F600.0 X47.691 Y5.5352 I48.0 J5.0
G2 X48.618 Y5.0 I48.0 J5.0
G2 X47.691 Y4.4648 I48.0 J5.0
G2 X47.4672 Y4.6868 I48.0 J5.0
G0 Z3.0
G0 X50.1004 Y6.7836
G0 Z0.5
G1 F300.0 Z-2.0
G2 F600.0 X49.85 Y7.5 I51.0 J7.5
G2 X49.9588 Y7.9884 I51.0 J7.5
G3 X50.1566 Y8.2904 I35.0 J18.0
G3 X52.5874 Y14.168 I35.0 J18.0
G1 X54.4885 Y22.8935
G3 X54.5 Y23.0 I54.0 J23.0
G1 Y26.5
G1 X56.0
G1 Y23.0
G3 X60.0541 Y17.3243 I62.0 J23.0
G2 X61.0 Y16.0 I59.6 J16.0
G1 Y15.0
G2 X57.7267 Y9.6553 I55.0 J15.0
G1 X56.7728 Y9.1687
G3 X56.5 Y8.7233 I57.0 J8.7233
G1 Y8.5
G1 X55.5822
G3 X55.355 Y8.4454 I55.5822 J8.0
G1 X51.7011 Y6.5813
G1 X51.3628 Y6.4087
G2 X50.1004 Y6.7836 I51.0 J7.5
( Contour2 )
G0 Z3.0
G0 X30.1333 Y40.4795
G0 Z-1.5
G1 F300.0 Z-2.0
G1 F800.0 X29.7566 Y39.5
G1 X18.0
G1 Y46.5
G1 X29.7566
G1 X30.1333 Y45.5205
G3 X30.6 Y45.2 I30.6 J45.7
G1 X32.1
G1 Y40.8
G1 X30.6
G3 X30.1333 Y40.4795 I30.6 J40.3
G0 Z3.0
G0 X31.9736 Y38.3
G0 Z-1.5
G1 F300.0 Z-2.0
G1 F800.0 X32.6
G3 X34.6 Y40.3 I32.6 J40.3
G1 Y41.75
G1 X35.4
G1 Y40.3
G3 X37.4 Y38.3 I37.4 J40.3
G1 X38.0264
G1 X38.0333 Y38.282
G3 X39.9 Y37.0 I39.9 J39.0
G1 X52.0
G1 Y23.0548
G1 X50.1314 Y14.64
G2 X27.25 Y4.5766 I35.0 J18.0
G2 X19.8686 Y14.64 I35.0 J18.0
G1 X18.0 Y23.0548
G1 Y37.0
G1 X30.1
G3 X31.9667 Y38.282 I30.1 J39.0
G1 X31.9736 Y38.3
G0 Z3.0
G0 X37.9 Y40.8
G0 Z-1.5
G1 F300.0 Z-2.0
G1 F800.0 Y45.2
G1 X39.4
G3 X39.8667 Y45.5205 I39.4 J45.7
G1 X40.2434 Y46.5
G1 X52.0
G1 Y39.5
G1 X40.2434
G1 X39.8667 Y40.4795
G3 X39.4 Y40.8 I39.4 J40.3
G1 X37.9
G0 Z3.0
G0 X35.4 Y44.25
G0 Z-1.5
G1 F300.0 Z-2.0
G1 F800.0 X34.6
G1 Y45.7
G3 X32.6 Y47.7 I32.6 J45.7
G1 X31.9736
G1 X31.9667 Y47.718
G3 X30.1 Y49.0 I30.1 J47.0
G1 X18.0
G1 Y62.9452
G1 X19.8686 Y71.36
G2 X27.25 Y81.4234 I35.0 J68.0
G2 X50.1314 Y71.36 I35.0 J68.0
G1 X52.0 Y62.9452
G1 Y49.0
G1 X39.9
G3 X38.0333 Y47.718 I39.9 J47.0
G1 X38.0264 Y47.7
G1 X37.4
G3 X35.4 Y45.7 I37.4 J45.7
G1 Y44.25
G0 Z3.0
G0 X54.0 Y48.0
G0 Z-1.5
G1 F300.0 Z-2.0
G1 F800.0 Y54.0
G3 X54.5 Y54.5 I54.0 J54.5
G1 Y57.0
G1 X56.0
G1 Y54.5
G3 X56.5 Y54.0 I56.5 J54.5
G1 Y48.0
G3 X56.0 Y47.5 I56.5 J47.5
G1 Y38.5
G3 X56.5 Y38.0 I56.5 J38.5
G1 Y32.0
G3 X56.0 Y31.5 I56.5 J31.5
G1 Y29.0
G1 X54.5
G1 Y31.5
G3 X54.0 Y32.0 I54.0 J31.5
G1 Y38.0
G3 X54.5 Y38.5 I54.0 J38.5
G1 Y47.5
G3 X54.0 Y48.0 I54.0 J47.5
G0 Z3.0
G0 X54.5 Y59.5
G0 Z-1.5
G1 F300.0 Z-2.0
G1 F800.0 Y63.0
G3 X54.4885 Y63.1065 I54.0 J63.0
G1 X53.1155 Y69.4083
G1 X63.5104 Y79.8033
G1 X67.4246 Y75.8891
G2 X68.0 Y74.5 I66.0355 J74.5
G1 Y73.0
G2 X67.4142 Y71.5858 I66.0 J73.0
G1 X65.8284 Y70.0
G2 X61.0 Y68.0 I61.0 J74.8284
G3 X56.0 Y63.0 I61.0 J63.0
G1 Y59.5
G1 X54.5
G0 Z3.0
G0 X52.4774 Y72.3058
G0 Z-1.5
G1 F300.0 Z-2.0
G3 F800.0 X49.9123 Y78.0808 I35.0 J68.0
G1 X53.15 Y90.1637
G1 X54.6673 Y88.6464
G3 X55.0208 Y88.5 I55.0208 J89.0
G1 X56.5
G1 Y87.0208
G3 X56.6464 Y86.6673 I57.0 J87.0208
G1 X61.7426 Y81.5711
G1 X52.4774 Y72.3058
G0 Z3.0
G0 X47.9679 Y80.4833
G0 Z-1.5
G1 F300.0 Z-2.0
G3 F800.0 X44.0 Y83.5885 I35.0 J68.0
G3 X35.0 Y86.0 I35.0 J68.0
G3 X26.0 Y83.5885 I35.0 J68.0
G3 X22.0321 Y80.4833 I35.0 J68.0
G1 X18.8913 Y92.205
G1 X19.3431 Y92.6569
G2 X25.0 Y95.0 I25.0 J87.0
G1 X35.0
G1 X45.0
G2 X50.6569 Y92.6569 I45.0 J87.0
G1 X51.1087 Y92.205
G1 X47.9679 Y80.4833
G0 Z3.0
G0 X20.0877 Y78.0808
G0 Z-1.5
G1 F300.0 Z-2.0
G3 F800.0 X17.5226 Y72.3058 I35.0 J68.0
G1 X8.2574 Y81.5711
G1 X13.3536 Y86.6673
G3 X13.5 Y87.0208 I13.0 J87.0208
G1 Y88.5
G1 X14.9792
G3 X15.3327 Y88.6464 I14.9792 J89.0
G1 X16.85 Y90.1637
G1 X20.0877 Y78.0808
G0 Z3.0
G0 X14.1499 Y72.143
G0 Z-1.5
G1 F300.0 Z-2.0
G1 F800.0 X16.8845 Y69.4083
G1 X15.5115 Y63.1065
G3 X15.5 Y63.0 I16.0 J63.0
G1 Y59.5
G1 X14.0
G1 Y63.0
G3 X9.0 Y68.0 I9.0 J63.0
G2 X4.1716 Y70.0 I9.0 J74.8284
G1 X2.5858 Y71.5858
G2 X2.0 Y73.0 I4.0 J73.0
G1 Y74.5
G2 X2.5754 Y75.8891 I3.9645 J74.5
G1 X6.4896 Y79.8033
G1 X14.1499 Y72.143
G0 Z3.0
G0 Y57.0
G0 Z-1.5
G1 F300.0 Z-2.0
G1 F800.0 X15.5
G1 Y54.5
G3 X16.0 Y54.0 I16.0 J54.5
G1 Y48.0
G3 X15.5 Y47.5 I16.0 J47.5
G1 Y38.5
G3 X16.0 Y38.0 I16.0 J38.5
G1 Y32.0
G3 X15.5 Y31.5 I16.0 J31.5
G1 Y29.0
G1 X14.0
G1 Y31.5
G3 X13.5 Y32.0 I13.5 J31.5
G1 Y38.0
G3 X14.0 Y38.5 I13.5 J38.5
G1 Y47.5
G3 X13.5 Y48.0 I13.5 J47.5
G1 Y54.0
G3 X14.0 Y54.5 I13.5 J54.5
G1 Y57.0
G1 X14.1499
G0 Z3.0
G0 Y26.5
G0 Z-1.5
G1 F300.0 Z-2.0
G1 F800.0 X15.5
G1 Y23.0
G3 X15.5115 Y22.8935 I16.0 J23.0
G1 X17.4126 Y14.168
G3 X19.8434 Y8.2904 I35.0 J18.0
G3 X20.0412 Y7.9884 I35.0 J18.0
G2 X20.15 Y7.5 I19.0 J7.5
G2 X18.6372 Y6.4087 I19.0 J7.5
G1 X18.2989 Y6.5813
G1 X14.645 Y8.4454
G3 X14.4178 Y8.5 I14.4178 J8.0
G1 X13.5
G1 Y8.7233
G3 X13.2272 Y9.1687 I13.0 J8.7233
G1 X12.2733 Y9.6553
G2 X9.0 Y15.0 I15.0 J15.0
G1 Y16.0
G2 X9.9459 Y17.3243 I10.4 J16.0
G3 X14.0 Y23.0 I8.0 J23.0
G1 Y26.5
G1 X14.1499
G0 Z3.0
G0 X21.788 Y5.5805
G0 Z-1.5
G1 F300.0 Z-2.0
G2 F800.0 X22.618 Y5.0 I22.0 J5.0
G2 X21.691 Y4.4648 I22.0 J5.0
G2 Y5.5352 I22.0 J5.0
G2 X21.788 Y5.5805 I22.0 J5.0
G0 Z3.0
G0 X25.7982 Y2.6476
G0 Z-1.5
G1 F300.0 Z-2.0
G2 F800.0 X25.875 Y2.7165 I26.0 J2.5
G2 X26.25 Y2.5 I26.0 J2.5
G2 X25.875 Y2.2835 I26.0 J2.5
G2 X25.7982 Y2.6476 I26.0 J2.5
G0 Z3.0
G0 X43.75 Y2.502
G0 Z-1.5
G1 F300.0 Z-2.0
G2 F800.0 X43.875 Y2.7165 I44.0 J2.5
G2 X44.25 Y2.5 I44.0 J2.5
G2 X43.875 Y2.2835 I44.0 J2.5
G2 X43.75 Y2.502 I44.0 J2.5
G0 Z3.0
G0 X47.4672 Y4.6868
G0 Z-1.5
G1 F300.0 Z-2.0
G2 F800.0 X47.691 Y5.5352 I48.0 J5.0
G2 X48.618 Y5.0 I48.0 J5.0
G2 X47.691 Y4.4648 I48.0 J5.0
G2 X47.4672 Y4.6868 I48.0 J5.0
G0 Z3.0
G0 X50.1004 Y6.7836
G0 Z-1.5
G1 F300.0 Z-2.0
G2 F800.0 X49.85 Y7.5 I51.0 J7.5
G2 X49.9588 Y7.9884 I51.0 J7.5
G3 X50.1566 Y8.2904 I35.0 J18.0
G3 X52.5874 Y14.168 I35.0 J18.0
G1 X54.4885 Y22.8935
G3 X54.5 Y23.0 I54.0 J23.0
G1 Y26.5
G1 X56.0
G1 Y23.0
G3 X60.0541 Y17.3243 I62.0 J23.0
G2 X61.0 Y16.0 I59.6 J16.0
G1 Y15.0
G2 X57.7267 Y9.6553 I55.0 J15.0
G1 X56.7728 Y9.1687
G3 X56.5 Y8.7233 I57.0 J8.7233
G1 Y8.5
G1 X55.5822
G3 X55.355 Y8.4454 I55.5822 J8.0
G1 X51.7011 Y6.5813
G1 X51.3628 Y6.4087
G2 X50.1004 Y6.7836 I51.0 J7.5
( Contour3 )
G0 Z3.0
G0 X11.5 Y23.0
G0 Z0.5
G1 F300.0 Z-2.0
G2 F600.0 X9.1351 Y19.6892 I8.0 J23.0
G3 X6.5 Y16.0 I10.4 J16.0
G1 Y15.0
G3 X11.1372 Y7.4284 I15.0 J15.0
G1 X25.5006 Y0.1007
G3 X28.0 Y-0.5 I28.0 J5.0
G1 X42.0
G3 X44.4884 Y0.0951 I42.0 J5.0
G1 X44.4889 Y0.0954
G3 X44.4997 Y0.1009 I41.995 J4.9975
G1 X58.8628 Y7.4284
G3 X63.5 Y15.0 I55.0 J15.0
G1 Y16.0
G3 X60.8649 Y19.6892 I59.6 J16.0
G2 X58.5 Y23.0 I62.0 J23.0
G1 Y63.0
G2 X61.0 Y65.5 I61.0 J63.0
G3 X67.5962 Y68.2322 I61.0 J74.8284
G1 X68.3891 Y69.0252
G1 X69.182 Y69.818
G3 X70.5 Y73.0 I66.0 J73.0
G1 Y74.5
G3 X69.1924 Y77.6569 I66.0355 J74.5
G1 X52.4246 Y94.4246
G3 X48.1373 Y97.0204 I45.0 J87.0
G3 X45.0 Y97.5 I45.0 J87.0
G1 X25.0
G3 X17.5754 Y94.4246 I25.0 J87.0
G1 X0.8076 Y77.6569
G3 X-0.5 Y74.5 I3.9645 J74.5
G1 Y73.0
G3 X0.818 Y69.818 I4.0 J73.0
G1 X2.4038 Y68.2322
G3 X9.0 Y65.5 I9.0 J74.8284
G2 X11.5 Y63.0 I9.0 J63.0
G1 Y23.0
G0 Z3.0
M5
M30
